P3
160 160
255
20 20 30
20 20 30
20 20 30
20 20 30
20 20 30
20 20 30
20 20 30
20 20 30
20 20 30
20 20 30
20 20 30
20 20 30
20 20 30
20 20 30
20 20 30
20 20 30
20 20 30
20 20 30
20 20 30
20 20 30
20 20 30
20 20 30
20 20 30
20 20 30
20 20 30
20 20 30
20 20 30
20 20 30
20 20 30
20 20 30
20 20 30
20 20 30
20 20 30
20 20 30
20 20 30
20 20 30
20 20 30
20 20 30
20 20 30
20 20 30
20 20 30
20 20 30
20 20 30
20 20 30
20 20 30
20 20 30
20 20 30
20 20 30
20 20 30
20 20 30
20 20 30
20 20 30
20 20 30
20 20 30
20 20 30
20 20 30
20 20 30
20 20 30
20 20 30
20 20 30
20 20 30
20 20 30
20 20 30
20 20 30
20 20 30
20 20 30
20 20 30
20 20 30
20 20 30
20 20 30
20 20 30
20 20 30
20 20 30
20 20 30
20 20 30
20 20 30
20 20 30
20 20 30
20 20 30
20 20 30
20 20 30
20 20 30
20 20 30
20 20 30
20 20 30
20 20 30
20 20 30
20 20 30
20 20 30
20 20 30
20 20 30
20 20 30
20 20 30
20 20 30
20 20 30
20 20 30
20 20 30
20 20 30
20 20 30
20 20 30
20 20 30
20 20 30
20 20 30
20 20 30
20 20 30
20 20 30
20 20 30
20 20 30
20 20 30
20 20 30
20 20 30
20 20 30
20 20 30
20 20 30
20 20 30
20 20 30
20 20 30
20 20 30
20 20 30
20 20 30
20 20 30
20 20 30
20 20 30
20 20 30
20 20 30
20 20 30
20 20 30
20 20 30
20 20 30
20 20 30
20 20 30
20 20 30
20 20 30
20 20 30
20 20 30
20 20 30
20 20 30
20 20 30
20 20 30
20 20 30
20 20 30
20 20 30
20 20 30
20 20 30
20 20 30
20 20 30
20 20 30
20 20 30
20 20 30
20 20 30
20 20 30
20 20 30
20 20 30
20 20 30
20 20 30
20 20 30
20 20 30
20 20 30
20 20 30
20 20 30
20 20 30
20 20 30
20 20 30
20 20 30
20 20 30
20 20 30
20 20 30
20 20 30
20 20 30
20 20 30
20 20 30
20 20 30
20 20 30
20 20 30
20 20 30
20 20 30
20 20 30
20 20 30
20 20 30
20 20 30
20 20 30
20 20 30
20 20 30
20 20 30
20 20 30
20 20 30
20 20 30
20 20 30
20 20 30
20 20 30
20 20 30
20 20 30
20 20 30
20 20 30
20 20 30
20 20 30
20 20 30
20 20 30
20 20 30
20 20 30
20 20 30
20 20 30
20 20 30
20 20 30
20 20 30
20 20 30
20 20 30
20 20 30
20 20 30
20 20 30
20 20 30
20 20 30
20 20 30
20 20 30
20 20 30
20 20 30
20 20 30
20 20 30
20 20 30
20 20 30
20 20 30
20 20 30
20 20 30
20 20 30
20 20 30
20 20 30
20 20 30
20 20 30
20 20 30
20 20 30
20 20 30
20 20 30
20 20 30
20 20 30
20 20 30
20 20 30
20 20 30
20 20 30
20 20 30
20 20 30
20 20 30
20 20 30
20 20 30
20 20 30
20 20 30
20 20 30
20 20 30
20 20 30
20 20 30
20 20 30
20 20 30
20 20 30
20 20 30
20 20 30
20 20 30
20 20 30
20 20 30
20 20 30
20 20 30
20 20 30
20 20 30
20 20 30
20 20 30
20 20 30
20 20 30
20 20 30
20 20 30
20 20 30
20 20 30
20 20 30
20 20 30
20 20 30
20 20 30
20 20 30
20 20 30
20 20 30
20 20 30
20 20 30
20 20 30
20 20 30
20 20 30
20 20 30
20 20 30
20 20 30
20 20 30
20 20 30
20 20 30
20 20 30
20 20 30
20 20 30
20 20 30
20 20 30
20 20 30
20 20 30
20 20 30
20 20 30
20 20 30
20 20 30
20 20 30
20 20 30
20 20 30
20 20 30
20 20 30
20 20 30
20 20 30
20 20 30
20 20 30
20 20 30
20 20 30
20 20 30
20 20 30
20 20 30
20 20 30
20 20 30
20 20 30
20 20 30
20 20 30
20 20 30
20 20 30
20 20 30
20 20 30
20 20 30
20 20 30
20 20 30
20 20 30
20 20 30
20 20 30
20 20 30
20 20 30
20 20 30
20 20 30
20 20 30
20 20 30
20 20 30
20 20 30
20 20 30
20 20 30
20 20 30
20 20 30
20 20 30
20 20 30
20 20 30
20 20 30
20 20 30
20 20 30
20 20 30
20 20 30
20 20 30
20 20 30
20 20 30
20 20 30
20 20 30
20 20 30
20 20 30
20 20 30
20 20 30
20 20 30
20 20 30
20 20 30
20 20 30
20 20 30
20 20 30
20 20 30
20 20 30
20 20 30
20 20 30
20 20 30
20 20 30
20 20 30
20 20 30
20 20 30
20 20 30
20 20 30
20 20 30
20 20 30
20 20 30
20 20 30
20 20 30
20 20 30
20 20 30
20 20 30
20 20 30
20 20 30
20 20 30
20 20 30
20 20 30
20 20 30
20 20 30
20 20 30
20 20 30
20 20 30
20 20 30
20 20 30
20 20 30
20 20 30
20 20 30
20 20 30
20 20 30
20 20 30
20 20 30
20 20 30
20 20 30
20 20 30
20 20 30
20 20 30
20 20 30
20 20 30
20 20 30
20 20 30
20 20 30
20 20 30
20 20 30
20 20 30
20 20 30
20 20 30
20 20 30
20 20 30
20 20 30
20 20 30
20 20 30
20 20 30
20 20 30
20 20 30
20 20 30
20 20 30
20 20 30
20 20 30
20 20 30
20 20 30
20 20 30
20 20 30
20 20 30
20 20 30
20 20 30
20 20 30
20 20 30
20 20 30
20 20 30
20 20 30
20 20 30
20 20 30
20 20 30
20 20 30
20 20 30
20 20 30
20 20 30
20 20 30
20 20 30
20 20 30
20 20 30
20 20 30
20 20 30
20 20 30
20 20 30
20 20 30
20 20 30
20 20 30
20 20 30
20 20 30
20 20 30
20 20 30
20 20 30
20 20 30
20 20 30
20 20 30
20 20 30
20 20 30
20 20 30
20 20 30
20 20 30
20 20 30
20 20 30
20 20 30
20 20 30
20 20 30
20 20 30
20 20 30
20 20 30
20 20 30
20 20 30
20 20 30
20 20 30
20 20 30
20 20 30
20 20 30
20 20 30
20 20 30
20 20 30
20 20 30
20 20 30
20 20 30
20 20 30
20 20 30
20 20 30
20 20 30
20 20 30
20 20 30
20 20 30
20 20 30
20 20 30
20 20 30
20 20 30
20 20 30
20 20 30
20 20 30
20 20 30
20 20 30
20 20 30
20 20 30
20 20 30
20 20 30
20 20 30
20 20 30
20 20 30
20 20 30
20 20 30
20 20 30
20 20 30
20 20 30
20 20 30
20 20 30
20 20 30
20 20 30
20 20 30
20 20 30
20 20 30
20 20 30
20 20 30
20 20 30
20 20 30
20 20 30
20 20 30
20 20 30
20 20 30
20 20 30
20 20 30
20 20 30
20 20 30
20 20 30
20 20 30
20 20 30
20 20 30
20 20 30
20 20 30
20 20 30
20 20 30
20 20 30
20 20 30
20 20 30
20 20 30
20 20 30
20 20 30
20 20 30
20 20 30
20 20 30
20 20 30
20 20 30
20 20 30
20 20 30
20 20 30
20 20 30
20 20 30
20 20 30
20 20 30
20 20 30
20 20 30
20 20 30
20 20 30
20 20 30
20 20 30
20 20 30
20 20 30
20 20 30
20 20 30
20 20 30
20 20 30
20 20 30
20 20 30
20 20 30
20 20 30
20 20 30
20 20 30
20 20 30
20 20 30
20 20 30
20 20 30
20 20 30
20 20 30
20 20 30
20 20 30
20 20 30
20 20 30
20 20 30
20 20 30
20 20 30
20 20 30
20 20 30
20 20 30
20 20 30
20 20 30
20 20 30
20 20 30
20 20 30
20 20 30
20 20 30
20 20 30
20 20 30
20 20 30
20 20 30
20 20 30
20 20 30
20 20 30
20 20 30
20 20 30
20 20 30
20 20 30
20 20 30
20 20 30
20 20 30
20 20 30
20 20 30
20 20 30
20 20 30
20 20 30
20 20 30
20 20 30
20 20 30
20 20 30
20 20 30
20 20 30
20 20 30
20 20 30
20 20 30
20 20 30
20 20 30
20 20 30
20 20 30
20 20 30
20 20 30
20 20 30
20 20 30
20 20 30
20 20 30
20 20 30
20 20 30
20 20 30
20 20 30
20 20 30
20 20 30
20 20 30
20 20 30
20 20 30
20 20 30
20 20 30
20 20 30
20 20 30
20 20 30
20 20 30
20 20 30
20 20 30
20 20 30
20 20 30
20 20 30
20 20 30
20 20 30
20 20 30
20 20 30
20 20 30
20 20 30
20 20 30
20 20 30
20 20 30
20 20 30
20 20 30
20 20 30
20 20 30
20 20 30
20 20 30
20 20 30
20 20 30
20 20 30
20 20 30
20 20 30
20 20 30
20 20 30
20 20 30
20 20 30
20 20 30
20 20 30
20 20 30
20 20 30
20 20 30
20 20 30
20 20 30
20 20 30
20 20 30
20 20 30
20 20 30
20 20 30
20 20 30
20 20 30
20 20 30
20 20 30
20 20 30
20 20 30
20 20 30
20 20 30
20 20 30
20 20 30
20 20 30
20 20 30
20 20 30
20 20 30
20 20 30
20 20 30
20 20 30
20 20 30
20 20 30
20 20 30
20 20 30
20 20 30
20 20 30
20 20 30
20 20 30
20 20 30
20 20 30
20 20 30
20 20 30
20 20 30
20 20 30
20 20 30
20 20 30
20 20 30
20 20 30
20 20 30
20 20 30
20 20 30
20 20 30
20 20 30
20 20 30
20 20 30
20 20 30
20 20 30
20 20 30
20 20 30
20 20 30
20 20 30
20 20 30
20 20 30
20 20 30
20 20 30
20 20 30
20 20 30
20 20 30
20 20 30
20 20 30
20 20 30
20 20 30
20 20 30
20 20 30
20 20 30
20 20 30
20 20 30
20 20 30
20 20 30
20 20 30
20 20 30
20 20 30
20 20 30
20 20 30
20 20 30
20 20 30
20 20 30
20 20 30
20 20 30
20 20 30
20 20 30
20 20 30
20 20 30
20 20 30
20 20 30
20 20 30
20 20 30
20 20 30
20 20 30
20 20 30
20 20 30
20 20 30
20 20 30
20 20 30
20 20 30
20 20 30
20 20 30
20 20 30
20 20 30
20 20 30
20 20 30
20 20 30
20 20 30
20 20 30
20 20 30
20 20 30
20 20 30
20 20 30
20 20 30
20 20 30
20 20 30
20 20 30
20 20 30
20 20 30
20 20 30
20 20 30
20 20 30
20 20 30
20 20 30
20 20 30
20 20 30
20 20 30
20 20 30
20 20 30
20 20 30
20 20 30
20 20 30
20 20 30
20 20 30
20 20 30
20 20 30
20 20 30
20 20 30
20 20 30
20 20 30
20 20 30
20 20 30
20 20 30
20 20 30
20 20 30
20 20 30
20 20 30
20 20 30
20 20 30
20 20 30
20 20 30
20 20 30
20 20 30
20 20 30
20 20 30
20 20 30
20 20 30
20 20 30
20 20 30
20 20 30
20 20 30
20 20 30
20 20 30
20 20 30
20 20 30
20 20 30
20 20 30
20 20 30
20 20 30
20 20 30
20 20 30
20 20 30
20 20 30
20 20 30
20 20 30
20 20 30
20 20 30
20 20 30
20 20 30
20 20 30
20 20 30
20 20 30
20 20 30
20 20 30
20 20 30
20 20 30
20 20 30
20 20 30
20 20 30
20 20 30
20 20 30
20 20 30
20 20 30
20 20 30
20 20 30
20 20 30
20 20 30
20 20 30
20 20 30
20 20 30
20 20 30
20 20 30
20 20 30
20 20 30
20 20 30
20 20 30
20 20 30
20 20 30
20 20 30
20 20 30
20 20 30
20 20 30
20 20 30
20 20 30
20 20 30
20 20 30
20 20 30
20 20 30
20 20 30
20 20 30
20 20 30
20 20 30
20 20 30
20 20 30
20 20 30
20 20 30
20 20 30
20 20 30
20 20 30
20 20 30
20 20 30
20 20 30
20 20 30
20 20 30
20 20 30
20 20 30
20 20 30
20 20 30
20 20 30
20 20 30
20 20 30
20 20 30
20 20 30
20 20 30
20 20 30
20 20 30
20 20 30
20 20 30
20 20 30
20 20 30
20 20 30
20 20 30
20 20 30
20 20 30
20 20 30
20 20 30
20 20 30
20 20 30
20 20 30
20 20 30
20 20 30
20 20 30
20 20 30
20 20 30
20 20 30
20 20 30
20 20 30
20 20 30
20 20 30
20 20 30
20 20 30
20 20 30
20 20 30
20 20 30
20 20 30
20 20 30
20 20 30
20 20 30
20 20 30
20 20 30
20 20 30
20 20 30
20 20 30
20 20 30
20 20 30
20 20 30
20 20 30
20 20 30
20 20 30
20 20 30
20 20 30
20 20 30
20 20 30
20 20 30
20 20 30
20 20 30
20 20 30
20 20 30
20 20 30
20 20 30
20 20 30
20 20 30
20 20 30
20 20 30
20 20 30
20 20 30
20 20 30
20 20 30
20 20 30
20 20 30
20 20 30
20 20 30
20 20 30
20 20 30
20 20 30
20 20 30
20 20 30
20 20 30
20 20 30
20 20 30
20 20 30
20 20 30
20 20 30
20 20 30
20 20 30
20 20 30
20 20 30
20 20 30
20 20 30
20 20 30
20 20 30
20 20 30
20 20 30
20 20 30
20 20 30
20 20 30
20 20 30
20 20 30
20 20 30
20 20 30
20 20 30
20 20 30
20 20 30
20 20 30
20 20 30
20 20 30
20 20 30
20 20 30
20 20 30
20 20 30
20 20 30
20 20 30
20 20 30
20 20 30
20 20 30
20 20 30
20 20 30
20 20 30
20 20 30
20 20 30
20 20 30
20 20 30
20 20 30
20 20 30
20 20 30
20 20 30
20 20 30
20 20 30
20 20 30
20 20 30
20 20 30
20 20 30
20 20 30
20 20 30
20 20 30
20 20 30
20 20 30
20 20 30
20 20 30
20 20 30
20 20 30
20 20 30
20 20 30
20 20 30
20 20 30
20 20 30
20 20 30
20 20 30
20 20 30
20 20 30
20 20 30
20 20 30
20 20 30
20 20 30
20 20 30
20 20 30
20 20 30
20 20 30
20 20 30
20 20 30
20 20 30
20 20 30
20 20 30
20 20 30
20 20 30
20 20 30
20 20 30
20 20 30
20 20 30
20 20 30
20 20 30
20 20 30
20 20 30
20 20 30
20 20 30
20 20 30
20 20 30
20 20 30
20 20 30
20 20 30
20 20 30
20 20 30
20 20 30
20 20 30
20 20 30
20 20 30
20 20 30
20 20 30
20 20 30
20 20 30
20 20 30
20 20 30
20 20 30
20 20 30
20 20 30
20 20 30
20 20 30
20 20 30
20 20 30
20 20 30
20 20 30
20 20 30
20 20 30
20 20 30
20 20 30
20 20 30
20 20 30
20 20 30
20 20 30
20 20 30
20 20 30
20 20 30
20 20 30
20 20 30
20 20 30
20 20 30
20 20 30
20 20 30
20 20 30
20 20 30
20 20 30
20 20 30
20 20 30
20 20 30
20 20 30
20 20 30
20 20 30
20 20 30
20 20 30
20 20 30
20 20 30
20 20 30
20 20 30
20 20 30
20 20 30
20 20 30
20 20 30
20 20 30
20 20 30
20 20 30
20 20 30
20 20 30
20 20 30
20 20 30
20 20 30
20 20 30
20 20 30
20 20 30
20 20 30
20 20 30
20 20 30
20 20 30
20 20 30
20 20 30
20 20 30
20 20 30
20 20 30
20 20 30
20 20 30
20 20 30
20 20 30
20 20 30
20 20 30
20 20 30
20 20 30
20 20 30
20 20 30
20 20 30
20 20 30
20 20 30
20 20 30
20 20 30
20 20 30
20 20 30
20 20 30
20 20 30
20 20 30
20 20 30
20 20 30
20 20 30
20 20 30
20 20 30
20 20 30
20 20 30
20 20 30
20 20 30
20 20 30
20 20 30
20 20 30
20 20 30
20 20 30
20 20 30
20 20 30
20 20 30
20 20 30
20 20 30
20 20 30
20 20 30
20 20 30
20 20 30
20 20 30
20 20 30
20 20 30
20 20 30
20 20 30
20 20 30
20 20 30
20 20 30
20 20 30
20 20 30
20 20 30
20 20 30
20 20 30
20 20 30
20 20 30
20 20 30
20 20 30
20 20 30
20 20 30
20 20 30
20 20 30
20 20 30
20 20 30
20 20 30
20 20 30
20 20 30
20 20 30
20 20 30
20 20 30
20 20 30
20 20 30
20 20 30
20 20 30
20 20 30
20 20 30
20 20 30
20 20 30
20 20 30
20 20 30
20 20 30
20 20 30
20 20 30
20 20 30
20 20 30
20 20 30
20 20 30
20 20 30
20 20 30
20 20 30
20 20 30
20 20 30
20 20 30
20 20 30
20 20 30
20 20 30
20 20 30
20 20 30
20 20 30
20 20 30
20 20 30
20 20 30
20 20 30
20 20 30
20 20 30
20 20 30
20 20 30
20 20 30
20 20 30
20 20 30
20 20 30
20 20 30
20 20 30
20 20 30
20 20 30
20 20 30
20 20 30
20 20 30
20 20 30
20 20 30
20 20 30
20 20 30
20 20 30
20 20 30
20 20 30
20 20 30
20 20 30
20 20 30
20 20 30
20 20 30
20 20 30
20 20 30
20 20 30
20 20 30
20 20 30
20 20 30
20 20 30
20 20 30
20 20 30
20 20 30
20 20 30
20 20 30
20 20 30
20 20 30
20 20 30
20 20 30
20 20 30
20 20 30
20 20 30
20 20 30
20 20 30
20 20 30
20 20 30
20 20 30
20 20 30
20 20 30
20 20 30
20 20 30
20 20 30
20 20 30
20 20 30
20 20 30
20 20 30
20 20 30
20 20 30
20 20 30
20 20 30
20 20 30
20 20 30
20 20 30
20 20 30
20 20 30
20 20 30
20 20 30
20 20 30
20 20 30
20 20 30
20 20 30
20 20 30
20 20 30
20 20 30
20 20 30
20 20 30
20 20 30
20 20 30
20 20 30
20 20 30
20 20 30
20 20 30
20 20 30
20 20 30
20 20 30
20 20 30
20 20 30
20 20 30
20 20 30
20 20 30
20 20 30
20 20 30
20 20 30
20 20 30
20 20 30
20 20 30
20 20 30
20 20 30
20 20 30
20 20 30
20 20 30
20 20 30
20 20 30
20 20 30
20 20 30
20 20 30
20 20 30
20 20 30
20 20 30
20 20 30
20 20 30
20 20 30
20 20 30
20 20 30
20 20 30
20 20 30
20 20 30
20 20 30
20 20 30
20 20 30
20 20 30
20 20 30
20 20 30
20 20 30
20 20 30
20 20 30
20 20 30
20 20 30
20 20 30
20 20 30
20 20 30
20 20 30
20 20 30
20 20 30
20 20 30
20 20 30
20 20 30
20 20 30
20 20 30
20 20 30
20 20 30
20 20 30
20 20 30
20 20 30
20 20 30
20 20 30
20 20 30
20 20 30
20 20 30
20 20 30
20 20 30
20 20 30
20 20 30
20 20 30
20 20 30
20 20 30
20 20 30
20 20 30
20 20 30
20 20 30
20 20 30
20 20 30
20 20 30
20 20 30
20 20 30
20 20 30
20 20 30
20 20 30
20 20 30
20 20 30
20 20 30
20 20 30
20 20 30
20 20 30
20 20 30
20 20 30
20 20 30
20 20 30
20 20 30
20 20 30
20 20 30
20 20 30
20 20 30
20 20 30
20 20 30
20 20 30
20 20 30
20 20 30
20 20 30
20 20 30
20 20 30
20 20 30
20 20 30
20 20 30
20 20 30
20 20 30
20 20 30
20 20 30
20 20 30
20 20 30
20 20 30
20 20 30
20 20 30
20 20 30
20 20 30
20 20 30
20 20 30
20 20 30
20 20 30
20 20 30
20 20 30
20 20 30
20 20 30
20 20 30
20 20 30
20 20 30
20 20 30
20 20 30
20 20 30
20 20 30
20 20 30
20 20 30
20 20 30
20 20 30
20 20 30
20 20 30
20 20 30
20 20 30
20 20 30
20 20 30
20 20 30
20 20 30
20 20 30
20 20 30
20 20 30
20 20 30
20 20 30
20 20 30
20 20 30
20 20 30
20 20 30
20 20 30
20 20 30
20 20 30
20 20 30
20 20 30
20 20 30
20 20 30
20 20 30
20 20 30
20 20 30
20 20 30
20 20 30
20 20 30
20 20 30
20 20 30
20 20 30
20 20 30
20 20 30
20 20 30
20 20 30
20 20 30
20 20 30
20 20 30
20 20 30
20 20 30
20 20 30
20 20 30
20 20 30
20 20 30
20 20 30
20 20 30
20 20 30
20 20 30
20 20 30
20 20 30
20 20 30
20 20 30
20 20 30
20 20 30
20 20 30
20 20 30
20 20 30
20 20 30
20 20 30
20 20 30
20 20 30
20 20 30
20 20 30
20 20 30
20 20 30
20 20 30
20 20 30
20 20 30
20 20 30
20 20 30
20 20 30
20 20 30
20 20 30
20 20 30
20 20 30
20 20 30
20 20 30
20 20 30
20 20 30
20 20 30
20 20 30
20 20 30
20 20 30
20 20 30
20 20 30
20 20 30
20 20 30
20 20 30
20 20 30
20 20 30
20 20 30
20 20 30
20 20 30
20 20 30
20 20 30
20 20 30
20 20 30
20 20 30
20 20 30
20 20 30
20 20 30
20 20 30
20 20 30
20 20 30
20 20 30
20 20 30
20 20 30
20 20 30
20 20 30
20 20 30
20 20 30
20 20 30
20 20 30
20 20 30
20 20 30
20 20 30
20 20 30
20 20 30
20 20 30
20 20 30
20 20 30
20 20 30
20 20 30
20 20 30
20 20 30
20 20 30
20 20 30
20 20 30
20 20 30
20 20 30
20 20 30
20 20 30
20 20 30
20 20 30
20 20 30
20 20 30
20 20 30
20 20 30
20 20 30
20 20 30
20 20 30
20 20 30
20 20 30
20 20 30
20 20 30
20 20 30
20 20 30
20 20 30
20 20 30
20 20 30
20 20 30
20 20 30
20 20 30
20 20 30
20 20 30
20 20 30
20 20 30
20 20 30
20 20 30
20 20 30
20 20 30
20 20 30
20 20 30
20 20 30
20 20 30
20 20 30
20 20 30
20 20 30
20 20 30
20 20 30
20 20 30
20 20 30
20 20 30
20 20 30
20 20 30
20 20 30
20 20 30
20 20 30
20 20 30
20 20 30
20 20 30
20 20 30
20 20 30
20 20 30
20 20 30
20 20 30
20 20 30
20 20 30
20 20 30
20 20 30
20 20 30
20 20 30
20 20 30
20 20 30
20 20 30
20 20 30
20 20 30
20 20 30
20 20 30
20 20 30
20 20 30
20 20 30
20 20 30
20 20 30
20 20 30
20 20 30
20 20 30
20 20 30
20 20 30
20 20 30
20 20 30
20 20 30
20 20 30
20 20 30
20 20 30
20 20 30
20 20 30
20 20 30
20 20 30
20 20 30
20 20 30
20 20 30
20 20 30
20 20 30
20 20 30
20 20 30
20 20 30
20 20 30
20 20 30
20 20 30
20 20 30
20 20 30
20 20 30
20 20 30
20 20 30
20 20 30
20 20 30
20 20 30
20 20 30
20 20 30
20 20 30
20 20 30
20 20 30
20 20 30
20 20 30
20 20 30
20 20 30
20 20 30
20 20 30
20 20 30
20 20 30
20 20 30
20 20 30
20 20 30
20 20 30
20 20 30
20 20 30
20 20 30
20 20 30
20 20 30
20 20 30
20 20 30
20 20 30
20 20 30
20 20 30
20 20 30
20 20 30
20 20 30
20 20 30
20 20 30
20 20 30
20 20 30
20 20 30
20 20 30
20 20 30
20 20 30
20 20 30
20 20 30
20 20 30
20 20 30
20 20 30
20 20 30
20 20 30
20 20 30
20 20 30
20 20 30
20 20 30
20 20 30
20 20 30
20 20 30
20 20 30
20 20 30
20 20 30
20 20 30
20 20 30
20 20 30
20 20 30
20 20 30
20 20 30
20 20 30
20 20 30
20 20 30
20 20 30
20 20 30
20 20 30
20 20 30
20 20 30
20 20 30
20 20 30
20 20 30
20 20 30
20 20 30
20 20 30
20 20 30
20 20 30
20 20 30
20 20 30
20 20 30
20 20 30
20 20 30
20 20 30
20 20 30
20 20 30
20 20 30
20 20 30
20 20 30
20 20 30
20 20 30
20 20 30
20 20 30
20 20 30
20 20 30
20 20 30
20 20 30
20 20 30
20 20 30
20 20 30
20 20 30
20 20 30
20 20 30
20 20 30
20 20 30
20 20 30
20 20 30
20 20 30
20 20 30
20 20 30
20 20 30
20 20 30
20 20 30
20 20 30
20 20 30
20 20 30
20 20 30
20 20 30
20 20 30
20 20 30
20 20 30
20 20 30
20 20 30
20 20 30
20 20 30
20 20 30
20 20 30
20 20 30
20 20 30
20 20 30
20 20 30
20 20 30
20 20 30
20 20 30
20 20 30
20 20 30
20 20 30
20 20 30
20 20 30
20 20 30
20 20 30
20 20 30
20 20 30
20 20 30
20 20 30
20 20 30
20 20 30
20 20 30
20 20 30
20 20 30
20 20 30
20 20 30
20 20 30
20 20 30
20 20 30
20 20 30
20 20 30
20 20 30
20 20 30
20 20 30
20 20 30
20 20 30
20 20 30
20 20 30
20 20 30
20 20 30
20 20 30
20 20 30
20 20 30
20 20 30
20 20 30
20 20 30
20 20 30
20 20 30
20 20 30
20 20 30
20 20 30
20 20 30
20 20 30
20 20 30
20 20 30
20 20 30
20 20 30
20 20 30
20 20 30
20 20 30
20 20 30
20 20 30
20 20 30
20 20 30
20 20 30
20 20 30
20 20 30
20 20 30
20 20 30
20 20 30
20 20 30
20 20 30
20 20 30
20 20 30
20 20 30
20 20 30
20 20 30
20 20 30
20 20 30
20 20 30
20 20 30
20 20 30
20 20 30
20 20 30
20 20 30
20 20 30
20 20 30
20 20 30
20 20 30
20 20 30
20 20 30
20 20 30
20 20 30
20 20 30
20 20 30
20 20 30
20 20 30
20 20 30
20 20 30
20 20 30
20 20 30
20 20 30
20 20 30
20 20 30
20 20 30
20 20 30
20 20 30
20 20 30
20 20 30
20 20 30
20 20 30
20 20 30
20 20 30
20 20 30
20 20 30
20 20 30
20 20 30
20 20 30
20 20 30
20 20 30
20 20 30
20 20 30
20 20 30
20 20 30
20 20 30
20 20 30
20 20 30
20 20 30
20 20 30
20 20 30
20 20 30
20 20 30
20 20 30
20 20 30
20 20 30
20 20 30
20 20 30
20 20 30
20 20 30
20 20 30
20 20 30
20 20 30
20 20 30
20 20 30
20 20 30
20 20 30
20 20 30
20 20 30
20 20 30
20 20 30
20 20 30
20 20 30
20 20 30
20 20 30
20 20 30
20 20 30
20 20 30
20 20 30
20 20 30
20 20 30
20 20 30
20 20 30
20 20 30
20 20 30
20 20 30
20 20 30
20 20 30
20 20 30
20 20 30
20 20 30
20 20 30
20 20 30
20 20 30
20 20 30
20 20 30
20 20 30
20 20 30
20 20 30
20 20 30
20 20 30
20 20 30
20 20 30
20 20 30
20 20 30
20 20 30
20 20 30
20 20 30
20 20 30
20 20 30
20 20 30
20 20 30
20 20 30
20 20 30
20 20 30
20 20 30
20 20 30
20 20 30
20 20 30
20 20 30
20 20 30
20 20 30
20 20 30
20 20 30
20 20 30
20 20 30
20 20 30
20 20 30
20 20 30
20 20 30
20 20 30
20 20 30
20 20 30
20 20 30
20 20 30
20 20 30
20 20 30
20 20 30
20 20 30
20 20 30
20 20 30
20 20 30
20 20 30
20 20 30
20 20 30
20 20 30
20 20 30
20 20 30
20 20 30
20 20 30
20 20 30
20 20 30
20 20 30
20 20 30
20 20 30
20 20 30
20 20 30
20 20 30
20 20 30
20 20 30
20 20 30
20 20 30
20 20 30
20 20 30
20 20 30
20 20 30
20 20 30
20 20 30
20 20 30
20 20 30
20 20 30
20 20 30
20 20 30
20 20 30
20 20 30
20 20 30
20 20 30
20 20 30
20 20 30
20 20 30
20 20 30
20 20 30
20 20 30
20 20 30
20 20 30
20 20 30
20 20 30
20 20 30
20 20 30
20 20 30
20 20 30
20 20 30
20 20 30
20 20 30
20 20 30
20 20 30
20 20 30
20 20 30
20 20 30
20 20 30
20 20 30
20 20 30
20 20 30
20 20 30
20 20 30
20 20 30
20 20 30
20 20 30
20 20 30
20 20 30
20 20 30
20 20 30
20 20 30
20 20 30
20 20 30
20 20 30
20 20 30
20 20 30
20 20 30
20 20 30
20 20 30
20 20 30
20 20 30
20 20 30
20 20 30
20 20 30
20 20 30
20 20 30
20 20 30
20 20 30
20 20 30
20 20 30
20 20 30
20 20 30
20 20 30
20 20 30
20 20 30
20 20 30
20 20 30
20 20 30
20 20 30
20 20 30
20 20 30
20 20 30
20 20 30
20 20 30
20 20 30
20 20 30
20 20 30
20 20 30
20 20 30
20 20 30
20 20 30
20 20 30
20 20 30
20 20 30
20 20 30
20 20 30
20 20 30
20 20 30
20 20 30
20 20 30
20 20 30
20 20 30
20 20 30
20 20 30
20 20 30
20 20 30
20 20 30
20 20 30
20 20 30
20 20 30
20 20 30
20 20 30
20 20 30
20 20 30
20 20 30
20 20 30
20 20 30
20 20 30
20 20 30
20 20 30
20 20 30
20 20 30
20 20 30
20 20 30
20 20 30
20 20 30
20 20 30
20 20 30
20 20 30
20 20 30
20 20 30
20 20 30
20 20 30
20 20 30
20 20 30
20 20 30
20 20 30
20 20 30
20 20 30
20 20 30
20 20 30
20 20 30
20 20 30
20 20 30
20 20 30
20 20 30
20 20 30
20 20 30
20 20 30
20 20 30
20 20 30
20 20 30
20 20 30
20 20 30
20 20 30
20 20 30
20 20 30
20 20 30
20 20 30
20 20 30
20 20 30
20 20 30
20 20 30
20 20 30
20 20 30
20 20 30
20 20 30
20 20 30
20 20 30
20 20 30
20 20 30
20 20 30
20 20 30
20 20 30
20 20 30
20 20 30
20 20 30
20 20 30
20 20 30
20 20 30
20 20 30
20 20 30
20 20 30
20 20 30
20 20 30
20 20 30
20 20 30
20 20 30
20 20 30
20 20 30
20 20 30
20 20 30
20 20 30
20 20 30
20 20 30
20 20 30
20 20 30
20 20 30
20 20 30
20 20 30
20 20 30
20 20 30
20 20 30
20 20 30
20 20 30
20 20 30
20 20 30
20 20 30
20 20 30
20 20 30
20 20 30
20 20 30
20 20 30
20 20 30
20 20 30
20 20 30
20 20 30
20 20 30
20 20 30
20 20 30
20 20 30
20 20 30
20 20 30
20 20 30
20 20 30
20 20 30
20 20 30
20 20 30
20 20 30
20 20 30
20 20 30
20 20 30
20 20 30
20 20 30
20 20 30
20 20 30
20 20 30
20 20 30
20 20 30
20 20 30
20 20 30
20 20 30
20 20 30
20 20 30
20 20 30
20 20 30
20 20 30
20 20 30
20 20 30
20 20 30
20 20 30
20 20 30
20 20 30
20 20 30
20 20 30
20 20 30
20 20 30
20 20 30
20 20 30
20 20 30
20 20 30
20 20 30
20 20 30
20 20 30
20 20 30
20 20 30
20 20 30
20 20 30
20 20 30
20 20 30
20 20 30
20 20 30
20 20 30
20 20 30
20 20 30
20 20 30
20 20 30
20 20 30
20 20 30
20 20 30
20 20 30
20 20 30
20 20 30
20 20 30
20 20 30
20 20 30
20 20 30
20 20 30
20 20 30
20 20 30
255 80 80
255 80 80
255 80 80
255 80 80
255 80 80
255 80 80
255 80 80
20 20 30
20 20 30
20 20 30
20 20 30
20 20 30
20 20 30
20 20 30
20 20 30
20 20 30
20 20 30
20 20 30
20 20 30
20 20 30
20 20 30
20 20 30
20 20 30
20 20 30
20 20 30
20 20 30
20 20 30
20 20 30
20 20 30
20 20 30
20 20 30
20 20 30
20 20 30
20 20 30
20 20 30
20 20 30
20 20 30
20 20 30
20 20 30
20 20 30
20 20 30
20 20 30
20 20 30
20 20 30
20 20 30
20 20 30
20 20 30
20 20 30
20 20 30
20 20 30
20 20 30
20 20 30
20 20 30
20 20 30
20 20 30
20 20 30
20 20 30
20 20 30
20 20 30
20 20 30
20 20 30
20 20 30
20 20 30
20 20 30
20 20 30
20 20 30
20 20 30
20 20 30
20 20 30
20 20 30
20 20 30
20 20 30
20 20 30
20 20 30
20 20 30
20 20 30
20 20 30
20 20 30
20 20 30
20 20 30
20 20 30
20 20 30
20 20 30
20 20 30
20 20 30
20 20 30
20 20 30
20 20 30
20 20 30
20 20 30
20 20 30
20 20 30
20 20 30
20 20 30
20 20 30
20 20 30
20 20 30
20 20 30
20 20 30
20 20 30
20 20 30
20 20 30
20 20 30
20 20 30
20 20 30
20 20 30
20 20 30
20 20 30
20 20 30
20 20 30
20 20 30
20 20 30
20 20 30
20 20 30
20 20 30
20 20 30
20 20 30
20 20 30
20 20 30
20 20 30
20 20 30
20 20 30
20 20 30
20 20 30
20 20 30
20 20 30
20 20 30
20 20 30
20 20 30
20 20 30
20 20 30
20 20 30
20 20 30
20 20 30
20 20 30
20 20 30
20 20 30
20 20 30
20 20 30
20 20 30
20 20 30
20 20 30
20 20 30
20 20 30
20 20 30
20 20 30
20 20 30
20 20 30
20 20 30
20 20 30
20 20 30
20 20 30
20 20 30
20 20 30
20 20 30
20 20 30
20 20 30
20 20 30
20 20 30
255 80 80
255 80 80
255 80 80
255 80 80
255 80 80
255 80 80
255 80 80
255 80 80
255 80 80
20 20 30
20 20 30
20 20 30
20 20 30
20 20 30
20 20 30
20 20 30
20 20 30
20 20 30
20 20 30
20 20 30
20 20 30
20 20 30
20 20 30
20 20 30
20 20 30
20 20 30
20 20 30
20 20 30
20 20 30
20 20 30
20 20 30
20 20 30
20 20 30
20 20 30
20 20 30
20 20 30
20 20 30
20 20 30
20 20 30
20 20 30
20 20 30
20 20 30
20 20 30
20 20 30
20 20 30
20 20 30
20 20 30
20 20 30
20 20 30
20 20 30
20 20 30
20 20 30
20 20 30
20 20 30
20 20 30
20 20 30
20 20 30
20 20 30
20 20 30
20 20 30
20 20 30
20 20 30
20 20 30
20 20 30
20 20 30
20 20 30
20 20 30
20 20 30
20 20 30
20 20 30
20 20 30
20 20 30
20 20 30
20 20 30
20 20 30
20 20 30
20 20 30
20 20 30
20 20 30
20 20 30
20 20 30
20 20 30
20 20 30
20 20 30
20 20 30
20 20 30
20 20 30
20 20 30
20 20 30
20 20 30
20 20 30
20 20 30
20 20 30
20 20 30
20 20 30
20 20 30
20 20 30
20 20 30
20 20 30
20 20 30
20 20 30
20 20 30
20 20 30
20 20 30
20 20 30
20 20 30
20 20 30
20 20 30
20 20 30
20 20 30
20 20 30
20 20 30
20 20 30
20 20 30
20 20 30
20 20 30
20 20 30
20 20 30
20 20 30
20 20 30
20 20 30
20 20 30
20 20 30
20 20 30
20 20 30
20 20 30
20 20 30
20 20 30
20 20 30
20 20 30
20 20 30
20 20 30
20 20 30
20 20 30
20 20 30
20 20 30
20 20 30
20 20 30
20 20 30
20 20 30
20 20 30
20 20 30
20 20 30
20 20 30
20 20 30
20 20 30
20 20 30
20 20 30
20 20 30
20 20 30
20 20 30
20 20 30
20 20 30
20 20 30
20 20 30
20 20 30
20 20 30
20 20 30
20 20 30
255 80 80
255 80 80
255 80 80
255 80 80
255 80 80
255 80 80
255 80 80
255 80 80
255 80 80
255 80 80
255 80 80
20 20 30
20 20 30
20 20 30
20 20 30
20 20 30
20 20 30
20 20 30
20 20 30
20 20 30
20 20 30
20 20 30
20 20 30
20 20 30
20 20 30
20 20 30
20 20 30
20 20 30
20 20 30
20 20 30
20 20 30
20 20 30
20 20 30
20 20 30
20 20 30
20 20 30
20 20 30
20 20 30
20 20 30
20 20 30
20 20 30
20 20 30
20 20 30
20 20 30
20 20 30
20 20 30
20 20 30
20 20 30
20 20 30
20 20 30
20 20 30
20 20 30
20 20 30
20 20 30
20 20 30
20 20 30
20 20 30
20 20 30
20 20 30
20 20 30
20 20 30
20 20 30
20 20 30
20 20 30
20 20 30
20 20 30
20 20 30
20 20 30
20 20 30
20 20 30
20 20 30
20 20 30
20 20 30
20 20 30
20 20 30
20 20 30
20 20 30
20 20 30
20 20 30
20 20 30
20 20 30
20 20 30
20 20 30
20 20 30
20 20 30
20 20 30
20 20 30
20 20 30
20 20 30
20 20 30
20 20 30
20 20 30
20 20 30
20 20 30
20 20 30
20 20 30
20 20 30
20 20 30
20 20 30
20 20 30
20 20 30
20 20 30
20 20 30
20 20 30
20 20 30
20 20 30
20 20 30
20 20 30
20 20 30
20 20 30
20 20 30
20 20 30
20 20 30
20 20 30
20 20 30
20 20 30
20 20 30
20 20 30
20 20 30
20 20 30
20 20 30
20 20 30
20 20 30
20 20 30
20 20 30
20 20 30
20 20 30
20 20 30
20 20 30
20 20 30
20 20 30
20 20 30
20 20 30
20 20 30
20 20 30
20 20 30
20 20 30
20 20 30
20 20 30
20 20 30
20 20 30
20 20 30
20 20 30
20 20 30
20 20 30
20 20 30
20 20 30
20 20 30
20 20 30
20 20 30
20 20 30
20 20 30
20 20 30
20 20 30
20 20 30
20 20 30
20 20 30
20 20 30
20 20 30
20 20 30
255 80 80
255 80 80
255 80 80
255 80 80
255 80 80
255 80 80
255 80 80
255 80 80
255 80 80
255 80 80
255 80 80
20 20 30
20 20 30
20 20 30
20 20 30
20 20 30
20 20 30
20 20 30
20 20 30
20 20 30
20 20 30
20 20 30
20 20 30
20 20 30
20 20 30
20 20 30
20 20 30
20 20 30
20 20 30
20 20 30
20 20 30
20 20 30
20 20 30
20 20 30
20 20 30
20 20 30
20 20 30
20 20 30
20 20 30
20 20 30
20 20 30
20 20 30
20 20 30
20 20 30
20 20 30
20 20 30
20 20 30
20 20 30
20 20 30
20 20 30
20 20 30
20 20 30
20 20 30
20 20 30
20 20 30
20 20 30
20 20 30
20 20 30
20 20 30
20 20 30
20 20 30
20 20 30
20 20 30
20 20 30
20 20 30
20 20 30
20 20 30
20 20 30
20 20 30
20 20 30
20 20 30
20 20 30
20 20 30
20 20 30
20 20 30
20 20 30
20 20 30
20 20 30
20 20 30
20 20 30
20 20 30
20 20 30
20 20 30
20 20 30
20 20 30
20 20 30
20 20 30
20 20 30
20 20 30
20 20 30
20 20 30
20 20 30
20 20 30
20 20 30
20 20 30
20 20 30
20 20 30
20 20 30
20 20 30
20 20 30
20 20 30
20 20 30
20 20 30
20 20 30
20 20 30
20 20 30
20 20 30
20 20 30
20 20 30
20 20 30
20 20 30
20 20 30
20 20 30
20 20 30
20 20 30
20 20 30
20 20 30
20 20 30
20 20 30
20 20 30
20 20 30
20 20 30
20 20 30
20 20 30
20 20 30
20 20 30
20 20 30
20 20 30
20 20 30
20 20 30
20 20 30
20 20 30
20 20 30
20 20 30
20 20 30
20 20 30
20 20 30
20 20 30
20 20 30
20 20 30
20 20 30
20 20 30
20 20 30
20 20 30
20 20 30
20 20 30
20 20 30
20 20 30
20 20 30
20 20 30
20 20 30
20 20 30
20 20 30
20 20 30
20 20 30
20 20 30
20 20 30
20 20 30
20 20 30
20 20 30
255 80 80
255 80 80
255 80 80
255 80 80
255 80 80
255 80 80
255 80 80
255 80 80
255 80 80
255 80 80
255 80 80
20 20 30
20 20 30
20 20 30
20 20 30
20 20 30
20 20 30
20 20 30
20 20 30
20 20 30
20 20 30
20 20 30
20 20 30
20 20 30
20 20 30
20 20 30
20 20 30
20 20 30
20 20 30
20 20 30
20 20 30
20 20 30
20 20 30
20 20 30
20 20 30
20 20 30
20 20 30
20 20 30
20 20 30
20 20 30
20 20 30
20 20 30
20 20 30
20 20 30
20 20 30
20 20 30
20 20 30
20 20 30
20 20 30
20 20 30
20 20 30
20 20 30
20 20 30
20 20 30
20 20 30
20 20 30
20 20 30
20 20 30
20 20 30
20 20 30
20 20 30
20 20 30
20 20 30
20 20 30
20 20 30
20 20 30
20 20 30
20 20 30
20 20 30
20 20 30
20 20 30
20 20 30
20 20 30
20 20 30
20 20 30
20 20 30
20 20 30
20 20 30
20 20 30
20 20 30
20 20 30
20 20 30
20 20 30
20 20 30
20 20 30
20 20 30
20 20 30
20 20 30
20 20 30
20 20 30
20 20 30
20 20 30
20 20 30
20 20 30
20 20 30
20 20 30
20 20 30
20 20 30
20 20 30
20 20 30
20 20 30
20 20 30
20 20 30
20 20 30
100 200 255
100 200 255
100 200 255
20 20 30
20 20 30
20 20 30
20 20 30
20 20 30
20 20 30
20 20 30
20 20 30
20 20 30
20 20 30
20 20 30
20 20 30
20 20 30
20 20 30
20 20 30
20 20 30
20 20 30
20 20 30
20 20 30
20 20 30
20 20 30
20 20 30
20 20 30
20 20 30
20 20 30
20 20 30
20 20 30
20 20 30
20 20 30
20 20 30
20 20 30
20 20 30
20 20 30
20 20 30
20 20 30
20 20 30
20 20 30
20 20 30
20 20 30
20 20 30
20 20 30
20 20 30
20 20 30
20 20 30
20 20 30
20 20 30
20 20 30
20 20 30
20 20 30
20 20 30
20 20 30
20 20 30
20 20 30
255 80 80
255 80 80
255 80 80
255 80 80
255 80 80
255 80 80
255 80 80
255 80 80
255 80 80
255 80 80
255 80 80
20 20 30
20 20 30
20 20 30
20 20 30
20 20 30
20 20 30
20 20 30
20 20 30
20 20 30
20 20 30
20 20 30
20 20 30
20 20 30
20 20 30
20 20 30
20 20 30
20 20 30
20 20 30
20 20 30
20 20 30
20 20 30
20 20 30
20 20 30
20 20 30
20 20 30
20 20 30
20 20 30
20 20 30
20 20 30
20 20 30
20 20 30
20 20 30
20 20 30
20 20 30
20 20 30
20 20 30
20 20 30
20 20 30
20 20 30
20 20 30
20 20 30
20 20 30
20 20 30
20 20 30
20 20 30
20 20 30
20 20 30
20 20 30
20 20 30
20 20 30
20 20 30
20 20 30
20 20 30
20 20 30
20 20 30
20 20 30
20 20 30
20 20 30
20 20 30
20 20 30
20 20 30
20 20 30
20 20 30
20 20 30
20 20 30
20 20 30
20 20 30
20 20 30
20 20 30
20 20 30
20 20 30
20 20 30
20 20 30
20 20 30
20 20 30
20 20 30
20 20 30
20 20 30
20 20 30
20 20 30
20 20 30
20 20 30
20 20 30
20 20 30
20 20 30
20 20 30
20 20 30
20 20 30
20 20 30
20 20 30
20 20 30
20 20 30
100 200 255
100 200 255
100 200 255
100 200 255
20 20 30
20 20 30
20 20 30
20 20 30
20 20 30
20 20 30
20 20 30
20 20 30
20 20 30
20 20 30
20 20 30
20 20 30
20 20 30
20 20 30
20 20 30
20 20 30
20 20 30
20 20 30
20 20 30
20 20 30
20 20 30
20 20 30
20 20 30
20 20 30
20 20 30
20 20 30
20 20 30
20 20 30
20 20 30
20 20 30
20 20 30
20 20 30
20 20 30
20 20 30
20 20 30
20 20 30
20 20 30
20 20 30
20 20 30
20 20 30
20 20 30
20 20 30
20 20 30
20 20 30
20 20 30
20 20 30
20 20 30
20 20 30
20 20 30
20 20 30
20 20 30
20 20 30
20 20 30
255 80 80
255 80 80
255 80 80
255 80 80
255 80 80
255 80 80
255 80 80
255 80 80
255 80 80
255 80 80
255 80 80
20 20 30
20 20 30
20 20 30
20 20 30
20 20 30
20 20 30
20 20 30
20 20 30
20 20 30
20 20 30
20 20 30
20 20 30
20 20 30
20 20 30
20 20 30
20 20 30
20 20 30
20 20 30
20 20 30
20 20 30
20 20 30
20 20 30
20 20 30
20 20 30
20 20 30
20 20 30
20 20 30
20 20 30
20 20 30
20 20 30
20 20 30
20 20 30
20 20 30
20 20 30
20 20 30
20 20 30
20 20 30
20 20 30
20 20 30
20 20 30
20 20 30
20 20 30
20 20 30
20 20 30
20 20 30
20 20 30
20 20 30
20 20 30
20 20 30
20 20 30
20 20 30
20 20 30
20 20 30
20 20 30
20 20 30
20 20 30
20 20 30
20 20 30
20 20 30
20 20 30
20 20 30
20 20 30
20 20 30
20 20 30
20 20 30
20 20 30
20 20 30
20 20 30
20 20 30
20 20 30
20 20 30
20 20 30
20 20 30
20 20 30
20 20 30
20 20 30
20 20 30
20 20 30
20 20 30
20 20 30
20 20 30
20 20 30
20 20 30
20 20 30
20 20 30
20 20 30
20 20 30
20 20 30
20 20 30
20 20 30
20 20 30
100 200 255
100 200 255
100 200 255
100 200 255
100 200 255
20 20 30
20 20 30
20 20 30
20 20 30
20 20 30
20 20 30
20 20 30
20 20 30
20 20 30
20 20 30
20 20 30
20 20 30
20 20 30
20 20 30
20 20 30
20 20 30
20 20 30
20 20 30
20 20 30
20 20 30
20 20 30
20 20 30
20 20 30
20 20 30
20 20 30
20 20 30
20 20 30
20 20 30
20 20 30
20 20 30
20 20 30
20 20 30
20 20 30
20 20 30
20 20 30
20 20 30
20 20 30
20 20 30
20 20 30
20 20 30
20 20 30
20 20 30
20 20 30
20 20 30
20 20 30
20 20 30
20 20 30
20 20 30
20 20 30
20 20 30
20 20 30
20 20 30
20 20 30
255 80 80
255 80 80
255 80 80
255 80 80
255 80 80
255 80 80
255 80 80
255 80 80
255 80 80
255 80 80
255 80 80
20 20 30
20 20 30
20 20 30
20 20 30
20 20 30
20 20 30
20 20 30
20 20 30
20 20 30
20 20 30
20 20 30
20 20 30
20 20 30
20 20 30
20 20 30
20 20 30
20 20 30
20 20 30
20 20 30
20 20 30
20 20 30
20 20 30
20 20 30
20 20 30
20 20 30
20 20 30
20 20 30
20 20 30
20 20 30
20 20 30
20 20 30
20 20 30
20 20 30
20 20 30
20 20 30
20 20 30
20 20 30
20 20 30
20 20 30
20 20 30
20 20 30
20 20 30
20 20 30
20 20 30
20 20 30
20 20 30
20 20 30
20 20 30
20 20 30
20 20 30
20 20 30
20 20 30
20 20 30
20 20 30
20 20 30
20 20 30
20 20 30
20 20 30
20 20 30
20 20 30
20 20 30
20 20 30
20 20 30
20 20 30
20 20 30
20 20 30
20 20 30
20 20 30
20 20 30
20 20 30
20 20 30
20 20 30
20 20 30
20 20 30
20 20 30
20 20 30
20 20 30
20 20 30
20 20 30
20 20 30
20 20 30
20 20 30
20 20 30
20 20 30
20 20 30
20 20 30
20 20 30
20 20 30
20 20 30
20 20 30
100 200 255
100 200 255
100 200 255
100 200 255
100 200 255
20 20 30
20 20 30
20 20 30
20 20 30
20 20 30
20 20 30
20 20 30
20 20 30
20 20 30
20 20 30
20 20 30
20 20 30
20 20 30
20 20 30
20 20 30
20 20 30
20 20 30
20 20 30
20 20 30
20 20 30
20 20 30
20 20 30
20 20 30
20 20 30
20 20 30
20 20 30
20 20 30
20 20 30
20 20 30
20 20 30
20 20 30
20 20 30
20 20 30
20 20 30
20 20 30
20 20 30
20 20 30
20 20 30
20 20 30
20 20 30
20 20 30
20 20 30
20 20 30
20 20 30
20 20 30
20 20 30
20 20 30
20 20 30
20 20 30
20 20 30
20 20 30
20 20 30
20 20 30
20 20 30
255 80 80
255 80 80
255 80 80
255 80 80
255 80 80
255 80 80
255 80 80
255 80 80
255 80 80
255 80 80
255 80 80
20 20 30
20 20 30
20 20 30
20 20 30
20 20 30
20 20 30
20 20 30
20 20 30
20 20 30
20 20 30
20 20 30
20 20 30
20 20 30
20 20 30
20 20 30
20 20 30
20 20 30
20 20 30
20 20 30
20 20 30
20 20 30
20 20 30
20 20 30
20 20 30
20 20 30
20 20 30
20 20 30
20 20 30
20 20 30
20 20 30
20 20 30
20 20 30
20 20 30
20 20 30
20 20 30
20 20 30
20 20 30
20 20 30
20 20 30
20 20 30
20 20 30
20 20 30
20 20 30
20 20 30
20 20 30
20 20 30
20 20 30
20 20 30
20 20 30
20 20 30
20 20 30
20 20 30
20 20 30
20 20 30
20 20 30
20 20 30
20 20 30
20 20 30
20 20 30
20 20 30
20 20 30
20 20 30
20 20 30
20 20 30
20 20 30
20 20 30
20 20 30
20 20 30
20 20 30
20 20 30
20 20 30
20 20 30
20 20 30
20 20 30
20 20 30
20 20 30
20 20 30
20 20 30
20 20 30
20 20 30
20 20 30
20 20 30
20 20 30
20 20 30
20 20 30
20 20 30
20 20 30
20 20 30
20 20 30
100 200 255
100 200 255
100 200 255
100 200 255
100 200 255
20 20 30
20 20 30
20 20 30
20 20 30
20 20 30
20 20 30
20 20 30
20 20 30
20 20 30
20 20 30
20 20 30
20 20 30
20 20 30
20 20 30
20 20 30
20 20 30
20 20 30
20 20 30
20 20 30
20 20 30
20 20 30
20 20 30
20 20 30
20 20 30
20 20 30
20 20 30
20 20 30
20 20 30
20 20 30
20 20 30
20 20 30
20 20 30
20 20 30
20 20 30
20 20 30
20 20 30
20 20 30
20 20 30
20 20 30
20 20 30
20 20 30
20 20 30
20 20 30
20 20 30
20 20 30
20 20 30
20 20 30
20 20 30
20 20 30
20 20 30
20 20 30
20 20 30
20 20 30
20 20 30
20 20 30
20 20 30
255 80 80
255 80 80
255 80 80
255 80 80
255 80 80
255 80 80
255 80 80
255 80 80
255 80 80
100 200 255
100 200 255
20 20 30
20 20 30
20 20 30
20 20 30
20 20 30
20 20 30
20 20 30
20 20 30
20 20 30
20 20 30
20 20 30
20 20 30
20 20 30
20 20 30
20 20 30
20 20 30
20 20 30
20 20 30
20 20 30
20 20 30
20 20 30
20 20 30
20 20 30
20 20 30
20 20 30
20 20 30
20 20 30
20 20 30
20 20 30
20 20 30
20 20 30
20 20 30
20 20 30
20 20 30
20 20 30
20 20 30
20 20 30
20 20 30
20 20 30
20 20 30
20 20 30
20 20 30
20 20 30
20 20 30
20 20 30
20 20 30
20 20 30
20 20 30
20 20 30
20 20 30
20 20 30
20 20 30
20 20 30
20 20 30
20 20 30
20 20 30
20 20 30
20 20 30
20 20 30
20 20 30
20 20 30
20 20 30
20 20 30
20 20 30
20 20 30
20 20 30
20 20 30
20 20 30
20 20 30
20 20 30
20 20 30
20 20 30
20 20 30
20 20 30
20 20 30
20 20 30
20 20 30
20 20 30
20 20 30
20 20 30
20 20 30
20 20 30
20 20 30
20 20 30
20 20 30
20 20 30
20 20 30
100 200 255
100 200 255
100 200 255
100 200 255
100 200 255
20 20 30
20 20 30
20 20 30
20 20 30
20 20 30
20 20 30
20 20 30
20 20 30
20 20 30
20 20 30
20 20 30
20 20 30
20 20 30
20 20 30
20 20 30
20 20 30
20 20 30
20 20 30
20 20 30
20 20 30
20 20 30
20 20 30
20 20 30
20 20 30
20 20 30
20 20 30
20 20 30
20 20 30
20 20 30
20 20 30
20 20 30
20 20 30
20 20 30
20 20 30
20 20 30
20 20 30
20 20 30
20 20 30
20 20 30
20 20 30
20 20 30
20 20 30
20 20 30
20 20 30
20 20 30
20 20 30
20 20 30
20 20 30
20 20 30
20 20 30
20 20 30
20 20 30
20 20 30
20 20 30
20 20 30
20 20 30
20 20 30
20 20 30
255 80 80
255 80 80
255 80 80
255 80 80
255 80 80
255 80 80
255 80 80
100 200 255
100 200 255
100 200 255
100 200 255
20 20 30
20 20 30
20 20 30
20 20 30
20 20 30
20 20 30
20 20 30
20 20 30
20 20 30
20 20 30
20 20 30
20 20 30
20 20 30
20 20 30
20 20 30
20 20 30
20 20 30
20 20 30
20 20 30
20 20 30
20 20 30
20 20 30
20 20 30
20 20 30
20 20 30
20 20 30
20 20 30
20 20 30
20 20 30
20 20 30
20 20 30
20 20 30
20 20 30
20 20 30
20 20 30
20 20 30
20 20 30
20 20 30
20 20 30
20 20 30
20 20 30
20 20 30
20 20 30
20 20 30
20 20 30
20 20 30
20 20 30
20 20 30
20 20 30
20 20 30
20 20 30
20 20 30
20 20 30
20 20 30
20 20 30
20 20 30
20 20 30
20 20 30
20 20 30
20 20 30
20 20 30
20 20 30
20 20 30
20 20 30
20 20 30
20 20 30
20 20 30
20 20 30
20 20 30
20 20 30
20 20 30
20 20 30
20 20 30
20 20 30
20 20 30
20 20 30
20 20 30
20 20 30
20 20 30
20 20 30
20 20 30
20 20 30
20 20 30
20 20 30
20 20 30
100 200 255
100 200 255
100 200 255
100 200 255
100 200 255
20 20 30
20 20 30
20 20 30
20 20 30
20 20 30
20 20 30
20 20 30
20 20 30
20 20 30
20 20 30
20 20 30
20 20 30
20 20 30
20 20 30
20 20 30
20 20 30
20 20 30
20 20 30
20 20 30
20 20 30
20 20 30
20 20 30
20 20 30
20 20 30
20 20 30
20 20 30
20 20 30
20 20 30
20 20 30
20 20 30
20 20 30
20 20 30
20 20 30
20 20 30
20 20 30
20 20 30
20 20 30
20 20 30
20 20 30
20 20 30
20 20 30
20 20 30
20 20 30
20 20 30
20 20 30
20 20 30
20 20 30
20 20 30
20 20 30
20 20 30
20 20 30
20 20 30
20 20 30
20 20 30
20 20 30
20 20 30
20 20 30
20 20 30
20 20 30
20 20 30
20 20 30
20 20 30
20 20 30
20 20 30
20 20 30
20 20 30
100 200 255
100 200 255
100 200 255
100 200 255
100 200 255
20 20 30
20 20 30
20 20 30
20 20 30
20 20 30
20 20 30
20 20 30
20 20 30
20 20 30
20 20 30
20 20 30
20 20 30
20 20 30
20 20 30
20 20 30
20 20 30
20 20 30
20 20 30
20 20 30
20 20 30
20 20 30
20 20 30
20 20 30
20 20 30
20 20 30
20 20 30
20 20 30
20 20 30
20 20 30
20 20 30
20 20 30
20 20 30
20 20 30
20 20 30
20 20 30
20 20 30
20 20 30
20 20 30
20 20 30
20 20 30
20 20 30
20 20 30
20 20 30
20 20 30
20 20 30
20 20 30
20 20 30
20 20 30
20 20 30
20 20 30
20 20 30
20 20 30
20 20 30
20 20 30
20 20 30
20 20 30
20 20 30
20 20 30
20 20 30
20 20 30
20 20 30
20 20 30
20 20 30
20 20 30
20 20 30
20 20 30
20 20 30
20 20 30
20 20 30
20 20 30
20 20 30
20 20 30
20 20 30
20 20 30
20 20 30
20 20 30
20 20 30
20 20 30
20 20 30
20 20 30
20 20 30
20 20 30
20 20 30
100 200 255
100 200 255
100 200 255
100 200 255
100 200 255
20 20 30
20 20 30
20 20 30
20 20 30
20 20 30
20 20 30
20 20 30
20 20 30
20 20 30
20 20 30
20 20 30
20 20 30
20 20 30
20 20 30
20 20 30
20 20 30
20 20 30
20 20 30
20 20 30
20 20 30
20 20 30
20 20 30
20 20 30
20 20 30
20 20 30
20 20 30
20 20 30
20 20 30
20 20 30
20 20 30
20 20 30
20 20 30
20 20 30
20 20 30
20 20 30
20 20 30
20 20 30
20 20 30
20 20 30
20 20 30
20 20 30
20 20 30
20 20 30
20 20 30
20 20 30
20 20 30
20 20 30
20 20 30
20 20 30
20 20 30
20 20 30
20 20 30
20 20 30
20 20 30
20 20 30
20 20 30
20 20 30
20 20 30
20 20 30
20 20 30
20 20 30
20 20 30
20 20 30
20 20 30
20 20 30
20 20 30
20 20 30
20 20 30
100 200 255
100 200 255
100 200 255
100 200 255
100 200 255
20 20 30
20 20 30
20 20 30
20 20 30
20 20 30
20 20 30
20 20 30
20 20 30
20 20 30
20 20 30
20 20 30
20 20 30
20 20 30
20 20 30
20 20 30
20 20 30
20 20 30
20 20 30
20 20 30
20 20 30
20 20 30
20 20 30
20 20 30
20 20 30
20 20 30
20 20 30
20 20 30
20 20 30
20 20 30
20 20 30
20 20 30
20 20 30
20 20 30
20 20 30
20 20 30
20 20 30
20 20 30
20 20 30
20 20 30
20 20 30
20 20 30
20 20 30
20 20 30
20 20 30
20 20 30
20 20 30
20 20 30
20 20 30
20 20 30
20 20 30
20 20 30
20 20 30
20 20 30
20 20 30
20 20 30
20 20 30
20 20 30
20 20 30
20 20 30
20 20 30
20 20 30
20 20 30
20 20 30
20 20 30
20 20 30
20 20 30
20 20 30
20 20 30
20 20 30
20 20 30
20 20 30
20 20 30
20 20 30
20 20 30
20 20 30
20 20 30
20 20 30
20 20 30
20 20 30
20 20 30
20 20 30
100 200 255
100 200 255
100 200 255
100 200 255
100 200 255
20 20 30
20 20 30
20 20 30
20 20 30
20 20 30
20 20 30
20 20 30
20 20 30
20 20 30
20 20 30
20 20 30
20 20 30
20 20 30
20 20 30
20 20 30
20 20 30
20 20 30
20 20 30
20 20 30
20 20 30
20 20 30
20 20 30
20 20 30
20 20 30
20 20 30
20 20 30
20 20 30
20 20 30
20 20 30
20 20 30
20 20 30
20 20 30
20 20 30
20 20 30
20 20 30
20 20 30
20 20 30
20 20 30
20 20 30
20 20 30
20 20 30
20 20 30
20 20 30
20 20 30
20 20 30
20 20 30
20 20 30
20 20 30
20 20 30
20 20 30
20 20 30
20 20 30
20 20 30
20 20 30
20 20 30
20 20 30
20 20 30
20 20 30
20 20 30
20 20 30
20 20 30
20 20 30
20 20 30
20 20 30
20 20 30
20 20 30
20 20 30
20 20 30
20 20 30
20 20 30
100 200 255
100 200 255
100 200 255
100 200 255
100 200 255
20 20 30
20 20 30
20 20 30
20 20 30
20 20 30
20 20 30
20 20 30
20 20 30
20 20 30
20 20 30
20 20 30
20 20 30
20 20 30
20 20 30
20 20 30
20 20 30
20 20 30
20 20 30
20 20 30
20 20 30
20 20 30
20 20 30
20 20 30
20 20 30
20 20 30
20 20 30
20 20 30
20 20 30
20 20 30
20 20 30
20 20 30
20 20 30
20 20 30
20 20 30
20 20 30
20 20 30
20 20 30
20 20 30
20 20 30
20 20 30
20 20 30
20 20 30
20 20 30
20 20 30
20 20 30
20 20 30
20 20 30
20 20 30
20 20 30
20 20 30
20 20 30
20 20 30
20 20 30
20 20 30
20 20 30
20 20 30
20 20 30
20 20 30
20 20 30
20 20 30
20 20 30
20 20 30
20 20 30
20 20 30
20 20 30
20 20 30
20 20 30
20 20 30
20 20 30
20 20 30
20 20 30
20 20 30
20 20 30
20 20 30
20 20 30
20 20 30
20 20 30
20 20 30
20 20 30
100 200 255
100 200 255
100 200 255
100 200 255
100 200 255
20 20 30
20 20 30
20 20 30
20 20 30
20 20 30
20 20 30
20 20 30
20 20 30
20 20 30
20 20 30
20 20 30
20 20 30
20 20 30
20 20 30
20 20 30
20 20 30
20 20 30
20 20 30
20 20 30
20 20 30
20 20 30
20 20 30
20 20 30
20 20 30
20 20 30
20 20 30
20 20 30
20 20 30
20 20 30
20 20 30
20 20 30
20 20 30
20 20 30
20 20 30
20 20 30
20 20 30
20 20 30
20 20 30
20 20 30
20 20 30
20 20 30
20 20 30
20 20 30
20 20 30
20 20 30
20 20 30
20 20 30
20 20 30
20 20 30
20 20 30
20 20 30
20 20 30
20 20 30
20 20 30
20 20 30
20 20 30
20 20 30
20 20 30
20 20 30
20 20 30
20 20 30
20 20 30
20 20 30
20 20 30
20 20 30
20 20 30
20 20 30
20 20 30
20 20 30
20 20 30
20 20 30
20 20 30
100 200 255
100 200 255
100 200 255
100 200 255
100 200 255
20 20 30
20 20 30
20 20 30
20 20 30
20 20 30
20 20 30
20 20 30
20 20 30
20 20 30
20 20 30
20 20 30
20 20 30
20 20 30
20 20 30
20 20 30
20 20 30
20 20 30
20 20 30
20 20 30
20 20 30
20 20 30
20 20 30
20 20 30
20 20 30
20 20 30
20 20 30
20 20 30
20 20 30
20 20 30
20 20 30
20 20 30
20 20 30
20 20 30
20 20 30
20 20 30
20 20 30
20 20 30
20 20 30
20 20 30
20 20 30
20 20 30
20 20 30
20 20 30
20 20 30
20 20 30
20 20 30
20 20 30
20 20 30
20 20 30
20 20 30
20 20 30
20 20 30
20 20 30
20 20 30
20 20 30
20 20 30
20 20 30
20 20 30
20 20 30
20 20 30
20 20 30
20 20 30
20 20 30
20 20 30
20 20 30
20 20 30
20 20 30
20 20 30
20 20 30
20 20 30
20 20 30
20 20 30
20 20 30
20 20 30
20 20 30
20 20 30
20 20 30
100 200 255
100 200 255
100 200 255
100 200 255
100 200 255
20 20 30
20 20 30
20 20 30
20 20 30
20 20 30
20 20 30
20 20 30
20 20 30
20 20 30
20 20 30
20 20 30
20 20 30
20 20 30
20 20 30
20 20 30
20 20 30
20 20 30
20 20 30
20 20 30
20 20 30
20 20 30
20 20 30
20 20 30
20 20 30
20 20 30
20 20 30
20 20 30
20 20 30
20 20 30
20 20 30
20 20 30
20 20 30
20 20 30
20 20 30
20 20 30
20 20 30
20 20 30
20 20 30
20 20 30
20 20 30
20 20 30
20 20 30
20 20 30
20 20 30
20 20 30
20 20 30
20 20 30
20 20 30
20 20 30
20 20 30
20 20 30
20 20 30
20 20 30
20 20 30
20 20 30
20 20 30
20 20 30
20 20 30
20 20 30
20 20 30
20 20 30
20 20 30
20 20 30
20 20 30
20 20 30
20 20 30
20 20 30
20 20 30
20 20 30
20 20 30
20 20 30
20 20 30
20 20 30
20 20 30
100 200 255
100 200 255
100 200 255
100 200 255
100 200 255
20 20 30
20 20 30
20 20 30
20 20 30
20 20 30
20 20 30
20 20 30
20 20 30
20 20 30
20 20 30
20 20 30
20 20 30
20 20 30
20 20 30
20 20 30
20 20 30
20 20 30
20 20 30
20 20 30
20 20 30
20 20 30
20 20 30
20 20 30
20 20 30
20 20 30
20 20 30
20 20 30
20 20 30
20 20 30
20 20 30
20 20 30
20 20 30
20 20 30
20 20 30
20 20 30
20 20 30
20 20 30
20 20 30
20 20 30
20 20 30
20 20 30
20 20 30
20 20 30
20 20 30
20 20 30
20 20 30
20 20 30
20 20 30
20 20 30
20 20 30
20 20 30
20 20 30
20 20 30
20 20 30
20 20 30
20 20 30
20 20 30
20 20 30
20 20 30
20 20 30
20 20 30
20 20 30
20 20 30
20 20 30
20 20 30
20 20 30
20 20 30
20 20 30
20 20 30
20 20 30
20 20 30
20 20 30
20 20 30
20 20 30
20 20 30
100 200 255
100 200 255
100 200 255
100 200 255
100 200 255
20 20 30
20 20 30
20 20 30
20 20 30
20 20 30
20 20 30
20 20 30
20 20 30
20 20 30
20 20 30
20 20 30
20 20 30
20 20 30
20 20 30
20 20 30
20 20 30
20 20 30
20 20 30
20 20 30
20 20 30
20 20 30
20 20 30
20 20 30
20 20 30
20 20 30
20 20 30
20 20 30
20 20 30
20 20 30
20 20 30
20 20 30
20 20 30
20 20 30
20 20 30
20 20 30
20 20 30
20 20 30
20 20 30
20 20 30
20 20 30
20 20 30
20 20 30
20 20 30
20 20 30
20 20 30
20 20 30
20 20 30
20 20 30
20 20 30
20 20 30
20 20 30
20 20 30
20 20 30
20 20 30
20 20 30
20 20 30
20 20 30
20 20 30
20 20 30
20 20 30
20 20 30
20 20 30
20 20 30
20 20 30
20 20 30
20 20 30
20 20 30
20 20 30
20 20 30
20 20 30
20 20 30
20 20 30
20 20 30
20 20 30
20 20 30
20 20 30
100 200 255
100 200 255
100 200 255
100 200 255
100 200 255
20 20 30
20 20 30
20 20 30
20 20 30
20 20 30
20 20 30
20 20 30
20 20 30
20 20 30
20 20 30
20 20 30
20 20 30
20 20 30
20 20 30
20 20 30
20 20 30
20 20 30
20 20 30
20 20 30
20 20 30
20 20 30
20 20 30
20 20 30
20 20 30
20 20 30
20 20 30
20 20 30
20 20 30
20 20 30
20 20 30
20 20 30
20 20 30
20 20 30
20 20 30
20 20 30
20 20 30
20 20 30
20 20 30
20 20 30
20 20 30
20 20 30
20 20 30
20 20 30
20 20 30
20 20 30
20 20 30
20 20 30
20 20 30
20 20 30
20 20 30
20 20 30
20 20 30
20 20 30
20 20 30
20 20 30
20 20 30
20 20 30
20 20 30
20 20 30
20 20 30
20 20 30
20 20 30
20 20 30
20 20 30
20 20 30
20 20 30
20 20 30
20 20 30
20 20 30
20 20 30
20 20 30
20 20 30
20 20 30
100 200 255
100 200 255
100 200 255
100 200 255
100 200 255
20 20 30
20 20 30
20 20 30
20 20 30
20 20 30
20 20 30
20 20 30
20 20 30
20 20 30
20 20 30
20 20 30
20 20 30
20 20 30
20 20 30
20 20 30
20 20 30
20 20 30
20 20 30
20 20 30
20 20 30
20 20 30
20 20 30
20 20 30
20 20 30
20 20 30
20 20 30
20 20 30
20 20 30
20 20 30
20 20 30
20 20 30
20 20 30
20 20 30
20 20 30
20 20 30
20 20 30
20 20 30
20 20 30
20 20 30
20 20 30
20 20 30
20 20 30
20 20 30
20 20 30
20 20 30
20 20 30
20 20 30
20 20 30
20 20 30
20 20 30
20 20 30
20 20 30
20 20 30
20 20 30
20 20 30
20 20 30
20 20 30
20 20 30
20 20 30
20 20 30
20 20 30
20 20 30
20 20 30
20 20 30
20 20 30
20 20 30
20 20 30
20 20 30
20 20 30
20 20 30
20 20 30
20 20 30
20 20 30
20 20 30
20 20 30
20 20 30
20 20 30
20 20 30
100 200 255
100 200 255
100 200 255
100 200 255
100 200 255
20 20 30
20 20 30
20 20 30
20 20 30
20 20 30
20 20 30
20 20 30
20 20 30
20 20 30
20 20 30
20 20 30
20 20 30
20 20 30
20 20 30
20 20 30
20 20 30
20 20 30
20 20 30
20 20 30
20 20 30
20 20 30
20 20 30
20 20 30
20 20 30
20 20 30
20 20 30
20 20 30
20 20 30
20 20 30
20 20 30
20 20 30
20 20 30
20 20 30
20 20 30
20 20 30
20 20 30
20 20 30
20 20 30
20 20 30
20 20 30
20 20 30
20 20 30
20 20 30
20 20 30
20 20 30
20 20 30
20 20 30
20 20 30
20 20 30
20 20 30
20 20 30
20 20 30
20 20 30
20 20 30
20 20 30
20 20 30
20 20 30
20 20 30
20 20 30
20 20 30
20 20 30
20 20 30
20 20 30
20 20 30
20 20 30
20 20 30
20 20 30
20 20 30
20 20 30
20 20 30
20 20 30
100 200 255
100 200 255
100 200 255
100 200 255
100 200 255
20 20 30
20 20 30
20 20 30
20 20 30
20 20 30
20 20 30
20 20 30
20 20 30
20 20 30
20 20 30
20 20 30
20 20 30
20 20 30
20 20 30
20 20 30
20 20 30
20 20 30
20 20 30
20 20 30
20 20 30
20 20 30
20 20 30
20 20 30
20 20 30
20 20 30
20 20 30
20 20 30
20 20 30
20 20 30
20 20 30
20 20 30
20 20 30
20 20 30
20 20 30
20 20 30
20 20 30
20 20 30
20 20 30
20 20 30
20 20 30
20 20 30
20 20 30
20 20 30
20 20 30
20 20 30
20 20 30
20 20 30
20 20 30
20 20 30
20 20 30
20 20 30
20 20 30
20 20 30
20 20 30
20 20 30
20 20 30
20 20 30
20 20 30
20 20 30
20 20 30
20 20 30
20 20 30
20 20 30
20 20 30
20 20 30
20 20 30
20 20 30
20 20 30
20 20 30
20 20 30
20 20 30
20 20 30
20 20 30
20 20 30
20 20 30
20 20 30
20 20 30
20 20 30
20 20 30
20 20 30
100 200 255
100 200 255
100 200 255
100 200 255
100 200 255
20 20 30
20 20 30
20 20 30
20 20 30
20 20 30
20 20 30
20 20 30
20 20 30
20 20 30
20 20 30
20 20 30
20 20 30
20 20 30
20 20 30
20 20 30
20 20 30
20 20 30
20 20 30
20 20 30
20 20 30
20 20 30
20 20 30
20 20 30
20 20 30
20 20 30
20 20 30
20 20 30
20 20 30
20 20 30
20 20 30
20 20 30
20 20 30
20 20 30
20 20 30
20 20 30
20 20 30
20 20 30
20 20 30
20 20 30
20 20 30
20 20 30
20 20 30
20 20 30
20 20 30
20 20 30
20 20 30
20 20 30
20 20 30
20 20 30
20 20 30
20 20 30
20 20 30
20 20 30
20 20 30
20 20 30
20 20 30
20 20 30
20 20 30
20 20 30
20 20 30
20 20 30
20 20 30
20 20 30
20 20 30
20 20 30
20 20 30
20 20 30
20 20 30
20 20 30
100 200 255
100 200 255
100 200 255
100 200 255
100 200 255
20 20 30
20 20 30
20 20 30
20 20 30
20 20 30
20 20 30
20 20 30
20 20 30
20 20 30
20 20 30
20 20 30
20 20 30
20 20 30
20 20 30
20 20 30
20 20 30
20 20 30
20 20 30
20 20 30
20 20 30
20 20 30
20 20 30
20 20 30
20 20 30
20 20 30
20 20 30
20 20 30
20 20 30
20 20 30
20 20 30
20 20 30
20 20 30
20 20 30
20 20 30
20 20 30
20 20 30
20 20 30
20 20 30
20 20 30
20 20 30
20 20 30
20 20 30
20 20 30
20 20 30
20 20 30
20 20 30
20 20 30
20 20 30
20 20 30
20 20 30
20 20 30
20 20 30
20 20 30
20 20 30
20 20 30
20 20 30
20 20 30
20 20 30
20 20 30
20 20 30
20 20 30
20 20 30
20 20 30
20 20 30
20 20 30
20 20 30
20 20 30
20 20 30
20 20 30
20 20 30
20 20 30
20 20 30
20 20 30
20 20 30
20 20 30
20 20 30
20 20 30
20 20 30
20 20 30
20 20 30
20 20 30
20 20 30
100 200 255
100 200 255
100 200 255
100 200 255
100 200 255
20 20 30
20 20 30
20 20 30
20 20 30
20 20 30
20 20 30
20 20 30
20 20 30
20 20 30
20 20 30
20 20 30
20 20 30
20 20 30
20 20 30
20 20 30
20 20 30
20 20 30
20 20 30
20 20 30
20 20 30
20 20 30
20 20 30
20 20 30
20 20 30
20 20 30
20 20 30
20 20 30
20 20 30
20 20 30
20 20 30
20 20 30
20 20 30
20 20 30
20 20 30
20 20 30
20 20 30
20 20 30
20 20 30
20 20 30
20 20 30
20 20 30
20 20 30
20 20 30
20 20 30
20 20 30
20 20 30
20 20 30
20 20 30
20 20 30
20 20 30
20 20 30
20 20 30
20 20 30
20 20 30
20 20 30
20 20 30
20 20 30
20 20 30
20 20 30
20 20 30
20 20 30
20 20 30
20 20 30
20 20 30
20 20 30
20 20 30
20 20 30
100 200 255
100 200 255
100 200 255
100 200 255
100 200 255
20 20 30
20 20 30
20 20 30
20 20 30
20 20 30
20 20 30
20 20 30
20 20 30
20 20 30
20 20 30
20 20 30
20 20 30
20 20 30
20 20 30
20 20 30
20 20 30
20 20 30
20 20 30
20 20 30
20 20 30
20 20 30
20 20 30
20 20 30
20 20 30
20 20 30
20 20 30
20 20 30
20 20 30
20 20 30
20 20 30
20 20 30
20 20 30
20 20 30
20 20 30
20 20 30
20 20 30
20 20 30
20 20 30
20 20 30
20 20 30
20 20 30
20 20 30
20 20 30
20 20 30
20 20 30
20 20 30
20 20 30
20 20 30
20 20 30
20 20 30
20 20 30
20 20 30
20 20 30
20 20 30
20 20 30
20 20 30
20 20 30
20 20 30
20 20 30
20 20 30
20 20 30
20 20 30
20 20 30
20 20 30
20 20 30
20 20 30
20 20 30
20 20 30
20 20 30
20 20 30
20 20 30
20 20 30
20 20 30
20 20 30
20 20 30
20 20 30
20 20 30
20 20 30
20 20 30
20 20 30
20 20 30
20 20 30
20 20 30
20 20 30
100 200 255
100 200 255
100 200 255
100 200 255
100 200 255
20 20 30
20 20 30
20 20 30
20 20 30
20 20 30
20 20 30
20 20 30
20 20 30
20 20 30
20 20 30
20 20 30
20 20 30
20 20 30
20 20 30
20 20 30
20 20 30
20 20 30
20 20 30
20 20 30
20 20 30
20 20 30
20 20 30
20 20 30
20 20 30
20 20 30
20 20 30
20 20 30
20 20 30
20 20 30
20 20 30
20 20 30
20 20 30
20 20 30
20 20 30
20 20 30
20 20 30
20 20 30
20 20 30
20 20 30
20 20 30
20 20 30
20 20 30
20 20 30
20 20 30
20 20 30
20 20 30
20 20 30
20 20 30
20 20 30
20 20 30
20 20 30
20 20 30
20 20 30
20 20 30
20 20 30
20 20 30
20 20 30
20 20 30
20 20 30
20 20 30
20 20 30
20 20 30
20 20 30
20 20 30
20 20 30
100 200 255
100 200 255
100 200 255
100 200 255
100 200 255
20 20 30
20 20 30
20 20 30
20 20 30
20 20 30
20 20 30
20 20 30
20 20 30
20 20 30
20 20 30
20 20 30
20 20 30
20 20 30
20 20 30
20 20 30
20 20 30
20 20 30
20 20 30
20 20 30
20 20 30
20 20 30
20 20 30
20 20 30
20 20 30
20 20 30
20 20 30
20 20 30
20 20 30
20 20 30
20 20 30
20 20 30
20 20 30
20 20 30
20 20 30
20 20 30
20 20 30
20 20 30
20 20 30
20 20 30
20 20 30
20 20 30
20 20 30
20 20 30
20 20 30
20 20 30
20 20 30
20 20 30
20 20 30
20 20 30
20 20 30
20 20 30
20 20 30
20 20 30
20 20 30
20 20 30
20 20 30
20 20 30
20 20 30
20 20 30
20 20 30
20 20 30
20 20 30
20 20 30
20 20 30
20 20 30
20 20 30
20 20 30
20 20 30
20 20 30
20 20 30
20 20 30
20 20 30
20 20 30
20 20 30
20 20 30
20 20 30
20 20 30
20 20 30
20 20 30
20 20 30
20 20 30
20 20 30
20 20 30
20 20 30
20 20 30
20 20 30
100 200 255
100 200 255
100 200 255
100 200 255
100 200 255
20 20 30
20 20 30
20 20 30
20 20 30
20 20 30
20 20 30
20 20 30
20 20 30
20 20 30
20 20 30
20 20 30
20 20 30
20 20 30
20 20 30
20 20 30
20 20 30
20 20 30
20 20 30
20 20 30
20 20 30
20 20 30
20 20 30
20 20 30
20 20 30
20 20 30
20 20 30
20 20 30
20 20 30
20 20 30
20 20 30
20 20 30
20 20 30
20 20 30
20 20 30
20 20 30
20 20 30
20 20 30
20 20 30
20 20 30
20 20 30
20 20 30
20 20 30
20 20 30
20 20 30
20 20 30
20 20 30
20 20 30
20 20 30
20 20 30
20 20 30
20 20 30
20 20 30
20 20 30
20 20 30
20 20 30
20 20 30
20 20 30
20 20 30
20 20 30
20 20 30
20 20 30
20 20 30
20 20 30
100 200 255
100 200 255
100 200 255
100 200 255
100 200 255
20 20 30
20 20 30
20 20 30
20 20 30
20 20 30
20 20 30
20 20 30
20 20 30
20 20 30
20 20 30
20 20 30
20 20 30
20 20 30
20 20 30
20 20 30
20 20 30
20 20 30
20 20 30
20 20 30
20 20 30
20 20 30
20 20 30
20 20 30
20 20 30
20 20 30
20 20 30
20 20 30
20 20 30
20 20 30
20 20 30
20 20 30
20 20 30
20 20 30
20 20 30
20 20 30
20 20 30
20 20 30
20 20 30
20 20 30
20 20 30
20 20 30
20 20 30
20 20 30
20 20 30
20 20 30
20 20 30
20 20 30
20 20 30
20 20 30
20 20 30
20 20 30
20 20 30
20 20 30
20 20 30
20 20 30
20 20 30
20 20 30
20 20 30
20 20 30
20 20 30
20 20 30
20 20 30
20 20 30
20 20 30
20 20 30
20 20 30
20 20 30
20 20 30
20 20 30
20 20 30
20 20 30
20 20 30
20 20 30
20 20 30
20 20 30
20 20 30
20 20 30
20 20 30
20 20 30
20 20 30
20 20 30
20 20 30
20 20 30
20 20 30
20 20 30
20 20 30
20 20 30
20 20 30
100 200 255
100 200 255
100 200 255
100 200 255
100 200 255
20 20 30
20 20 30
20 20 30
20 20 30
20 20 30
20 20 30
20 20 30
20 20 30
20 20 30
20 20 30
20 20 30
20 20 30
20 20 30
20 20 30
20 20 30
20 20 30
20 20 30
20 20 30
20 20 30
20 20 30
20 20 30
20 20 30
20 20 30
20 20 30
20 20 30
20 20 30
20 20 30
20 20 30
20 20 30
20 20 30
20 20 30
20 20 30
20 20 30
20 20 30
20 20 30
20 20 30
20 20 30
20 20 30
20 20 30
20 20 30
20 20 30
20 20 30
20 20 30
20 20 30
20 20 30
20 20 30
20 20 30
20 20 30
20 20 30
20 20 30
20 20 30
20 20 30
20 20 30
20 20 30
20 20 30
20 20 30
20 20 30
20 20 30
20 20 30
20 20 30
20 20 30
100 200 255
100 200 255
100 200 255
100 200 255
100 200 255
20 20 30
20 20 30
20 20 30
20 20 30
20 20 30
20 20 30
20 20 30
20 20 30
20 20 30
20 20 30
20 20 30
20 20 30
20 20 30
20 20 30
20 20 30
20 20 30
20 20 30
20 20 30
20 20 30
20 20 30
20 20 30
20 20 30
20 20 30
20 20 30
20 20 30
20 20 30
20 20 30
20 20 30
20 20 30
20 20 30
20 20 30
20 20 30
20 20 30
20 20 30
20 20 30
20 20 30
20 20 30
20 20 30
20 20 30
20 20 30
20 20 30
20 20 30
20 20 30
20 20 30
20 20 30
20 20 30
20 20 30
20 20 30
20 20 30
20 20 30
20 20 30
20 20 30
20 20 30
20 20 30
20 20 30
20 20 30
20 20 30
20 20 30
20 20 30
20 20 30
20 20 30
20 20 30
20 20 30
20 20 30
20 20 30
20 20 30
20 20 30
20 20 30
20 20 30
20 20 30
20 20 30
20 20 30
20 20 30
20 20 30
20 20 30
20 20 30
20 20 30
20 20 30
20 20 30
20 20 30
20 20 30
20 20 30
20 20 30
20 20 30
20 20 30
20 20 30
20 20 30
20 20 30
20 20 30
20 20 30
100 200 255
100 200 255
100 200 255
100 200 255
100 200 255
20 20 30
20 20 30
20 20 30
20 20 30
20 20 30
20 20 30
20 20 30
20 20 30
20 20 30
20 20 30
20 20 30
20 20 30
20 20 30
20 20 30
20 20 30
20 20 30
20 20 30
20 20 30
20 20 30
20 20 30
20 20 30
20 20 30
20 20 30
20 20 30
20 20 30
20 20 30
20 20 30
20 20 30
20 20 30
20 20 30
20 20 30
20 20 30
20 20 30
20 20 30
20 20 30
20 20 30
20 20 30
20 20 30
20 20 30
20 20 30
20 20 30
20 20 30
20 20 30
20 20 30
20 20 30
20 20 30
20 20 30
20 20 30
20 20 30
20 20 30
20 20 30
20 20 30
20 20 30
20 20 30
20 20 30
20 20 30
20 20 30
20 20 30
20 20 30
100 200 255
100 200 255
100 200 255
100 200 255
100 200 255
20 20 30
20 20 30
20 20 30
20 20 30
20 20 30
20 20 30
20 20 30
20 20 30
20 20 30
20 20 30
20 20 30
20 20 30
20 20 30
20 20 30
20 20 30
20 20 30
20 20 30
20 20 30
20 20 30
20 20 30
20 20 30
20 20 30
20 20 30
20 20 30
20 20 30
20 20 30
20 20 30
20 20 30
20 20 30
20 20 30
20 20 30
20 20 30
20 20 30
20 20 30
20 20 30
20 20 30
20 20 30
20 20 30
20 20 30
20 20 30
20 20 30
20 20 30
20 20 30
20 20 30
20 20 30
20 20 30
20 20 30
20 20 30
20 20 30
20 20 30
20 20 30
20 20 30
20 20 30
20 20 30
20 20 30
20 20 30
20 20 30
20 20 30
20 20 30
20 20 30
20 20 30
20 20 30
20 20 30
20 20 30
20 20 30
20 20 30
20 20 30
20 20 30
20 20 30
20 20 30
20 20 30
20 20 30
20 20 30
20 20 30
20 20 30
20 20 30
20 20 30
20 20 30
20 20 30
20 20 30
20 20 30
20 20 30
20 20 30
20 20 30
20 20 30
20 20 30
20 20 30
20 20 30
20 20 30
20 20 30
20 20 30
20 20 30
100 200 255
100 200 255
100 200 255
100 200 255
100 200 255
20 20 30
20 20 30
20 20 30
20 20 30
20 20 30
20 20 30
20 20 30
20 20 30
20 20 30
20 20 30
20 20 30
20 20 30
20 20 30
20 20 30
20 20 30
20 20 30
20 20 30
20 20 30
20 20 30
20 20 30
20 20 30
20 20 30
20 20 30
20 20 30
20 20 30
20 20 30
20 20 30
20 20 30
20 20 30
20 20 30
20 20 30
20 20 30
20 20 30
20 20 30
20 20 30
20 20 30
20 20 30
20 20 30
20 20 30
20 20 30
20 20 30
20 20 30
20 20 30
20 20 30
20 20 30
20 20 30
20 20 30
20 20 30
20 20 30
20 20 30
20 20 30
20 20 30
20 20 30
20 20 30
20 20 30
20 20 30
20 20 30
100 200 255
100 200 255
100 200 255
100 200 255
100 200 255
20 20 30
20 20 30
20 20 30
20 20 30
20 20 30
20 20 30
20 20 30
20 20 30
20 20 30
20 20 30
20 20 30
20 20 30
20 20 30
20 20 30
20 20 30
20 20 30
20 20 30
20 20 30
20 20 30
20 20 30
20 20 30
20 20 30
20 20 30
20 20 30
20 20 30
20 20 30
20 20 30
20 20 30
20 20 30
20 20 30
20 20 30
20 20 30
20 20 30
20 20 30
20 20 30
20 20 30
20 20 30
20 20 30
20 20 30
20 20 30
20 20 30
20 20 30
20 20 30
20 20 30
20 20 30
20 20 30
20 20 30
20 20 30
20 20 30
20 20 30
20 20 30
20 20 30
20 20 30
20 20 30
20 20 30
20 20 30
20 20 30
20 20 30
20 20 30
20 20 30
20 20 30
20 20 30
20 20 30
20 20 30
20 20 30
20 20 30
20 20 30
20 20 30
20 20 30
20 20 30
20 20 30
20 20 30
20 20 30
20 20 30
20 20 30
20 20 30
20 20 30
20 20 30
20 20 30
20 20 30
20 20 30
20 20 30
20 20 30
20 20 30
20 20 30
20 20 30
20 20 30
20 20 30
20 20 30
20 20 30
20 20 30
20 20 30
20 20 30
20 20 30
100 200 255
100 200 255
100 200 255
100 200 255
100 200 255
20 20 30
20 20 30
20 20 30
20 20 30
20 20 30
20 20 30
20 20 30
20 20 30
20 20 30
20 20 30
20 20 30
20 20 30
20 20 30
20 20 30
20 20 30
20 20 30
20 20 30
20 20 30
20 20 30
20 20 30
20 20 30
20 20 30
20 20 30
20 20 30
20 20 30
20 20 30
20 20 30
20 20 30
20 20 30
20 20 30
20 20 30
20 20 30
20 20 30
20 20 30
20 20 30
20 20 30
20 20 30
20 20 30
20 20 30
20 20 30
20 20 30
20 20 30
20 20 30
20 20 30
20 20 30
20 20 30
20 20 30
20 20 30
20 20 30
20 20 30
20 20 30
20 20 30
20 20 30
20 20 30
20 20 30
100 200 255
100 200 255
100 200 255
100 200 255
100 200 255
20 20 30
20 20 30
20 20 30
20 20 30
20 20 30
20 20 30
20 20 30
20 20 30
20 20 30
20 20 30
20 20 30
20 20 30
20 20 30
20 20 30
20 20 30
20 20 30
20 20 30
20 20 30
20 20 30
20 20 30
20 20 30
20 20 30
20 20 30
20 20 30
20 20 30
20 20 30
20 20 30
20 20 30
20 20 30
20 20 30
20 20 30
20 20 30
20 20 30
20 20 30
20 20 30
20 20 30
20 20 30
20 20 30
20 20 30
20 20 30
20 20 30
20 20 30
20 20 30
20 20 30
20 20 30
20 20 30
20 20 30
20 20 30
20 20 30
20 20 30
20 20 30
20 20 30
20 20 30
20 20 30
20 20 30
20 20 30
20 20 30
20 20 30
20 20 30
20 20 30
20 20 30
20 20 30
20 20 30
20 20 30
20 20 30
20 20 30
20 20 30
20 20 30
20 20 30
20 20 30
20 20 30
20 20 30
20 20 30
20 20 30
20 20 30
20 20 30
20 20 30
20 20 30
20 20 30
20 20 30
20 20 30
20 20 30
20 20 30
20 20 30
20 20 30
20 20 30
20 20 30
20 20 30
20 20 30
20 20 30
20 20 30
20 20 30
20 20 30
20 20 30
20 20 30
20 20 30
100 200 255
100 200 255
100 200 255
100 200 255
100 200 255
20 20 30
20 20 30
20 20 30
20 20 30
20 20 30
20 20 30
20 20 30
20 20 30
20 20 30
20 20 30
20 20 30
20 20 30
20 20 30
20 20 30
20 20 30
20 20 30
20 20 30
20 20 30
20 20 30
20 20 30
20 20 30
20 20 30
20 20 30
20 20 30
20 20 30
20 20 30
20 20 30
20 20 30
20 20 30
20 20 30
20 20 30
20 20 30
20 20 30
20 20 30
20 20 30
20 20 30
20 20 30
20 20 30
20 20 30
20 20 30
20 20 30
20 20 30
20 20 30
20 20 30
20 20 30
20 20 30
20 20 30
20 20 30
20 20 30
20 20 30
20 20 30
20 20 30
20 20 30
100 200 255
100 200 255
100 200 255
100 200 255
100 200 255
20 20 30
20 20 30
20 20 30
20 20 30
20 20 30
20 20 30
20 20 30
20 20 30
20 20 30
20 20 30
20 20 30
20 20 30
20 20 30
20 20 30
20 20 30
20 20 30
20 20 30
20 20 30
20 20 30
20 20 30
20 20 30
20 20 30
20 20 30
20 20 30
20 20 30
20 20 30
20 20 30
20 20 30
20 20 30
20 20 30
20 20 30
20 20 30
20 20 30
20 20 30
20 20 30
20 20 30
20 20 30
20 20 30
20 20 30
20 20 30
20 20 30
20 20 30
20 20 30
20 20 30
20 20 30
20 20 30
20 20 30
20 20 30
20 20 30
20 20 30
20 20 30
20 20 30
20 20 30
20 20 30
20 20 30
20 20 30
20 20 30
20 20 30
20 20 30
20 20 30
20 20 30
20 20 30
20 20 30
20 20 30
20 20 30
20 20 30
20 20 30
20 20 30
20 20 30
20 20 30
20 20 30
20 20 30
20 20 30
20 20 30
20 20 30
20 20 30
20 20 30
20 20 30
20 20 30
20 20 30
20 20 30
20 20 30
20 20 30
20 20 30
20 20 30
20 20 30
20 20 30
20 20 30
20 20 30
20 20 30
20 20 30
20 20 30
20 20 30
20 20 30
20 20 30
20 20 30
20 20 30
20 20 30
100 200 255
100 200 255
100 200 255
100 200 255
100 200 255
20 20 30
20 20 30
20 20 30
20 20 30
20 20 30
20 20 30
20 20 30
20 20 30
20 20 30
20 20 30
20 20 30
20 20 30
20 20 30
20 20 30
20 20 30
20 20 30
20 20 30
20 20 30
20 20 30
20 20 30
20 20 30
20 20 30
20 20 30
20 20 30
20 20 30
20 20 30
20 20 30
20 20 30
20 20 30
20 20 30
20 20 30
20 20 30
20 20 30
20 20 30
20 20 30
20 20 30
20 20 30
20 20 30
20 20 30
20 20 30
20 20 30
20 20 30
20 20 30
20 20 30
20 20 30
20 20 30
20 20 30
20 20 30
20 20 30
20 20 30
20 20 30
100 200 255
100 200 255
100 200 255
100 200 255
100 200 255
20 20 30
20 20 30
20 20 30
20 20 30
20 20 30
20 20 30
20 20 30
20 20 30
20 20 30
20 20 30
20 20 30
20 20 30
20 20 30
20 20 30
20 20 30
20 20 30
20 20 30
20 20 30
20 20 30
20 20 30
20 20 30
20 20 30
20 20 30
20 20 30
20 20 30
20 20 30
20 20 30
20 20 30
20 20 30
20 20 30
20 20 30
20 20 30
20 20 30
20 20 30
20 20 30
20 20 30
20 20 30
20 20 30
20 20 30
20 20 30
20 20 30
20 20 30
20 20 30
20 20 30
20 20 30
20 20 30
20 20 30
20 20 30
20 20 30
20 20 30
20 20 30
20 20 30
20 20 30
20 20 30
20 20 30
20 20 30
20 20 30
20 20 30
20 20 30
20 20 30
20 20 30
20 20 30
20 20 30
20 20 30
20 20 30
20 20 30
20 20 30
20 20 30
20 20 30
20 20 30
20 20 30
20 20 30
20 20 30
20 20 30
20 20 30
20 20 30
20 20 30
20 20 30
20 20 30
20 20 30
20 20 30
20 20 30
20 20 30
20 20 30
20 20 30
20 20 30
20 20 30
20 20 30
20 20 30
20 20 30
20 20 30
20 20 30
20 20 30
20 20 30
20 20 30
20 20 30
20 20 30
20 20 30
20 20 30
20 20 30
100 200 255
100 200 255
100 200 255
100 200 255
100 200 255
20 20 30
20 20 30
20 20 30
20 20 30
20 20 30
20 20 30
20 20 30
20 20 30
20 20 30
20 20 30
20 20 30
20 20 30
20 20 30
20 20 30
20 20 30
20 20 30
20 20 30
20 20 30
20 20 30
20 20 30
20 20 30
20 20 30
20 20 30
20 20 30
20 20 30
20 20 30
20 20 30
20 20 30
20 20 30
20 20 30
20 20 30
20 20 30
20 20 30
20 20 30
20 20 30
20 20 30
20 20 30
20 20 30
20 20 30
20 20 30
20 20 30
20 20 30
20 20 30
20 20 30
20 20 30
20 20 30
20 20 30
20 20 30
20 20 30
100 200 255
100 200 255
100 200 255
100 200 255
100 200 255
20 20 30
20 20 30
20 20 30
20 20 30
20 20 30
20 20 30
20 20 30
20 20 30
20 20 30
20 20 30
20 20 30
20 20 30
20 20 30
20 20 30
20 20 30
20 20 30
20 20 30
20 20 30
20 20 30
20 20 30
20 20 30
20 20 30
20 20 30
20 20 30
20 20 30
20 20 30
20 20 30
20 20 30
20 20 30
20 20 30
20 20 30
20 20 30
20 20 30
20 20 30
20 20 30
20 20 30
20 20 30
20 20 30
20 20 30
20 20 30
20 20 30
20 20 30
20 20 30
20 20 30
20 20 30
20 20 30
20 20 30
20 20 30
20 20 30
20 20 30
20 20 30
20 20 30
20 20 30
20 20 30
20 20 30
20 20 30
20 20 30
20 20 30
20 20 30
20 20 30
20 20 30
20 20 30
20 20 30
20 20 30
20 20 30
20 20 30
20 20 30
20 20 30
20 20 30
20 20 30
20 20 30
20 20 30
20 20 30
20 20 30
20 20 30
20 20 30
20 20 30
20 20 30
20 20 30
20 20 30
20 20 30
20 20 30
20 20 30
20 20 30
20 20 30
20 20 30
20 20 30
20 20 30
20 20 30
20 20 30
20 20 30
20 20 30
20 20 30
20 20 30
20 20 30
20 20 30
20 20 30
20 20 30
20 20 30
20 20 30
20 20 30
20 20 30
100 200 255
100 200 255
100 200 255
100 200 255
100 200 255
20 20 30
20 20 30
20 20 30
20 20 30
20 20 30
20 20 30
20 20 30
20 20 30
20 20 30
20 20 30
20 20 30
20 20 30
20 20 30
20 20 30
20 20 30
20 20 30
20 20 30
20 20 30
20 20 30
20 20 30
20 20 30
20 20 30
20 20 30
20 20 30
20 20 30
20 20 30
20 20 30
20 20 30
20 20 30
20 20 30
20 20 30
20 20 30
20 20 30
20 20 30
20 20 30
20 20 30
20 20 30
20 20 30
20 20 30
20 20 30
20 20 30
20 20 30
20 20 30
20 20 30
20 20 30
20 20 30
20 20 30
100 200 255
100 200 255
100 200 255
100 200 255
100 200 255
20 20 30
20 20 30
20 20 30
20 20 30
20 20 30
20 20 30
20 20 30
20 20 30
20 20 30
20 20 30
20 20 30
20 20 30
20 20 30
20 20 30
20 20 30
20 20 30
20 20 30
20 20 30
20 20 30
20 20 30
20 20 30
20 20 30
20 20 30
20 20 30
20 20 30
20 20 30
20 20 30
20 20 30
20 20 30
20 20 30
20 20 30
20 20 30
20 20 30
20 20 30
20 20 30
20 20 30
20 20 30
20 20 30
20 20 30
20 20 30
20 20 30
20 20 30
20 20 30
20 20 30
20 20 30
20 20 30
20 20 30
20 20 30
20 20 30
20 20 30
20 20 30
20 20 30
20 20 30
20 20 30
20 20 30
20 20 30
20 20 30
20 20 30
20 20 30
20 20 30
20 20 30
20 20 30
20 20 30
20 20 30
20 20 30
20 20 30
20 20 30
20 20 30
20 20 30
20 20 30
20 20 30
20 20 30
20 20 30
20 20 30
20 20 30
20 20 30
20 20 30
20 20 30
20 20 30
20 20 30
20 20 30
20 20 30
20 20 30
20 20 30
20 20 30
20 20 30
20 20 30
20 20 30
20 20 30
20 20 30
20 20 30
20 20 30
20 20 30
20 20 30
20 20 30
20 20 30
20 20 30
20 20 30
20 20 30
20 20 30
20 20 30
20 20 30
20 20 30
20 20 30
100 200 255
100 200 255
100 200 255
100 200 255
100 200 255
20 20 30
20 20 30
20 20 30
20 20 30
20 20 30
20 20 30
20 20 30
20 20 30
20 20 30
20 20 30
20 20 30
20 20 30
20 20 30
20 20 30
20 20 30
20 20 30
20 20 30
20 20 30
20 20 30
20 20 30
20 20 30
20 20 30
20 20 30
20 20 30
20 20 30
20 20 30
20 20 30
20 20 30
20 20 30
20 20 30
20 20 30
20 20 30
20 20 30
20 20 30
20 20 30
20 20 30
20 20 30
20 20 30
20 20 30
20 20 30
20 20 30
20 20 30
20 20 30
20 20 30
20 20 30
100 200 255
100 200 255
100 200 255
100 200 255
100 200 255
20 20 30
20 20 30
20 20 30
20 20 30
20 20 30
20 20 30
20 20 30
20 20 30
20 20 30
20 20 30
20 20 30
20 20 30
20 20 30
20 20 30
20 20 30
20 20 30
20 20 30
20 20 30
20 20 30
20 20 30
20 20 30
20 20 30
20 20 30
20 20 30
20 20 30
20 20 30
20 20 30
20 20 30
20 20 30
20 20 30
20 20 30
20 20 30
20 20 30
20 20 30
20 20 30
20 20 30
20 20 30
20 20 30
20 20 30
20 20 30
20 20 30
20 20 30
20 20 30
20 20 30
20 20 30
20 20 30
20 20 30
20 20 30
20 20 30
20 20 30
20 20 30
20 20 30
20 20 30
20 20 30
20 20 30
20 20 30
20 20 30
20 20 30
20 20 30
20 20 30
20 20 30
20 20 30
20 20 30
20 20 30
20 20 30
20 20 30
20 20 30
20 20 30
20 20 30
20 20 30
20 20 30
20 20 30
20 20 30
20 20 30
20 20 30
20 20 30
20 20 30
20 20 30
20 20 30
20 20 30
20 20 30
20 20 30
20 20 30
20 20 30
20 20 30
20 20 30
20 20 30
20 20 30
20 20 30
20 20 30
20 20 30
20 20 30
20 20 30
20 20 30
20 20 30
20 20 30
20 20 30
20 20 30
20 20 30
20 20 30
20 20 30
20 20 30
20 20 30
20 20 30
20 20 30
20 20 30
100 200 255
100 200 255
100 200 255
100 200 255
100 200 255
20 20 30
20 20 30
20 20 30
20 20 30
20 20 30
20 20 30
20 20 30
20 20 30
20 20 30
20 20 30
20 20 30
20 20 30
20 20 30
20 20 30
20 20 30
20 20 30
20 20 30
20 20 30
20 20 30
20 20 30
20 20 30
20 20 30
20 20 30
20 20 30
20 20 30
20 20 30
20 20 30
20 20 30
20 20 30
20 20 30
20 20 30
20 20 30
20 20 30
20 20 30
20 20 30
20 20 30
20 20 30
20 20 30
20 20 30
20 20 30
20 20 30
20 20 30
20 20 30
100 200 255
100 200 255
100 200 255
100 200 255
100 200 255
20 20 30
20 20 30
20 20 30
20 20 30
20 20 30
20 20 30
20 20 30
20 20 30
20 20 30
20 20 30
20 20 30
20 20 30
20 20 30
20 20 30
20 20 30
20 20 30
20 20 30
20 20 30
20 20 30
20 20 30
20 20 30
20 20 30
20 20 30
20 20 30
20 20 30
20 20 30
20 20 30
20 20 30
20 20 30
20 20 30
20 20 30
20 20 30
20 20 30
20 20 30
20 20 30
20 20 30
20 20 30
20 20 30
20 20 30
20 20 30
20 20 30
20 20 30
20 20 30
20 20 30
20 20 30
20 20 30
20 20 30
20 20 30
20 20 30
20 20 30
20 20 30
20 20 30
20 20 30
20 20 30
20 20 30
20 20 30
20 20 30
20 20 30
20 20 30
20 20 30
20 20 30
20 20 30
20 20 30
20 20 30
20 20 30
20 20 30
20 20 30
20 20 30
20 20 30
20 20 30
20 20 30
20 20 30
20 20 30
20 20 30
20 20 30
20 20 30
20 20 30
20 20 30
20 20 30
20 20 30
20 20 30
20 20 30
20 20 30
20 20 30
20 20 30
20 20 30
20 20 30
20 20 30
20 20 30
20 20 30
20 20 30
20 20 30
20 20 30
20 20 30
20 20 30
20 20 30
20 20 30
20 20 30
20 20 30
20 20 30
20 20 30
20 20 30
20 20 30
20 20 30
20 20 30
20 20 30
20 20 30
20 20 30
100 200 255
100 200 255
100 200 255
100 200 255
100 200 255
20 20 30
20 20 30
20 20 30
20 20 30
20 20 30
20 20 30
20 20 30
20 20 30
20 20 30
20 20 30
20 20 30
20 20 30
20 20 30
20 20 30
20 20 30
20 20 30
20 20 30
20 20 30
20 20 30
20 20 30
20 20 30
20 20 30
20 20 30
20 20 30
20 20 30
20 20 30
20 20 30
20 20 30
20 20 30
20 20 30
20 20 30
20 20 30
20 20 30
20 20 30
20 20 30
20 20 30
20 20 30
20 20 30
20 20 30
20 20 30
20 20 30
100 200 255
100 200 255
100 200 255
100 200 255
100 200 255
20 20 30
20 20 30
20 20 30
20 20 30
20 20 30
20 20 30
20 20 30
20 20 30
20 20 30
20 20 30
20 20 30
20 20 30
20 20 30
20 20 30
20 20 30
20 20 30
20 20 30
20 20 30
20 20 30
20 20 30
20 20 30
20 20 30
20 20 30
20 20 30
20 20 30
20 20 30
20 20 30
20 20 30
20 20 30
20 20 30
20 20 30
20 20 30
20 20 30
20 20 30
20 20 30
20 20 30
20 20 30
20 20 30
20 20 30
20 20 30
20 20 30
20 20 30
20 20 30
20 20 30
20 20 30
20 20 30
20 20 30
20 20 30
20 20 30
20 20 30
20 20 30
20 20 30
20 20 30
20 20 30
20 20 30
20 20 30
20 20 30
20 20 30
20 20 30
20 20 30
20 20 30
20 20 30
20 20 30
20 20 30
20 20 30
20 20 30
20 20 30
20 20 30
20 20 30
20 20 30
20 20 30
20 20 30
20 20 30
20 20 30
20 20 30
20 20 30
20 20 30
20 20 30
20 20 30
20 20 30
20 20 30
20 20 30
20 20 30
20 20 30
20 20 30
20 20 30
20 20 30
20 20 30
20 20 30
20 20 30
20 20 30
20 20 30
20 20 30
20 20 30
20 20 30
20 20 30
20 20 30
20 20 30
20 20 30
20 20 30
20 20 30
20 20 30
20 20 30
20 20 30
20 20 30
20 20 30
20 20 30
20 20 30
20 20 30
20 20 30
100 200 255
100 200 255
100 200 255
100 200 255
100 200 255
20 20 30
20 20 30
20 20 30
20 20 30
20 20 30
20 20 30
20 20 30
20 20 30
20 20 30
20 20 30
20 20 30
20 20 30
20 20 30
20 20 30
20 20 30
20 20 30
20 20 30
20 20 30
20 20 30
20 20 30
20 20 30
20 20 30
20 20 30
20 20 30
20 20 30
20 20 30
20 20 30
20 20 30
20 20 30
20 20 30
20 20 30
20 20 30
20 20 30
20 20 30
20 20 30
20 20 30
20 20 30
20 20 30
20 20 30
100 200 255
100 200 255
100 200 255
100 200 255
100 200 255
20 20 30
20 20 30
20 20 30
20 20 30
20 20 30
20 20 30
20 20 30
20 20 30
20 20 30
20 20 30
20 20 30
20 20 30
20 20 30
20 20 30
20 20 30
20 20 30
20 20 30
20 20 30
20 20 30
20 20 30
20 20 30
20 20 30
20 20 30
20 20 30
20 20 30
20 20 30
20 20 30
20 20 30
20 20 30
20 20 30
20 20 30
20 20 30
20 20 30
20 20 30
20 20 30
20 20 30
20 20 30
20 20 30
20 20 30
20 20 30
20 20 30
20 20 30
20 20 30
20 20 30
20 20 30
20 20 30
20 20 30
20 20 30
20 20 30
20 20 30
20 20 30
20 20 30
20 20 30
20 20 30
20 20 30
20 20 30
20 20 30
20 20 30
20 20 30
20 20 30
20 20 30
20 20 30
20 20 30
20 20 30
20 20 30
20 20 30
20 20 30
20 20 30
20 20 30
20 20 30
20 20 30
20 20 30
20 20 30
20 20 30
20 20 30
20 20 30
20 20 30
20 20 30
20 20 30
20 20 30
20 20 30
20 20 30
20 20 30
20 20 30
20 20 30
20 20 30
20 20 30
20 20 30
20 20 30
20 20 30
20 20 30
20 20 30
20 20 30
20 20 30
20 20 30
20 20 30
20 20 30
20 20 30
20 20 30
20 20 30
20 20 30
20 20 30
20 20 30
20 20 30
20 20 30
20 20 30
20 20 30
20 20 30
20 20 30
20 20 30
20 20 30
20 20 30
100 200 255
100 200 255
100 200 255
100 200 255
100 200 255
20 20 30
20 20 30
20 20 30
20 20 30
20 20 30
20 20 30
20 20 30
20 20 30
20 20 30
20 20 30
20 20 30
20 20 30
20 20 30
20 20 30
20 20 30
20 20 30
20 20 30
20 20 30
20 20 30
20 20 30
20 20 30
20 20 30
20 20 30
20 20 30
20 20 30
20 20 30
20 20 30
20 20 30
20 20 30
20 20 30
20 20 30
20 20 30
20 20 30
20 20 30
20 20 30
20 20 30
20 20 30
100 200 255
100 200 255
100 200 255
100 200 255
100 200 255
20 20 30
20 20 30
20 20 30
20 20 30
20 20 30
20 20 30
20 20 30
20 20 30
20 20 30
20 20 30
20 20 30
20 20 30
20 20 30
20 20 30
20 20 30
20 20 30
20 20 30
20 20 30
20 20 30
20 20 30
20 20 30
20 20 30
20 20 30
20 20 30
20 20 30
20 20 30
20 20 30
20 20 30
20 20 30
20 20 30
20 20 30
20 20 30
20 20 30
20 20 30
20 20 30
20 20 30
20 20 30
20 20 30
20 20 30
20 20 30
20 20 30
20 20 30
20 20 30
20 20 30
20 20 30
20 20 30
20 20 30
20 20 30
20 20 30
20 20 30
20 20 30
20 20 30
20 20 30
20 20 30
20 20 30
20 20 30
20 20 30
20 20 30
20 20 30
20 20 30
20 20 30
20 20 30
20 20 30
20 20 30
20 20 30
20 20 30
20 20 30
20 20 30
20 20 30
20 20 30
20 20 30
20 20 30
20 20 30
20 20 30
20 20 30
20 20 30
20 20 30
20 20 30
20 20 30
20 20 30
20 20 30
20 20 30
20 20 30
20 20 30
20 20 30
20 20 30
20 20 30
20 20 30
20 20 30
20 20 30
20 20 30
20 20 30
20 20 30
20 20 30
20 20 30
20 20 30
20 20 30
20 20 30
20 20 30
20 20 30
20 20 30
20 20 30
20 20 30
20 20 30
20 20 30
20 20 30
20 20 30
20 20 30
20 20 30
20 20 30
20 20 30
20 20 30
20 20 30
20 20 30
100 200 255
100 200 255
100 200 255
100 200 255
100 200 255
20 20 30
20 20 30
20 20 30
20 20 30
20 20 30
20 20 30
20 20 30
20 20 30
20 20 30
20 20 30
20 20 30
20 20 30
20 20 30
20 20 30
20 20 30
20 20 30
20 20 30
20 20 30
20 20 30
20 20 30
20 20 30
20 20 30
20 20 30
20 20 30
20 20 30
20 20 30
20 20 30
20 20 30
20 20 30
20 20 30
20 20 30
20 20 30
20 20 30
20 20 30
20 20 30
100 200 255
100 200 255
100 200 255
100 200 255
100 200 255
20 20 30
20 20 30
20 20 30
20 20 30
20 20 30
20 20 30
20 20 30
20 20 30
20 20 30
20 20 30
20 20 30
20 20 30
20 20 30
20 20 30
20 20 30
20 20 30
20 20 30
20 20 30
20 20 30
20 20 30
20 20 30
20 20 30
20 20 30
20 20 30
20 20 30
20 20 30
20 20 30
20 20 30
20 20 30
20 20 30
20 20 30
20 20 30
20 20 30
20 20 30
20 20 30
20 20 30
20 20 30
20 20 30
20 20 30
20 20 30
20 20 30
20 20 30
20 20 30
20 20 30
20 20 30
20 20 30
20 20 30
20 20 30
20 20 30
20 20 30
20 20 30
20 20 30
20 20 30
20 20 30
20 20 30
20 20 30
20 20 30
20 20 30
20 20 30
20 20 30
20 20 30
20 20 30
20 20 30
20 20 30
20 20 30
20 20 30
20 20 30
20 20 30
20 20 30
20 20 30
20 20 30
20 20 30
20 20 30
20 20 30
20 20 30
20 20 30
20 20 30
20 20 30
20 20 30
20 20 30
20 20 30
20 20 30
20 20 30
20 20 30
20 20 30
20 20 30
20 20 30
20 20 30
20 20 30
20 20 30
20 20 30
20 20 30
20 20 30
20 20 30
20 20 30
20 20 30
20 20 30
20 20 30
20 20 30
20 20 30
20 20 30
20 20 30
20 20 30
20 20 30
20 20 30
20 20 30
20 20 30
20 20 30
20 20 30
20 20 30
20 20 30
20 20 30
20 20 30
20 20 30
20 20 30
20 20 30
100 200 255
100 200 255
100 200 255
100 200 255
100 200 255
20 20 30
20 20 30
20 20 30
20 20 30
20 20 30
20 20 30
20 20 30
20 20 30
20 20 30
20 20 30
20 20 30
20 20 30
20 20 30
20 20 30
20 20 30
20 20 30
20 20 30
20 20 30
20 20 30
20 20 30
20 20 30
20 20 30
20 20 30
20 20 30
20 20 30
20 20 30
20 20 30
20 20 30
20 20 30
20 20 30
20 20 30
20 20 30
20 20 30
100 200 255
100 200 255
100 200 255
100 200 255
100 200 255
20 20 30
20 20 30
20 20 30
20 20 30
20 20 30
20 20 30
20 20 30
20 20 30
20 20 30
20 20 30
20 20 30
20 20 30
20 20 30
20 20 30
20 20 30
20 20 30
20 20 30
20 20 30
20 20 30
20 20 30
20 20 30
20 20 30
20 20 30
20 20 30
20 20 30
20 20 30
20 20 30
20 20 30
20 20 30
20 20 30
20 20 30
20 20 30
20 20 30
20 20 30
20 20 30
20 20 30
20 20 30
20 20 30
20 20 30
20 20 30
20 20 30
20 20 30
20 20 30
20 20 30
20 20 30
20 20 30
20 20 30
20 20 30
20 20 30
20 20 30
20 20 30
20 20 30
20 20 30
20 20 30
20 20 30
20 20 30
20 20 30
20 20 30
20 20 30
20 20 30
20 20 30
20 20 30
20 20 30
20 20 30
20 20 30
20 20 30
20 20 30
20 20 30
20 20 30
20 20 30
20 20 30
20 20 30
20 20 30
20 20 30
20 20 30
20 20 30
20 20 30
20 20 30
20 20 30
20 20 30
20 20 30
20 20 30
20 20 30
20 20 30
20 20 30
20 20 30
20 20 30
20 20 30
20 20 30
20 20 30
20 20 30
20 20 30
20 20 30
20 20 30
20 20 30
20 20 30
20 20 30
20 20 30
20 20 30
20 20 30
20 20 30
20 20 30
20 20 30
20 20 30
20 20 30
20 20 30
20 20 30
20 20 30
20 20 30
20 20 30
20 20 30
20 20 30
20 20 30
20 20 30
20 20 30
20 20 30
20 20 30
20 20 30
100 200 255
100 200 255
100 200 255
100 200 255
100 200 255
20 20 30
20 20 30
20 20 30
20 20 30
20 20 30
20 20 30
20 20 30
20 20 30
20 20 30
20 20 30
20 20 30
20 20 30
20 20 30
20 20 30
20 20 30
20 20 30
20 20 30
20 20 30
20 20 30
20 20 30
20 20 30
20 20 30
20 20 30
20 20 30
20 20 30
20 20 30
20 20 30
20 20 30
20 20 30
20 20 30
20 20 30
100 200 255
100 200 255
100 200 255
100 200 255
100 200 255
20 20 30
20 20 30
20 20 30
20 20 30
20 20 30
20 20 30
20 20 30
20 20 30
20 20 30
20 20 30
20 20 30
20 20 30
20 20 30
20 20 30
20 20 30
20 20 30
20 20 30
20 20 30
20 20 30
20 20 30
20 20 30
20 20 30
20 20 30
20 20 30
20 20 30
20 20 30
20 20 30
20 20 30
20 20 30
20 20 30
20 20 30
20 20 30
20 20 30
20 20 30
20 20 30
20 20 30
20 20 30
20 20 30
20 20 30
20 20 30
20 20 30
20 20 30
20 20 30
20 20 30
20 20 30
20 20 30
20 20 30
20 20 30
20 20 30
20 20 30
20 20 30
20 20 30
20 20 30
20 20 30
20 20 30
20 20 30
20 20 30
20 20 30
20 20 30
20 20 30
20 20 30
20 20 30
20 20 30
20 20 30
20 20 30
20 20 30
20 20 30
20 20 30
20 20 30
20 20 30
20 20 30
20 20 30
20 20 30
20 20 30
20 20 30
20 20 30
20 20 30
20 20 30
20 20 30
20 20 30
20 20 30
20 20 30
20 20 30
20 20 30
20 20 30
20 20 30
20 20 30
20 20 30
20 20 30
20 20 30
20 20 30
20 20 30
20 20 30
20 20 30
20 20 30
20 20 30
20 20 30
20 20 30
20 20 30
20 20 30
20 20 30
20 20 30
20 20 30
20 20 30
20 20 30
20 20 30
20 20 30
20 20 30
20 20 30
20 20 30
20 20 30
20 20 30
20 20 30
20 20 30
20 20 30
20 20 30
20 20 30
20 20 30
20 20 30
20 20 30
100 200 255
100 200 255
100 200 255
100 200 255
100 200 255
20 20 30
20 20 30
20 20 30
20 20 30
20 20 30
20 20 30
20 20 30
20 20 30
20 20 30
20 20 30
20 20 30
20 20 30
20 20 30
20 20 30
20 20 30
20 20 30
20 20 30
20 20 30
20 20 30
20 20 30
20 20 30
20 20 30
20 20 30
20 20 30
20 20 30
20 20 30
20 20 30
20 20 30
20 20 30
100 200 255
100 200 255
100 200 255
100 200 255
100 200 255
20 20 30
20 20 30
20 20 30
20 20 30
20 20 30
20 20 30
20 20 30
20 20 30
20 20 30
20 20 30
20 20 30
20 20 30
20 20 30
20 20 30
20 20 30
20 20 30
20 20 30
20 20 30
20 20 30
20 20 30
20 20 30
20 20 30
20 20 30
20 20 30
20 20 30
20 20 30
20 20 30
20 20 30
20 20 30
20 20 30
20 20 30
20 20 30
20 20 30
20 20 30
20 20 30
20 20 30
20 20 30
20 20 30
20 20 30
20 20 30
20 20 30
20 20 30
20 20 30
20 20 30
20 20 30
20 20 30
20 20 30
20 20 30
20 20 30
20 20 30
20 20 30
20 20 30
20 20 30
20 20 30
20 20 30
20 20 30
20 20 30
20 20 30
20 20 30
20 20 30
20 20 30
20 20 30
20 20 30
20 20 30
20 20 30
20 20 30
20 20 30
20 20 30
20 20 30
20 20 30
20 20 30
20 20 30
20 20 30
20 20 30
20 20 30
20 20 30
20 20 30
20 20 30
20 20 30
20 20 30
20 20 30
20 20 30
20 20 30
20 20 30
20 20 30
20 20 30
20 20 30
20 20 30
20 20 30
20 20 30
20 20 30
20 20 30
20 20 30
20 20 30
20 20 30
20 20 30
20 20 30
20 20 30
20 20 30
20 20 30
20 20 30
20 20 30
20 20 30
20 20 30
20 20 30
20 20 30
20 20 30
20 20 30
20 20 30
20 20 30
20 20 30
20 20 30
20 20 30
20 20 30
20 20 30
20 20 30
20 20 30
20 20 30
20 20 30
20 20 30
20 20 30
20 20 30
100 200 255
100 200 255
100 200 255
100 200 255
100 200 255
20 20 30
20 20 30
20 20 30
20 20 30
20 20 30
20 20 30
20 20 30
20 20 30
20 20 30
20 20 30
20 20 30
20 20 30
20 20 30
20 20 30
20 20 30
20 20 30
20 20 30
20 20 30
20 20 30
20 20 30
20 20 30
20 20 30
20 20 30
20 20 30
20 20 30
20 20 30
20 20 30
100 200 255
100 200 255
100 200 255
100 200 255
100 200 255
20 20 30
20 20 30
20 20 30
20 20 30
20 20 30
20 20 30
20 20 30
20 20 30
20 20 30
20 20 30
20 20 30
20 20 30
20 20 30
20 20 30
20 20 30
20 20 30
20 20 30
20 20 30
20 20 30
20 20 30
20 20 30
20 20 30
20 20 30
20 20 30
20 20 30
20 20 30
20 20 30
20 20 30
20 20 30
20 20 30
20 20 30
20 20 30
20 20 30
20 20 30
20 20 30
20 20 30
20 20 30
20 20 30
20 20 30
20 20 30
20 20 30
20 20 30
20 20 30
20 20 30
20 20 30
20 20 30
20 20 30
20 20 30
20 20 30
20 20 30
20 20 30
20 20 30
20 20 30
20 20 30
20 20 30
20 20 30
20 20 30
20 20 30
20 20 30
20 20 30
20 20 30
20 20 30
20 20 30
20 20 30
20 20 30
20 20 30
20 20 30
20 20 30
20 20 30
20 20 30
20 20 30
20 20 30
20 20 30
20 20 30
20 20 30
20 20 30
20 20 30
20 20 30
20 20 30
20 20 30
20 20 30
20 20 30
20 20 30
20 20 30
20 20 30
20 20 30
20 20 30
20 20 30
20 20 30
20 20 30
20 20 30
20 20 30
20 20 30
20 20 30
20 20 30
20 20 30
20 20 30
20 20 30
20 20 30
20 20 30
20 20 30
20 20 30
20 20 30
20 20 30
20 20 30
20 20 30
20 20 30
20 20 30
20 20 30
20 20 30
20 20 30
20 20 30
20 20 30
20 20 30
20 20 30
20 20 30
20 20 30
20 20 30
20 20 30
20 20 30
20 20 30
20 20 30
20 20 30
20 20 30
100 200 255
100 200 255
100 200 255
100 200 255
100 200 255
20 20 30
20 20 30
20 20 30
20 20 30
20 20 30
20 20 30
20 20 30
20 20 30
20 20 30
20 20 30
20 20 30
20 20 30
20 20 30
20 20 30
20 20 30
20 20 30
20 20 30
20 20 30
20 20 30
20 20 30
20 20 30
20 20 30
20 20 30
20 20 30
20 20 30
100 200 255
100 200 255
100 200 255
100 200 255
100 200 255
20 20 30
20 20 30
20 20 30
20 20 30
20 20 30
20 20 30
20 20 30
20 20 30
20 20 30
20 20 30
20 20 30
20 20 30
20 20 30
20 20 30
20 20 30
20 20 30
20 20 30
20 20 30
20 20 30
20 20 30
20 20 30
20 20 30
20 20 30
20 20 30
20 20 30
20 20 30
20 20 30
20 20 30
20 20 30
20 20 30
20 20 30
20 20 30
20 20 30
20 20 30
20 20 30
20 20 30
20 20 30
20 20 30
20 20 30
20 20 30
20 20 30
20 20 30
20 20 30
20 20 30
20 20 30
20 20 30
20 20 30
20 20 30
20 20 30
20 20 30
20 20 30
20 20 30
20 20 30
20 20 30
20 20 30
20 20 30
20 20 30
20 20 30
20 20 30
20 20 30
20 20 30
20 20 30
20 20 30
20 20 30
20 20 30
20 20 30
20 20 30
20 20 30
20 20 30
20 20 30
20 20 30
20 20 30
20 20 30
20 20 30
20 20 30
20 20 30
20 20 30
20 20 30
20 20 30
20 20 30
20 20 30
20 20 30
20 20 30
20 20 30
20 20 30
20 20 30
20 20 30
20 20 30
20 20 30
20 20 30
20 20 30
20 20 30
20 20 30
20 20 30
20 20 30
20 20 30
20 20 30
20 20 30
20 20 30
20 20 30
20 20 30
20 20 30
20 20 30
20 20 30
20 20 30
20 20 30
20 20 30
20 20 30
20 20 30
20 20 30
20 20 30
20 20 30
20 20 30
20 20 30
20 20 30
20 20 30
20 20 30
20 20 30
20 20 30
20 20 30
20 20 30
20 20 30
20 20 30
20 20 30
20 20 30
20 20 30
100 200 255
100 200 255
100 200 255
100 200 255
100 200 255
20 20 30
20 20 30
20 20 30
20 20 30
20 20 30
20 20 30
20 20 30
20 20 30
20 20 30
20 20 30
20 20 30
20 20 30
20 20 30
20 20 30
20 20 30
20 20 30
20 20 30
20 20 30
20 20 30
20 20 30
20 20 30
20 20 30
20 20 30
100 200 255
100 200 255
100 200 255
100 200 255
100 200 255
20 20 30
20 20 30
20 20 30
20 20 30
20 20 30
20 20 30
20 20 30
20 20 30
20 20 30
20 20 30
20 20 30
20 20 30
20 20 30
20 20 30
20 20 30
20 20 30
20 20 30
20 20 30
20 20 30
20 20 30
20 20 30
20 20 30
20 20 30
20 20 30
20 20 30
20 20 30
20 20 30
20 20 30
20 20 30
20 20 30
20 20 30
20 20 30
20 20 30
20 20 30
20 20 30
20 20 30
20 20 30
20 20 30
20 20 30
20 20 30
20 20 30
20 20 30
20 20 30
20 20 30
20 20 30
20 20 30
20 20 30
20 20 30
20 20 30
20 20 30
20 20 30
20 20 30
20 20 30
20 20 30
20 20 30
20 20 30
20 20 30
20 20 30
20 20 30
20 20 30
20 20 30
20 20 30
20 20 30
20 20 30
20 20 30
20 20 30
20 20 30
20 20 30
20 20 30
20 20 30
20 20 30
20 20 30
20 20 30
20 20 30
20 20 30
20 20 30
20 20 30
20 20 30
20 20 30
20 20 30
20 20 30
20 20 30
20 20 30
20 20 30
20 20 30
20 20 30
20 20 30
20 20 30
20 20 30
20 20 30
20 20 30
20 20 30
20 20 30
20 20 30
20 20 30
20 20 30
20 20 30
20 20 30
20 20 30
20 20 30
20 20 30
20 20 30
20 20 30
20 20 30
20 20 30
20 20 30
20 20 30
20 20 30
20 20 30
20 20 30
20 20 30
20 20 30
20 20 30
20 20 30
20 20 30
20 20 30
20 20 30
20 20 30
20 20 30
20 20 30
20 20 30
20 20 30
20 20 30
20 20 30
20 20 30
20 20 30
20 20 30
20 20 30
100 200 255
100 200 255
100 200 255
100 200 255
100 200 255
20 20 30
20 20 30
20 20 30
20 20 30
20 20 30
20 20 30
20 20 30
20 20 30
20 20 30
20 20 30
20 20 30
20 20 30
20 20 30
20 20 30
20 20 30
20 20 30
20 20 30
20 20 30
20 20 30
20 20 30
20 20 30
100 200 255
100 200 255
100 200 255
100 200 255
100 200 255
20 20 30
20 20 30
20 20 30
20 20 30
20 20 30
20 20 30
20 20 30
20 20 30
20 20 30
20 20 30
20 20 30
20 20 30
20 20 30
20 20 30
20 20 30
20 20 30
20 20 30
20 20 30
20 20 30
20 20 30
20 20 30
20 20 30
20 20 30
20 20 30
20 20 30
20 20 30
20 20 30
20 20 30
20 20 30
20 20 30
20 20 30
20 20 30
20 20 30
20 20 30
20 20 30
20 20 30
20 20 30
20 20 30
20 20 30
20 20 30
20 20 30
20 20 30
20 20 30
20 20 30
20 20 30
20 20 30
20 20 30
20 20 30
20 20 30
20 20 30
20 20 30
20 20 30
20 20 30
20 20 30
20 20 30
20 20 30
20 20 30
20 20 30
20 20 30
20 20 30
20 20 30
20 20 30
20 20 30
20 20 30
20 20 30
20 20 30
20 20 30
20 20 30
20 20 30
20 20 30
20 20 30
20 20 30
20 20 30
20 20 30
20 20 30
20 20 30
20 20 30
20 20 30
20 20 30
20 20 30
20 20 30
20 20 30
20 20 30
20 20 30
20 20 30
20 20 30
20 20 30
20 20 30
20 20 30
20 20 30
20 20 30
20 20 30
20 20 30
20 20 30
20 20 30
20 20 30
20 20 30
20 20 30
20 20 30
20 20 30
20 20 30
20 20 30
20 20 30
20 20 30
20 20 30
20 20 30
20 20 30
20 20 30
20 20 30
20 20 30
20 20 30
20 20 30
20 20 30
20 20 30
20 20 30
20 20 30
20 20 30
20 20 30
20 20 30
20 20 30
20 20 30
20 20 30
20 20 30
20 20 30
20 20 30
20 20 30
20 20 30
20 20 30
20 20 30
20 20 30
100 200 255
100 200 255
100 200 255
100 200 255
100 200 255
20 20 30
20 20 30
20 20 30
20 20 30
20 20 30
20 20 30
20 20 30
20 20 30
20 20 30
20 20 30
20 20 30
20 20 30
20 20 30
20 20 30
20 20 30
20 20 30
20 20 30
20 20 30
20 20 30
100 200 255
100 200 255
100 200 255
100 200 255
100 200 255
20 20 30
20 20 30
20 20 30
20 20 30
20 20 30
20 20 30
20 20 30
20 20 30
20 20 30
20 20 30
20 20 30
20 20 30
20 20 30
20 20 30
20 20 30
20 20 30
20 20 30
20 20 30
20 20 30
20 20 30
20 20 30
20 20 30
20 20 30
20 20 30
20 20 30
20 20 30
20 20 30
20 20 30
20 20 30
20 20 30
20 20 30
20 20 30
20 20 30
20 20 30
20 20 30
20 20 30
20 20 30
20 20 30
20 20 30
20 20 30
20 20 30
20 20 30
20 20 30
20 20 30
20 20 30
20 20 30
20 20 30
20 20 30
20 20 30
20 20 30
20 20 30
20 20 30
20 20 30
20 20 30
20 20 30
20 20 30
20 20 30
20 20 30
20 20 30
20 20 30
20 20 30
20 20 30
20 20 30
20 20 30
20 20 30
20 20 30
20 20 30
20 20 30
20 20 30
20 20 30
20 20 30
20 20 30
20 20 30
20 20 30
20 20 30
20 20 30
20 20 30
20 20 30
20 20 30
20 20 30
20 20 30
20 20 30
20 20 30
20 20 30
20 20 30
20 20 30
20 20 30
20 20 30
20 20 30
20 20 30
20 20 30
20 20 30
20 20 30
20 20 30
20 20 30
20 20 30
20 20 30
20 20 30
20 20 30
20 20 30
20 20 30
20 20 30
20 20 30
20 20 30
20 20 30
20 20 30
20 20 30
20 20 30
20 20 30
20 20 30
20 20 30
20 20 30
20 20 30
20 20 30
20 20 30
20 20 30
20 20 30
20 20 30
20 20 30
20 20 30
20 20 30
20 20 30
20 20 30
20 20 30
20 20 30
20 20 30
20 20 30
20 20 30
20 20 30
20 20 30
20 20 30
20 20 30
100 200 255
100 200 255
100 200 255
100 200 255
100 200 255
20 20 30
20 20 30
20 20 30
20 20 30
20 20 30
20 20 30
20 20 30
20 20 30
20 20 30
20 20 30
20 20 30
20 20 30
20 20 30
20 20 30
20 20 30
20 20 30
20 20 30
100 200 255
100 200 255
100 200 255
100 200 255
100 200 255
20 20 30
20 20 30
20 20 30
20 20 30
20 20 30
20 20 30
20 20 30
20 20 30
20 20 30
20 20 30
20 20 30
20 20 30
20 20 30
20 20 30
20 20 30
20 20 30
20 20 30
20 20 30
20 20 30
20 20 30
20 20 30
20 20 30
20 20 30
20 20 30
20 20 30
20 20 30
20 20 30
20 20 30
20 20 30
20 20 30
20 20 30
20 20 30
20 20 30
20 20 30
20 20 30
20 20 30
20 20 30
20 20 30
20 20 30
20 20 30
20 20 30
20 20 30
20 20 30
20 20 30
20 20 30
20 20 30
20 20 30
20 20 30
20 20 30
20 20 30
20 20 30
20 20 30
20 20 30
20 20 30
20 20 30
20 20 30
20 20 30
20 20 30
20 20 30
20 20 30
20 20 30
20 20 30
20 20 30
20 20 30
20 20 30
20 20 30
20 20 30
20 20 30
20 20 30
20 20 30
20 20 30
20 20 30
20 20 30
20 20 30
20 20 30
20 20 30
20 20 30
20 20 30
20 20 30
20 20 30
20 20 30
20 20 30
20 20 30
20 20 30
20 20 30
20 20 30
20 20 30
20 20 30
20 20 30
20 20 30
20 20 30
20 20 30
20 20 30
20 20 30
20 20 30
20 20 30
20 20 30
20 20 30
20 20 30
20 20 30
20 20 30
20 20 30
20 20 30
20 20 30
20 20 30
20 20 30
20 20 30
20 20 30
20 20 30
20 20 30
20 20 30
20 20 30
20 20 30
20 20 30
20 20 30
20 20 30
20 20 30
20 20 30
20 20 30
20 20 30
20 20 30
20 20 30
20 20 30
20 20 30
20 20 30
20 20 30
20 20 30
20 20 30
20 20 30
20 20 30
20 20 30
20 20 30
20 20 30
20 20 30
100 200 255
100 200 255
100 200 255
100 200 255
100 200 255
20 20 30
20 20 30
20 20 30
20 20 30
20 20 30
20 20 30
20 20 30
20 20 30
20 20 30
20 20 30
20 20 30
20 20 30
20 20 30
20 20 30
20 20 30
100 200 255
100 200 255
100 200 255
100 200 255
100 200 255
20 20 30
20 20 30
20 20 30
20 20 30
20 20 30
20 20 30
20 20 30
20 20 30
20 20 30
20 20 30
20 20 30
20 20 30
20 20 30
20 20 30
20 20 30
20 20 30
20 20 30
20 20 30
20 20 30
20 20 30
20 20 30
20 20 30
20 20 30
20 20 30
20 20 30
20 20 30
20 20 30
20 20 30
20 20 30
20 20 30
20 20 30
20 20 30
20 20 30
20 20 30
20 20 30
20 20 30
20 20 30
20 20 30
20 20 30
20 20 30
20 20 30
20 20 30
20 20 30
20 20 30
20 20 30
20 20 30
20 20 30
20 20 30
20 20 30
20 20 30
20 20 30
20 20 30
20 20 30
20 20 30
20 20 30
20 20 30
20 20 30
20 20 30
20 20 30
20 20 30
20 20 30
20 20 30
20 20 30
20 20 30
20 20 30
20 20 30
20 20 30
20 20 30
20 20 30
20 20 30
20 20 30
20 20 30
20 20 30
20 20 30
20 20 30
20 20 30
20 20 30
20 20 30
20 20 30
20 20 30
20 20 30
20 20 30
20 20 30
20 20 30
20 20 30
20 20 30
20 20 30
20 20 30
20 20 30
20 20 30
20 20 30
20 20 30
20 20 30
20 20 30
20 20 30
20 20 30
20 20 30
20 20 30
20 20 30
20 20 30
20 20 30
20 20 30
20 20 30
20 20 30
20 20 30
20 20 30
20 20 30
20 20 30
20 20 30
20 20 30
20 20 30
20 20 30
20 20 30
20 20 30
20 20 30
20 20 30
20 20 30
20 20 30
20 20 30
20 20 30
20 20 30
20 20 30
20 20 30
20 20 30
20 20 30
20 20 30
20 20 30
20 20 30
20 20 30
20 20 30
20 20 30
20 20 30
20 20 30
20 20 30
20 20 30
20 20 30
100 200 255
100 200 255
100 200 255
100 200 255
100 200 255
20 20 30
20 20 30
20 20 30
20 20 30
20 20 30
20 20 30
20 20 30
20 20 30
20 20 30
20 20 30
20 20 30
20 20 30
20 20 30
100 200 255
100 200 255
100 200 255
100 200 255
100 200 255
20 20 30
20 20 30
20 20 30
20 20 30
20 20 30
20 20 30
20 20 30
20 20 30
20 20 30
20 20 30
20 20 30
20 20 30
20 20 30
20 20 30
20 20 30
20 20 30
20 20 30
20 20 30
20 20 30
20 20 30
20 20 30
20 20 30
20 20 30
20 20 30
20 20 30
20 20 30
20 20 30
20 20 30
20 20 30
20 20 30
20 20 30
20 20 30
20 20 30
20 20 30
20 20 30
20 20 30
20 20 30
20 20 30
20 20 30
20 20 30
20 20 30
20 20 30
20 20 30
20 20 30
20 20 30
20 20 30
20 20 30
20 20 30
20 20 30
20 20 30
20 20 30
20 20 30
20 20 30
20 20 30
20 20 30
20 20 30
20 20 30
20 20 30
20 20 30
20 20 30
20 20 30
20 20 30
20 20 30
20 20 30
20 20 30
20 20 30
20 20 30
20 20 30
20 20 30
20 20 30
20 20 30
20 20 30
20 20 30
20 20 30
20 20 30
20 20 30
20 20 30
20 20 30
20 20 30
20 20 30
20 20 30
20 20 30
20 20 30
20 20 30
20 20 30
20 20 30
20 20 30
20 20 30
20 20 30
20 20 30
20 20 30
20 20 30
20 20 30
20 20 30
20 20 30
20 20 30
20 20 30
20 20 30
20 20 30
20 20 30
20 20 30
20 20 30
20 20 30
20 20 30
20 20 30
20 20 30
20 20 30
20 20 30
20 20 30
20 20 30
20 20 30
20 20 30
20 20 30
20 20 30
20 20 30
20 20 30
20 20 30
20 20 30
20 20 30
20 20 30
20 20 30
20 20 30
20 20 30
20 20 30
20 20 30
20 20 30
20 20 30
20 20 30
20 20 30
20 20 30
20 20 30
20 20 30
20 20 30
20 20 30
20 20 30
20 20 30
20 20 30
20 20 30
100 200 255
100 200 255
100 200 255
100 200 255
100 200 255
20 20 30
20 20 30
20 20 30
20 20 30
20 20 30
20 20 30
20 20 30
20 20 30
20 20 30
20 20 30
20 20 30
100 200 255
100 200 255
100 200 255
100 200 255
100 200 255
20 20 30
20 20 30
20 20 30
20 20 30
20 20 30
20 20 30
20 20 30
20 20 30
20 20 30
20 20 30
20 20 30
20 20 30
20 20 30
20 20 30
20 20 30
20 20 30
20 20 30
20 20 30
20 20 30
20 20 30
20 20 30
20 20 30
20 20 30
20 20 30
20 20 30
20 20 30
20 20 30
20 20 30
20 20 30
20 20 30
20 20 30
20 20 30
20 20 30
20 20 30
20 20 30
20 20 30
20 20 30
20 20 30
20 20 30
20 20 30
20 20 30
20 20 30
20 20 30
20 20 30
20 20 30
20 20 30
20 20 30
20 20 30
20 20 30
20 20 30
20 20 30
20 20 30
20 20 30
20 20 30
20 20 30
20 20 30
20 20 30
20 20 30
20 20 30
20 20 30
20 20 30
20 20 30
20 20 30
20 20 30
20 20 30
20 20 30
20 20 30
20 20 30
20 20 30
20 20 30
20 20 30
20 20 30
20 20 30
20 20 30
20 20 30
20 20 30
20 20 30
20 20 30
20 20 30
20 20 30
20 20 30
20 20 30
20 20 30
20 20 30
20 20 30
20 20 30
20 20 30
20 20 30
20 20 30
20 20 30
20 20 30
20 20 30
20 20 30
20 20 30
20 20 30
20 20 30
20 20 30
20 20 30
20 20 30
20 20 30
20 20 30
20 20 30
20 20 30
20 20 30
20 20 30
20 20 30
20 20 30
20 20 30
20 20 30
20 20 30
20 20 30
20 20 30
20 20 30
20 20 30
20 20 30
20 20 30
20 20 30
20 20 30
20 20 30
20 20 30
20 20 30
20 20 30
20 20 30
20 20 30
20 20 30
20 20 30
20 20 30
20 20 30
20 20 30
20 20 30
20 20 30
20 20 30
20 20 30
20 20 30
20 20 30
20 20 30
20 20 30
20 20 30
20 20 30
20 20 30
100 200 255
100 200 255
100 200 255
100 200 255
100 200 255
20 20 30
20 20 30
20 20 30
20 20 30
20 20 30
20 20 30
20 20 30
20 20 30
20 20 30
100 200 255
100 200 255
100 200 255
100 200 255
100 200 255
20 20 30
20 20 30
20 20 30
20 20 30
20 20 30
20 20 30
20 20 30
20 20 30
20 20 30
20 20 30
20 20 30
20 20 30
20 20 30
20 20 30
20 20 30
20 20 30
20 20 30
20 20 30
20 20 30
20 20 30
20 20 30
20 20 30
20 20 30
20 20 30
20 20 30
20 20 30
20 20 30
20 20 30
20 20 30
20 20 30
20 20 30
20 20 30
20 20 30
20 20 30
20 20 30
20 20 30
20 20 30
20 20 30
20 20 30
20 20 30
20 20 30
20 20 30
20 20 30
20 20 30
20 20 30
20 20 30
20 20 30
20 20 30
20 20 30
20 20 30
20 20 30
20 20 30
20 20 30
20 20 30
20 20 30
20 20 30
20 20 30
20 20 30
20 20 30
20 20 30
20 20 30
20 20 30
20 20 30
20 20 30
20 20 30
20 20 30
20 20 30
20 20 30
20 20 30
20 20 30
20 20 30
20 20 30
20 20 30
20 20 30
20 20 30
20 20 30
20 20 30
20 20 30
20 20 30
20 20 30
20 20 30
20 20 30
20 20 30
20 20 30
20 20 30
20 20 30
20 20 30
20 20 30
20 20 30
20 20 30
20 20 30
20 20 30
20 20 30
20 20 30
20 20 30
20 20 30
20 20 30
20 20 30
20 20 30
20 20 30
20 20 30
20 20 30
20 20 30
20 20 30
20 20 30
20 20 30
20 20 30
20 20 30
20 20 30
20 20 30
20 20 30
20 20 30
20 20 30
20 20 30
20 20 30
20 20 30
20 20 30
20 20 30
20 20 30
20 20 30
20 20 30
20 20 30
20 20 30
20 20 30
20 20 30
20 20 30
20 20 30
20 20 30
20 20 30
20 20 30
20 20 30
20 20 30
20 20 30
20 20 30
20 20 30
20 20 30
20 20 30
20 20 30
20 20 30
20 20 30
20 20 30
20 20 30
100 200 255
100 200 255
100 200 255
100 200 255
100 200 255
20 20 30
20 20 30
20 20 30
20 20 30
20 20 30
20 20 30
20 20 30
100 200 255
100 200 255
100 200 255
100 200 255
100 200 255
20 20 30
20 20 30
20 20 30
20 20 30
20 20 30
20 20 30
20 20 30
20 20 30
20 20 30
20 20 30
20 20 30
20 20 30
20 20 30
20 20 30
20 20 30
20 20 30
20 20 30
20 20 30
20 20 30
20 20 30
20 20 30
20 20 30
20 20 30
20 20 30
20 20 30
20 20 30
20 20 30
20 20 30
20 20 30
20 20 30
20 20 30
20 20 30
20 20 30
20 20 30
20 20 30
20 20 30
20 20 30
20 20 30
20 20 30
20 20 30
20 20 30
20 20 30
20 20 30
20 20 30
20 20 30
20 20 30
20 20 30
20 20 30
20 20 30
20 20 30
20 20 30
20 20 30
20 20 30
20 20 30
20 20 30
20 20 30
20 20 30
20 20 30
20 20 30
20 20 30
20 20 30
20 20 30
20 20 30
20 20 30
20 20 30
20 20 30
20 20 30
20 20 30
20 20 30
20 20 30
20 20 30
20 20 30
20 20 30
20 20 30
20 20 30
20 20 30
20 20 30
20 20 30
20 20 30
20 20 30
20 20 30
20 20 30
20 20 30
20 20 30
20 20 30
20 20 30
20 20 30
20 20 30
20 20 30
20 20 30
20 20 30
20 20 30
20 20 30
20 20 30
20 20 30
20 20 30
20 20 30
20 20 30
20 20 30
20 20 30
20 20 30
20 20 30
20 20 30
20 20 30
20 20 30
20 20 30
20 20 30
20 20 30
20 20 30
20 20 30
20 20 30
20 20 30
20 20 30
20 20 30
20 20 30
20 20 30
20 20 30
20 20 30
20 20 30
20 20 30
20 20 30
20 20 30
20 20 30
20 20 30
20 20 30
20 20 30
20 20 30
20 20 30
20 20 30
20 20 30
20 20 30
20 20 30
20 20 30
20 20 30
20 20 30
20 20 30
20 20 30
20 20 30
20 20 30
20 20 30
20 20 30
20 20 30
20 20 30
20 20 30
100 200 255
100 200 255
100 200 255
100 200 255
100 200 255
20 20 30
20 20 30
20 20 30
20 20 30
20 20 30
100 200 255
100 200 255
100 200 255
100 200 255
100 200 255
20 20 30
20 20 30
20 20 30
20 20 30
20 20 30
20 20 30
20 20 30
20 20 30
20 20 30
20 20 30
20 20 30
20 20 30
20 20 30
20 20 30
20 20 30
20 20 30
20 20 30
20 20 30
20 20 30
20 20 30
20 20 30
20 20 30
20 20 30
20 20 30
20 20 30
20 20 30
20 20 30
20 20 30
20 20 30
20 20 30
20 20 30
20 20 30
20 20 30
20 20 30
20 20 30
20 20 30
20 20 30
20 20 30
20 20 30
20 20 30
20 20 30
20 20 30
20 20 30
20 20 30
20 20 30
20 20 30
20 20 30
20 20 30
20 20 30
20 20 30
20 20 30
20 20 30
20 20 30
20 20 30
20 20 30
20 20 30
20 20 30
20 20 30
20 20 30
20 20 30
20 20 30
20 20 30
20 20 30
20 20 30
20 20 30
20 20 30
20 20 30
20 20 30
20 20 30
20 20 30
20 20 30
20 20 30
20 20 30
20 20 30
20 20 30
20 20 30
20 20 30
20 20 30
20 20 30
20 20 30
20 20 30
20 20 30
20 20 30
20 20 30
20 20 30
20 20 30
20 20 30
20 20 30
20 20 30
20 20 30
20 20 30
20 20 30
20 20 30
20 20 30
20 20 30
20 20 30
20 20 30
20 20 30
20 20 30
20 20 30
20 20 30
20 20 30
20 20 30
20 20 30
20 20 30
20 20 30
20 20 30
20 20 30
20 20 30
20 20 30
20 20 30
20 20 30
20 20 30
20 20 30
20 20 30
20 20 30
20 20 30
20 20 30
20 20 30
20 20 30
20 20 30
20 20 30
20 20 30
20 20 30
20 20 30
20 20 30
20 20 30
20 20 30
20 20 30
20 20 30
20 20 30
20 20 30
20 20 30
20 20 30
20 20 30
20 20 30
20 20 30
20 20 30
20 20 30
20 20 30
20 20 30
20 20 30
20 20 30
20 20 30
20 20 30
20 20 30
100 200 255
100 200 255
100 200 255
100 200 255
100 200 255
20 20 30
20 20 30
20 20 30
100 200 255
100 200 255
100 200 255
100 200 255
100 200 255
20 20 30
20 20 30
20 20 30
20 20 30
20 20 30
20 20 30
20 20 30
20 20 30
20 20 30
20 20 30
20 20 30
20 20 30
20 20 30
20 20 30
20 20 30
20 20 30
20 20 30
20 20 30
20 20 30
20 20 30
20 20 30
20 20 30
20 20 30
20 20 30
20 20 30
20 20 30
20 20 30
20 20 30
20 20 30
20 20 30
20 20 30
20 20 30
20 20 30
20 20 30
20 20 30
20 20 30
20 20 30
20 20 30
20 20 30
20 20 30
20 20 30
20 20 30
20 20 30
20 20 30
20 20 30
20 20 30
20 20 30
20 20 30
20 20 30
20 20 30
20 20 30
20 20 30
20 20 30
20 20 30
20 20 30
20 20 30
20 20 30
20 20 30
20 20 30
20 20 30
20 20 30
20 20 30
20 20 30
20 20 30
20 20 30
20 20 30
20 20 30
20 20 30
20 20 30
20 20 30
20 20 30
20 20 30
20 20 30
20 20 30
20 20 30
20 20 30
20 20 30
20 20 30
20 20 30
20 20 30
20 20 30
20 20 30
20 20 30
20 20 30
20 20 30
20 20 30
20 20 30
20 20 30
20 20 30
20 20 30
20 20 30
20 20 30
20 20 30
20 20 30
20 20 30
20 20 30
20 20 30
20 20 30
20 20 30
20 20 30
20 20 30
20 20 30
20 20 30
20 20 30
20 20 30
20 20 30
20 20 30
20 20 30
20 20 30
20 20 30
20 20 30
20 20 30
20 20 30
20 20 30
20 20 30
20 20 30
20 20 30
20 20 30
20 20 30
20 20 30
20 20 30
20 20 30
20 20 30
20 20 30
20 20 30
20 20 30
20 20 30
20 20 30
20 20 30
20 20 30
20 20 30
20 20 30
20 20 30
20 20 30
20 20 30
20 20 30
20 20 30
20 20 30
20 20 30
20 20 30
20 20 30
20 20 30
20 20 30
20 20 30
20 20 30
20 20 30
20 20 30
20 20 30
100 200 255
100 200 255
100 200 255
100 200 255
100 200 255
20 20 30
100 200 255
100 200 255
100 200 255
100 200 255
100 200 255
20 20 30
20 20 30
20 20 30
20 20 30
20 20 30
20 20 30
20 20 30
20 20 30
20 20 30
20 20 30
20 20 30
20 20 30
20 20 30
20 20 30
20 20 30
20 20 30
20 20 30
20 20 30
20 20 30
20 20 30
20 20 30
20 20 30
20 20 30
20 20 30
20 20 30
20 20 30
20 20 30
20 20 30
20 20 30
20 20 30
20 20 30
20 20 30
20 20 30
20 20 30
20 20 30
20 20 30
20 20 30
20 20 30
20 20 30
20 20 30
20 20 30
20 20 30
20 20 30
20 20 30
20 20 30
20 20 30
20 20 30
20 20 30
20 20 30
20 20 30
20 20 30
20 20 30
20 20 30
20 20 30
20 20 30
20 20 30
20 20 30
20 20 30
20 20 30
20 20 30
20 20 30
20 20 30
20 20 30
20 20 30
20 20 30
20 20 30
20 20 30
20 20 30
20 20 30
20 20 30
20 20 30
20 20 30
20 20 30
20 20 30
20 20 30
20 20 30
20 20 30
20 20 30
20 20 30
20 20 30
20 20 30
20 20 30
20 20 30
20 20 30
20 20 30
20 20 30
20 20 30
20 20 30
20 20 30
20 20 30
20 20 30
20 20 30
20 20 30
20 20 30
20 20 30
20 20 30
20 20 30
20 20 30
20 20 30
20 20 30
20 20 30
20 20 30
20 20 30
20 20 30
20 20 30
20 20 30
20 20 30
20 20 30
20 20 30
20 20 30
20 20 30
20 20 30
20 20 30
20 20 30
20 20 30
20 20 30
20 20 30
20 20 30
20 20 30
20 20 30
20 20 30
20 20 30
20 20 30
20 20 30
20 20 30
20 20 30
20 20 30
20 20 30
20 20 30
20 20 30
20 20 30
20 20 30
20 20 30
20 20 30
20 20 30
20 20 30
20 20 30
20 20 30
20 20 30
20 20 30
20 20 30
20 20 30
20 20 30
20 20 30
20 20 30
20 20 30
20 20 30
20 20 30
20 20 30
20 20 30
100 200 255
100 200 255
100 200 255
100 200 255
100 200 255
100 200 255
100 200 255
100 200 255
100 200 255
20 20 30
20 20 30
20 20 30
20 20 30
20 20 30
20 20 30
20 20 30
20 20 30
20 20 30
20 20 30
20 20 30
20 20 30
20 20 30
20 20 30
20 20 30
20 20 30
20 20 30
20 20 30
20 20 30
20 20 30
20 20 30
20 20 30
20 20 30
20 20 30
20 20 30
20 20 30
20 20 30
20 20 30
20 20 30
20 20 30
20 20 30
20 20 30
20 20 30
20 20 30
20 20 30
20 20 30
20 20 30
20 20 30
20 20 30
20 20 30
20 20 30
20 20 30
20 20 30
20 20 30
20 20 30
20 20 30
20 20 30
20 20 30
20 20 30
20 20 30
20 20 30
20 20 30
20 20 30
20 20 30
20 20 30
20 20 30
20 20 30
20 20 30
20 20 30
20 20 30
20 20 30
20 20 30
20 20 30
20 20 30
20 20 30
20 20 30
20 20 30
20 20 30
20 20 30
20 20 30
20 20 30
20 20 30
20 20 30
20 20 30
20 20 30
20 20 30
20 20 30
20 20 30
20 20 30
20 20 30
20 20 30
20 20 30
20 20 30
20 20 30
20 20 30
20 20 30
20 20 30
20 20 30
20 20 30
20 20 30
20 20 30
20 20 30
20 20 30
20 20 30
20 20 30
20 20 30
20 20 30
20 20 30
20 20 30
20 20 30
20 20 30
20 20 30
20 20 30
20 20 30
20 20 30
20 20 30
20 20 30
20 20 30
20 20 30
20 20 30
20 20 30
20 20 30
20 20 30
20 20 30
20 20 30
20 20 30
20 20 30
20 20 30
20 20 30
20 20 30
20 20 30
20 20 30
20 20 30
20 20 30
20 20 30
20 20 30
20 20 30
20 20 30
20 20 30
20 20 30
20 20 30
20 20 30
20 20 30
20 20 30
20 20 30
20 20 30
20 20 30
20 20 30
20 20 30
20 20 30
20 20 30
20 20 30
20 20 30
20 20 30
20 20 30
20 20 30
20 20 30
20 20 30
20 20 30
20 20 30
20 20 30
20 20 30
100 200 255
100 200 255
100 200 255
100 200 255
100 200 255
100 200 255
100 200 255
20 20 30
20 20 30
20 20 30
20 20 30
20 20 30
20 20 30
20 20 30
20 20 30
20 20 30
20 20 30
20 20 30
20 20 30
20 20 30
20 20 30
20 20 30
20 20 30
20 20 30
20 20 30
20 20 30
20 20 30
20 20 30
20 20 30
20 20 30
20 20 30
20 20 30
20 20 30
20 20 30
20 20 30
20 20 30
20 20 30
20 20 30
20 20 30
20 20 30
20 20 30
20 20 30
20 20 30
20 20 30
20 20 30
20 20 30
20 20 30
20 20 30
20 20 30
20 20 30
20 20 30
20 20 30
20 20 30
20 20 30
20 20 30
20 20 30
20 20 30
20 20 30
20 20 30
20 20 30
20 20 30
20 20 30
20 20 30
20 20 30
20 20 30
20 20 30
20 20 30
20 20 30
20 20 30
20 20 30
20 20 30
20 20 30
20 20 30
20 20 30
20 20 30
20 20 30
20 20 30
20 20 30
20 20 30
20 20 30
20 20 30
20 20 30
20 20 30
20 20 30
20 20 30
20 20 30
20 20 30
20 20 30
20 20 30
20 20 30
20 20 30
20 20 30
20 20 30
20 20 30
20 20 30
20 20 30
20 20 30
20 20 30
20 20 30
20 20 30
20 20 30
20 20 30
20 20 30
20 20 30
20 20 30
20 20 30
20 20 30
20 20 30
20 20 30
20 20 30
20 20 30
20 20 30
20 20 30
20 20 30
20 20 30
20 20 30
20 20 30
20 20 30
20 20 30
20 20 30
20 20 30
20 20 30
20 20 30
20 20 30
20 20 30
20 20 30
20 20 30
20 20 30
20 20 30
20 20 30
20 20 30
20 20 30
20 20 30
20 20 30
20 20 30
20 20 30
20 20 30
20 20 30
20 20 30
20 20 30
20 20 30
20 20 30
20 20 30
20 20 30
20 20 30
20 20 30
20 20 30
20 20 30
20 20 30
20 20 30
20 20 30
20 20 30
20 20 30
20 20 30
20 20 30
20 20 30
20 20 30
20 20 30
20 20 30
20 20 30
20 20 30
100 200 255
100 200 255
100 200 255
100 200 255
100 200 255
20 20 30
20 20 30
20 20 30
20 20 30
20 20 30
20 20 30
20 20 30
20 20 30
20 20 30
20 20 30
20 20 30
20 20 30
20 20 30
20 20 30
20 20 30
20 20 30
20 20 30
20 20 30
20 20 30
20 20 30
20 20 30
20 20 30
20 20 30
20 20 30
20 20 30
20 20 30
20 20 30
20 20 30
20 20 30
20 20 30
20 20 30
20 20 30
20 20 30
20 20 30
20 20 30
20 20 30
20 20 30
20 20 30
20 20 30
20 20 30
20 20 30
20 20 30
20 20 30
20 20 30
20 20 30
20 20 30
20 20 30
20 20 30
20 20 30
20 20 30
20 20 30
20 20 30
20 20 30
20 20 30
20 20 30
20 20 30
20 20 30
20 20 30
20 20 30
20 20 30
20 20 30
20 20 30
20 20 30
20 20 30
20 20 30
20 20 30
20 20 30
20 20 30
20 20 30
20 20 30
20 20 30
20 20 30
20 20 30
20 20 30
20 20 30
20 20 30
20 20 30
20 20 30
20 20 30
20 20 30
20 20 30
20 20 30
20 20 30
20 20 30
20 20 30
20 20 30
20 20 30
20 20 30
20 20 30
20 20 30
20 20 30
20 20 30
20 20 30
20 20 30
20 20 30
20 20 30
20 20 30
20 20 30
20 20 30
20 20 30
20 20 30
20 20 30
20 20 30
20 20 30
20 20 30
20 20 30
20 20 30
20 20 30
20 20 30
20 20 30
20 20 30
20 20 30
20 20 30
20 20 30
20 20 30
20 20 30
20 20 30
20 20 30
20 20 30
20 20 30
20 20 30
20 20 30
20 20 30
20 20 30
20 20 30
20 20 30
20 20 30
20 20 30
20 20 30
20 20 30
20 20 30
20 20 30
20 20 30
20 20 30
20 20 30
20 20 30
20 20 30
20 20 30
20 20 30
20 20 30
20 20 30
20 20 30
20 20 30
20 20 30
20 20 30
20 20 30
20 20 30
20 20 30
20 20 30
20 20 30
20 20 30
20 20 30
20 20 30
20 20 30
100 200 255
100 200 255
100 200 255
100 200 255
100 200 255
100 200 255
100 200 255
20 20 30
20 20 30
20 20 30
20 20 30
20 20 30
20 20 30
20 20 30
20 20 30
20 20 30
20 20 30
20 20 30
20 20 30
20 20 30
20 20 30
20 20 30
20 20 30
20 20 30
20 20 30
20 20 30
20 20 30
20 20 30
20 20 30
20 20 30
20 20 30
20 20 30
20 20 30
20 20 30
20 20 30
20 20 30
20 20 30
20 20 30
20 20 30
20 20 30
20 20 30
20 20 30
20 20 30
20 20 30
20 20 30
20 20 30
20 20 30
20 20 30
20 20 30
20 20 30
20 20 30
20 20 30
20 20 30
20 20 30
20 20 30
20 20 30
20 20 30
20 20 30
20 20 30
20 20 30
20 20 30
20 20 30
20 20 30
20 20 30
20 20 30
20 20 30
20 20 30
20 20 30
20 20 30
20 20 30
20 20 30
20 20 30
20 20 30
20 20 30
20 20 30
20 20 30
20 20 30
20 20 30
20 20 30
20 20 30
20 20 30
20 20 30
20 20 30
20 20 30
20 20 30
20 20 30
20 20 30
20 20 30
20 20 30
20 20 30
20 20 30
20 20 30
20 20 30
20 20 30
20 20 30
20 20 30
20 20 30
20 20 30
20 20 30
20 20 30
20 20 30
20 20 30
20 20 30
20 20 30
20 20 30
20 20 30
20 20 30
20 20 30
20 20 30
20 20 30
20 20 30
20 20 30
20 20 30
20 20 30
20 20 30
20 20 30
20 20 30
20 20 30
20 20 30
20 20 30
20 20 30
20 20 30
20 20 30
20 20 30
20 20 30
20 20 30
20 20 30
20 20 30
20 20 30
20 20 30
20 20 30
20 20 30
20 20 30
20 20 30
20 20 30
20 20 30
20 20 30
20 20 30
20 20 30
20 20 30
20 20 30
20 20 30
20 20 30
20 20 30
20 20 30
20 20 30
20 20 30
20 20 30
20 20 30
20 20 30
20 20 30
20 20 30
20 20 30
20 20 30
20 20 30
20 20 30
20 20 30
20 20 30
20 20 30
100 200 255
100 200 255
100 200 255
100 200 255
100 200 255
100 200 255
100 200 255
100 200 255
100 200 255
20 20 30
20 20 30
20 20 30
20 20 30
20 20 30
20 20 30
20 20 30
20 20 30
20 20 30
20 20 30
20 20 30
20 20 30
20 20 30
20 20 30
20 20 30
20 20 30
20 20 30
20 20 30
20 20 30
20 20 30
20 20 30
20 20 30
20 20 30
20 20 30
20 20 30
20 20 30
20 20 30
20 20 30
20 20 30
20 20 30
20 20 30
20 20 30
20 20 30
20 20 30
20 20 30
20 20 30
20 20 30
20 20 30
20 20 30
20 20 30
20 20 30
20 20 30
20 20 30
20 20 30
20 20 30
20 20 30
20 20 30
20 20 30
20 20 30
20 20 30
20 20 30
20 20 30
20 20 30
20 20 30
20 20 30
20 20 30
20 20 30
20 20 30
20 20 30
20 20 30
20 20 30
20 20 30
20 20 30
20 20 30
20 20 30
20 20 30
20 20 30
20 20 30
20 20 30
20 20 30
20 20 30
20 20 30
20 20 30
20 20 30
20 20 30
20 20 30
20 20 30
20 20 30
20 20 30
20 20 30
20 20 30
20 20 30
20 20 30
20 20 30
20 20 30
20 20 30
20 20 30
20 20 30
20 20 30
20 20 30
20 20 30
20 20 30
20 20 30
20 20 30
20 20 30
20 20 30
20 20 30
20 20 30
20 20 30
20 20 30
20 20 30
20 20 30
20 20 30
20 20 30
20 20 30
20 20 30
20 20 30
20 20 30
20 20 30
20 20 30
20 20 30
20 20 30
20 20 30
20 20 30
20 20 30
20 20 30
20 20 30
20 20 30
20 20 30
20 20 30
20 20 30
20 20 30
20 20 30
20 20 30
20 20 30
20 20 30
20 20 30
20 20 30
20 20 30
20 20 30
20 20 30
20 20 30
20 20 30
20 20 30
20 20 30
20 20 30
20 20 30
20 20 30
20 20 30
20 20 30
20 20 30
20 20 30
20 20 30
20 20 30
20 20 30
20 20 30
20 20 30
20 20 30
20 20 30
20 20 30
100 200 255
100 200 255
100 200 255
100 200 255
100 200 255
20 20 30
100 200 255
100 200 255
100 200 255
100 200 255
100 200 255
20 20 30
20 20 30
20 20 30
20 20 30
20 20 30
20 20 30
20 20 30
20 20 30
20 20 30
20 20 30
20 20 30
20 20 30
20 20 30
20 20 30
20 20 30
20 20 30
20 20 30
20 20 30
20 20 30
20 20 30
20 20 30
20 20 30
20 20 30
20 20 30
20 20 30
20 20 30
20 20 30
20 20 30
20 20 30
20 20 30
20 20 30
20 20 30
20 20 30
20 20 30
20 20 30
20 20 30
20 20 30
20 20 30
20 20 30
20 20 30
20 20 30
20 20 30
20 20 30
20 20 30
20 20 30
20 20 30
20 20 30
20 20 30
20 20 30
20 20 30
20 20 30
20 20 30
20 20 30
20 20 30
20 20 30
20 20 30
20 20 30
20 20 30
20 20 30
20 20 30
20 20 30
20 20 30
20 20 30
20 20 30
20 20 30
20 20 30
20 20 30
20 20 30
20 20 30
20 20 30
20 20 30
20 20 30
20 20 30
20 20 30
20 20 30
20 20 30
20 20 30
20 20 30
20 20 30
20 20 30
20 20 30
20 20 30
20 20 30
20 20 30
20 20 30
20 20 30
20 20 30
20 20 30
20 20 30
20 20 30
20 20 30
20 20 30
20 20 30
20 20 30
20 20 30
20 20 30
20 20 30
20 20 30
20 20 30
20 20 30
20 20 30
20 20 30
20 20 30
20 20 30
20 20 30
20 20 30
20 20 30
20 20 30
20 20 30
20 20 30
20 20 30
20 20 30
20 20 30
20 20 30
20 20 30
20 20 30
20 20 30
20 20 30
20 20 30
20 20 30
20 20 30
20 20 30
20 20 30
20 20 30
20 20 30
20 20 30
20 20 30
20 20 30
20 20 30
20 20 30
20 20 30
20 20 30
20 20 30
20 20 30
20 20 30
20 20 30
20 20 30
20 20 30
20 20 30
20 20 30
20 20 30
20 20 30
20 20 30
20 20 30
20 20 30
20 20 30
20 20 30
20 20 30
100 200 255
100 200 255
100 200 255
100 200 255
100 200 255
20 20 30
20 20 30
20 20 30
100 200 255
100 200 255
100 200 255
100 200 255
100 200 255
20 20 30
20 20 30
20 20 30
20 20 30
20 20 30
20 20 30
20 20 30
20 20 30
20 20 30
20 20 30
20 20 30
20 20 30
20 20 30
20 20 30
20 20 30
20 20 30
20 20 30
20 20 30
20 20 30
20 20 30
20 20 30
20 20 30
20 20 30
20 20 30
20 20 30
20 20 30
20 20 30
20 20 30
20 20 30
20 20 30
20 20 30
20 20 30
20 20 30
20 20 30
20 20 30
20 20 30
20 20 30
20 20 30
20 20 30
20 20 30
20 20 30
20 20 30
20 20 30
20 20 30
20 20 30
20 20 30
20 20 30
20 20 30
20 20 30
20 20 30
20 20 30
20 20 30
20 20 30
20 20 30
20 20 30
20 20 30
20 20 30
20 20 30
20 20 30
20 20 30
20 20 30
20 20 30
20 20 30
20 20 30
20 20 30
20 20 30
20 20 30
20 20 30
20 20 30
20 20 30
20 20 30
20 20 30
20 20 30
20 20 30
20 20 30
20 20 30
20 20 30
20 20 30
20 20 30
20 20 30
20 20 30
20 20 30
20 20 30
20 20 30
20 20 30
20 20 30
20 20 30
20 20 30
20 20 30
20 20 30
20 20 30
20 20 30
20 20 30
20 20 30
20 20 30
20 20 30
20 20 30
20 20 30
20 20 30
20 20 30
20 20 30
20 20 30
20 20 30
20 20 30
20 20 30
20 20 30
20 20 30
20 20 30
20 20 30
20 20 30
20 20 30
20 20 30
20 20 30
20 20 30
20 20 30
20 20 30
20 20 30
20 20 30
20 20 30
20 20 30
20 20 30
20 20 30
20 20 30
20 20 30
20 20 30
20 20 30
20 20 30
20 20 30
20 20 30
20 20 30
20 20 30
20 20 30
20 20 30
20 20 30
20 20 30
20 20 30
20 20 30
20 20 30
20 20 30
20 20 30
20 20 30
20 20 30
20 20 30
20 20 30
20 20 30
20 20 30
100 200 255
100 200 255
100 200 255
100 200 255
100 200 255
20 20 30
20 20 30
20 20 30
20 20 30
20 20 30
100 200 255
100 200 255
100 200 255
100 200 255
100 200 255
20 20 30
20 20 30
20 20 30
20 20 30
20 20 30
20 20 30
20 20 30
20 20 30
20 20 30
20 20 30
20 20 30
20 20 30
20 20 30
20 20 30
20 20 30
20 20 30
20 20 30
20 20 30
20 20 30
20 20 30
20 20 30
20 20 30
20 20 30
20 20 30
20 20 30
20 20 30
20 20 30
20 20 30
20 20 30
20 20 30
20 20 30
20 20 30
20 20 30
20 20 30
20 20 30
20 20 30
20 20 30
20 20 30
20 20 30
20 20 30
20 20 30
20 20 30
20 20 30
20 20 30
20 20 30
20 20 30
20 20 30
20 20 30
20 20 30
20 20 30
20 20 30
20 20 30
20 20 30
20 20 30
20 20 30
20 20 30
20 20 30
20 20 30
20 20 30
20 20 30
20 20 30
20 20 30
20 20 30
20 20 30
20 20 30
20 20 30
20 20 30
20 20 30
20 20 30
20 20 30
20 20 30
20 20 30
20 20 30
20 20 30
20 20 30
20 20 30
20 20 30
20 20 30
20 20 30
20 20 30
20 20 30
20 20 30
20 20 30
20 20 30
20 20 30
20 20 30
20 20 30
20 20 30
20 20 30
20 20 30
20 20 30
20 20 30
20 20 30
20 20 30
20 20 30
20 20 30
20 20 30
20 20 30
20 20 30
20 20 30
20 20 30
20 20 30
20 20 30
20 20 30
20 20 30
20 20 30
20 20 30
20 20 30
20 20 30
20 20 30
20 20 30
20 20 30
20 20 30
20 20 30
20 20 30
20 20 30
20 20 30
20 20 30
20 20 30
20 20 30
20 20 30
20 20 30
20 20 30
20 20 30
20 20 30
20 20 30
20 20 30
20 20 30
20 20 30
20 20 30
20 20 30
20 20 30
20 20 30
20 20 30
20 20 30
20 20 30
20 20 30
20 20 30
20 20 30
20 20 30
20 20 30
20 20 30
20 20 30
20 20 30
100 200 255
100 200 255
100 200 255
100 200 255
100 200 255
20 20 30
20 20 30
20 20 30
20 20 30
20 20 30
20 20 30
20 20 30
100 200 255
100 200 255
100 200 255
100 200 255
100 200 255
20 20 30
20 20 30
20 20 30
20 20 30
20 20 30
20 20 30
20 20 30
20 20 30
20 20 30
20 20 30
20 20 30
20 20 30
20 20 30
20 20 30
20 20 30
20 20 30
20 20 30
20 20 30
20 20 30
20 20 30
20 20 30
20 20 30
20 20 30
20 20 30
20 20 30
20 20 30
20 20 30
20 20 30
20 20 30
20 20 30
20 20 30
20 20 30
20 20 30
20 20 30
20 20 30
20 20 30
20 20 30
20 20 30
20 20 30
20 20 30
20 20 30
20 20 30
20 20 30
20 20 30
20 20 30
20 20 30
20 20 30
20 20 30
20 20 30
20 20 30
20 20 30
20 20 30
20 20 30
20 20 30
20 20 30
20 20 30
20 20 30
20 20 30
20 20 30
20 20 30
20 20 30
20 20 30
20 20 30
20 20 30
20 20 30
20 20 30
20 20 30
20 20 30
20 20 30
20 20 30
20 20 30
20 20 30
20 20 30
20 20 30
20 20 30
20 20 30
20 20 30
20 20 30
20 20 30
20 20 30
20 20 30
20 20 30
20 20 30
20 20 30
20 20 30
20 20 30
20 20 30
20 20 30
20 20 30
20 20 30
20 20 30
20 20 30
20 20 30
20 20 30
20 20 30
20 20 30
20 20 30
20 20 30
20 20 30
20 20 30
20 20 30
20 20 30
20 20 30
20 20 30
20 20 30
20 20 30
20 20 30
20 20 30
20 20 30
20 20 30
20 20 30
20 20 30
20 20 30
20 20 30
20 20 30
20 20 30
20 20 30
20 20 30
20 20 30
20 20 30
20 20 30
20 20 30
20 20 30
20 20 30
20 20 30
20 20 30
20 20 30
20 20 30
20 20 30
20 20 30
20 20 30
20 20 30
20 20 30
20 20 30
20 20 30
20 20 30
20 20 30
20 20 30
20 20 30
20 20 30
20 20 30
20 20 30
100 200 255
100 200 255
100 200 255
100 200 255
100 200 255
20 20 30
20 20 30
20 20 30
20 20 30
20 20 30
20 20 30
20 20 30
20 20 30
20 20 30
100 200 255
100 200 255
100 200 255
100 200 255
100 200 255
20 20 30
20 20 30
20 20 30
20 20 30
20 20 30
20 20 30
20 20 30
20 20 30
20 20 30
20 20 30
20 20 30
20 20 30
20 20 30
20 20 30
20 20 30
20 20 30
20 20 30
20 20 30
20 20 30
20 20 30
20 20 30
20 20 30
20 20 30
20 20 30
20 20 30
20 20 30
20 20 30
20 20 30
20 20 30
20 20 30
20 20 30
20 20 30
20 20 30
20 20 30
20 20 30
20 20 30
20 20 30
20 20 30
20 20 30
20 20 30
20 20 30
20 20 30
20 20 30
20 20 30
20 20 30
20 20 30
20 20 30
20 20 30
20 20 30
20 20 30
20 20 30
20 20 30
20 20 30
20 20 30
20 20 30
20 20 30
20 20 30
20 20 30
20 20 30
20 20 30
20 20 30
20 20 30
20 20 30
20 20 30
20 20 30
20 20 30
20 20 30
20 20 30
20 20 30
20 20 30
20 20 30
20 20 30
20 20 30
20 20 30
20 20 30
20 20 30
20 20 30
20 20 30
20 20 30
20 20 30
20 20 30
20 20 30
20 20 30
20 20 30
20 20 30
20 20 30
20 20 30
20 20 30
20 20 30
20 20 30
20 20 30
20 20 30
20 20 30
20 20 30
20 20 30
20 20 30
20 20 30
20 20 30
20 20 30
20 20 30
20 20 30
20 20 30
20 20 30
20 20 30
20 20 30
20 20 30
20 20 30
20 20 30
20 20 30
20 20 30
20 20 30
20 20 30
20 20 30
20 20 30
20 20 30
20 20 30
20 20 30
20 20 30
20 20 30
20 20 30
20 20 30
20 20 30
20 20 30
20 20 30
20 20 30
20 20 30
20 20 30
20 20 30
20 20 30
20 20 30
20 20 30
20 20 30
20 20 30
20 20 30
20 20 30
20 20 30
20 20 30
20 20 30
20 20 30
20 20 30
100 200 255
100 200 255
100 200 255
100 200 255
100 200 255
20 20 30
20 20 30
20 20 30
20 20 30
20 20 30
20 20 30
20 20 30
20 20 30
20 20 30
20 20 30
20 20 30
100 200 255
100 200 255
100 200 255
100 200 255
100 200 255
20 20 30
20 20 30
20 20 30
20 20 30
20 20 30
20 20 30
20 20 30
20 20 30
20 20 30
20 20 30
20 20 30
20 20 30
20 20 30
20 20 30
20 20 30
20 20 30
20 20 30
20 20 30
20 20 30
20 20 30
20 20 30
20 20 30
20 20 30
20 20 30
20 20 30
20 20 30
20 20 30
20 20 30
20 20 30
20 20 30
20 20 30
20 20 30
20 20 30
20 20 30
20 20 30
20 20 30
20 20 30
20 20 30
20 20 30
20 20 30
20 20 30
20 20 30
20 20 30
20 20 30
20 20 30
20 20 30
20 20 30
20 20 30
20 20 30
20 20 30
20 20 30
20 20 30
20 20 30
20 20 30
20 20 30
20 20 30
20 20 30
20 20 30
20 20 30
20 20 30
20 20 30
20 20 30
20 20 30
20 20 30
20 20 30
20 20 30
20 20 30
20 20 30
20 20 30
20 20 30
20 20 30
20 20 30
20 20 30
20 20 30
20 20 30
20 20 30
20 20 30
20 20 30
20 20 30
20 20 30
20 20 30
20 20 30
20 20 30
20 20 30
20 20 30
20 20 30
20 20 30
20 20 30
20 20 30
20 20 30
20 20 30
20 20 30
20 20 30
20 20 30
20 20 30
20 20 30
20 20 30
20 20 30
20 20 30
20 20 30
20 20 30
20 20 30
20 20 30
20 20 30
20 20 30
20 20 30
20 20 30
20 20 30
20 20 30
20 20 30
20 20 30
20 20 30
20 20 30
20 20 30
20 20 30
20 20 30
20 20 30
20 20 30
20 20 30
20 20 30
20 20 30
20 20 30
20 20 30
20 20 30
20 20 30
20 20 30
20 20 30
20 20 30
20 20 30
20 20 30
20 20 30
20 20 30
20 20 30
20 20 30
20 20 30
20 20 30
20 20 30
20 20 30
100 200 255
100 200 255
100 200 255
100 200 255
100 200 255
20 20 30
20 20 30
20 20 30
20 20 30
20 20 30
20 20 30
20 20 30
20 20 30
20 20 30
20 20 30
20 20 30
20 20 30
20 20 30
100 200 255
100 200 255
100 200 255
100 200 255
100 200 255
20 20 30
20 20 30
20 20 30
20 20 30
20 20 30
20 20 30
20 20 30
20 20 30
20 20 30
20 20 30
20 20 30
20 20 30
20 20 30
20 20 30
20 20 30
20 20 30
20 20 30
20 20 30
20 20 30
20 20 30
20 20 30
20 20 30
20 20 30
20 20 30
20 20 30
20 20 30
20 20 30
20 20 30
20 20 30
20 20 30
20 20 30
20 20 30
20 20 30
20 20 30
20 20 30
20 20 30
20 20 30
20 20 30
20 20 30
20 20 30
20 20 30
20 20 30
20 20 30
20 20 30
20 20 30
20 20 30
20 20 30
20 20 30
20 20 30
20 20 30
20 20 30
20 20 30
20 20 30
20 20 30
20 20 30
20 20 30
20 20 30
20 20 30
20 20 30
20 20 30
20 20 30
20 20 30
20 20 30
20 20 30
20 20 30
20 20 30
20 20 30
20 20 30
20 20 30
20 20 30
20 20 30
20 20 30
20 20 30
20 20 30
20 20 30
20 20 30
20 20 30
20 20 30
20 20 30
20 20 30
20 20 30
20 20 30
20 20 30
20 20 30
20 20 30
20 20 30
20 20 30
20 20 30
20 20 30
20 20 30
20 20 30
20 20 30
20 20 30
20 20 30
20 20 30
20 20 30
20 20 30
20 20 30
20 20 30
20 20 30
20 20 30
20 20 30
20 20 30
20 20 30
20 20 30
20 20 30
20 20 30
20 20 30
20 20 30
20 20 30
20 20 30
20 20 30
20 20 30
20 20 30
20 20 30
20 20 30
20 20 30
20 20 30
20 20 30
20 20 30
20 20 30
20 20 30
20 20 30
20 20 30
20 20 30
20 20 30
20 20 30
20 20 30
20 20 30
20 20 30
20 20 30
20 20 30
20 20 30
20 20 30
20 20 30
20 20 30
100 200 255
100 200 255
100 200 255
100 200 255
100 200 255
20 20 30
20 20 30
20 20 30
20 20 30
20 20 30
20 20 30
20 20 30
20 20 30
20 20 30
20 20 30
20 20 30
20 20 30
20 20 30
20 20 30
20 20 30
100 200 255
100 200 255
100 200 255
100 200 255
100 200 255
20 20 30
20 20 30
20 20 30
20 20 30
20 20 30
20 20 30
20 20 30
20 20 30
20 20 30
20 20 30
20 20 30
20 20 30
20 20 30
20 20 30
20 20 30
20 20 30
20 20 30
20 20 30
20 20 30
20 20 30
20 20 30
20 20 30
20 20 30
20 20 30
20 20 30
20 20 30
20 20 30
20 20 30
20 20 30
20 20 30
20 20 30
20 20 30
20 20 30
20 20 30
20 20 30
20 20 30
20 20 30
20 20 30
20 20 30
20 20 30
20 20 30
20 20 30
20 20 30
20 20 30
20 20 30
20 20 30
20 20 30
20 20 30
20 20 30
20 20 30
20 20 30
20 20 30
20 20 30
20 20 30
20 20 30
20 20 30
20 20 30
20 20 30
20 20 30
20 20 30
20 20 30
20 20 30
20 20 30
20 20 30
20 20 30
20 20 30
20 20 30
20 20 30
20 20 30
20 20 30
20 20 30
20 20 30
20 20 30
20 20 30
20 20 30
20 20 30
20 20 30
20 20 30
20 20 30
20 20 30
20 20 30
20 20 30
20 20 30
20 20 30
20 20 30
20 20 30
20 20 30
20 20 30
20 20 30
20 20 30
20 20 30
20 20 30
20 20 30
20 20 30
20 20 30
20 20 30
20 20 30
20 20 30
20 20 30
20 20 30
20 20 30
20 20 30
20 20 30
20 20 30
20 20 30
20 20 30
20 20 30
20 20 30
20 20 30
20 20 30
20 20 30
20 20 30
20 20 30
20 20 30
20 20 30
20 20 30
20 20 30
20 20 30
20 20 30
20 20 30
20 20 30
20 20 30
20 20 30
20 20 30
20 20 30
20 20 30
20 20 30
20 20 30
20 20 30
20 20 30
20 20 30
20 20 30
20 20 30
20 20 30
100 200 255
100 200 255
100 200 255
100 200 255
100 200 255
20 20 30
20 20 30
20 20 30
20 20 30
20 20 30
20 20 30
20 20 30
20 20 30
20 20 30
20 20 30
20 20 30
20 20 30
20 20 30
20 20 30
20 20 30
20 20 30
20 20 30
100 200 255
100 200 255
100 200 255
100 200 255
100 200 255
20 20 30
20 20 30
20 20 30
20 20 30
20 20 30
20 20 30
20 20 30
20 20 30
20 20 30
20 20 30
20 20 30
20 20 30
20 20 30
20 20 30
20 20 30
20 20 30
20 20 30
20 20 30
20 20 30
20 20 30
20 20 30
20 20 30
20 20 30
20 20 30
20 20 30
20 20 30
20 20 30
20 20 30
20 20 30
20 20 30
20 20 30
20 20 30
20 20 30
20 20 30
20 20 30
20 20 30
20 20 30
20 20 30
20 20 30
20 20 30
20 20 30
20 20 30
20 20 30
20 20 30
20 20 30
20 20 30
20 20 30
20 20 30
20 20 30
20 20 30
20 20 30
20 20 30
20 20 30
20 20 30
20 20 30
20 20 30
20 20 30
20 20 30
20 20 30
20 20 30
20 20 30
20 20 30
20 20 30
20 20 30
20 20 30
20 20 30
20 20 30
20 20 30
20 20 30
20 20 30
20 20 30
20 20 30
20 20 30
20 20 30
20 20 30
20 20 30
20 20 30
20 20 30
20 20 30
20 20 30
20 20 30
20 20 30
20 20 30
20 20 30
20 20 30
20 20 30
20 20 30
20 20 30
20 20 30
20 20 30
20 20 30
20 20 30
20 20 30
20 20 30
20 20 30
20 20 30
20 20 30
20 20 30
20 20 30
20 20 30
20 20 30
20 20 30
20 20 30
20 20 30
20 20 30
20 20 30
20 20 30
20 20 30
20 20 30
20 20 30
20 20 30
20 20 30
20 20 30
20 20 30
20 20 30
20 20 30
20 20 30
20 20 30
20 20 30
20 20 30
20 20 30
20 20 30
20 20 30
20 20 30
20 20 30
20 20 30
20 20 30
20 20 30
20 20 30
20 20 30
20 20 30
20 20 30
100 200 255
100 200 255
100 200 255
100 200 255
100 200 255
20 20 30
20 20 30
20 20 30
20 20 30
20 20 30
20 20 30
20 20 30
20 20 30
20 20 30
20 20 30
20 20 30
20 20 30
20 20 30
20 20 30
20 20 30
20 20 30
20 20 30
20 20 30
20 20 30
100 200 255
100 200 255
100 200 255
100 200 255
100 200 255
20 20 30
20 20 30
20 20 30
20 20 30
20 20 30
20 20 30
20 20 30
20 20 30
20 20 30
20 20 30
20 20 30
20 20 30
20 20 30
20 20 30
20 20 30
20 20 30
20 20 30
20 20 30
20 20 30
20 20 30
20 20 30
20 20 30
20 20 30
20 20 30
20 20 30
20 20 30
20 20 30
20 20 30
20 20 30
20 20 30
20 20 30
20 20 30
20 20 30
20 20 30
20 20 30
20 20 30
20 20 30
20 20 30
20 20 30
20 20 30
20 20 30
20 20 30
20 20 30
20 20 30
20 20 30
20 20 30
20 20 30
20 20 30
20 20 30
20 20 30
20 20 30
20 20 30
20 20 30
20 20 30
20 20 30
20 20 30
20 20 30
20 20 30
20 20 30
20 20 30
20 20 30
20 20 30
20 20 30
20 20 30
20 20 30
20 20 30
20 20 30
20 20 30
20 20 30
20 20 30
20 20 30
20 20 30
20 20 30
20 20 30
20 20 30
20 20 30
20 20 30
20 20 30
20 20 30
20 20 30
20 20 30
20 20 30
20 20 30
20 20 30
20 20 30
20 20 30
20 20 30
20 20 30
20 20 30
20 20 30
20 20 30
20 20 30
20 20 30
20 20 30
20 20 30
20 20 30
20 20 30
20 20 30
20 20 30
20 20 30
20 20 30
20 20 30
20 20 30
20 20 30
20 20 30
20 20 30
20 20 30
20 20 30
20 20 30
20 20 30
20 20 30
20 20 30
20 20 30
20 20 30
20 20 30
20 20 30
20 20 30
20 20 30
20 20 30
20 20 30
20 20 30
20 20 30
20 20 30
20 20 30
20 20 30
20 20 30
20 20 30
20 20 30
20 20 30
20 20 30
100 200 255
100 200 255
100 200 255
100 200 255
100 200 255
20 20 30
20 20 30
20 20 30
20 20 30
20 20 30
20 20 30
20 20 30
20 20 30
20 20 30
20 20 30
20 20 30
20 20 30
20 20 30
20 20 30
20 20 30
20 20 30
20 20 30
20 20 30
20 20 30
20 20 30
20 20 30
100 200 255
100 200 255
100 200 255
100 200 255
100 200 255
20 20 30
20 20 30
20 20 30
20 20 30
20 20 30
20 20 30
20 20 30
20 20 30
20 20 30
20 20 30
20 20 30
20 20 30
20 20 30
20 20 30
20 20 30
20 20 30
20 20 30
20 20 30
20 20 30
20 20 30
20 20 30
20 20 30
20 20 30
20 20 30
20 20 30
20 20 30
20 20 30
20 20 30
20 20 30
20 20 30
20 20 30
20 20 30
20 20 30
20 20 30
20 20 30
20 20 30
20 20 30
20 20 30
20 20 30
20 20 30
20 20 30
20 20 30
20 20 30
20 20 30
20 20 30
20 20 30
20 20 30
20 20 30
20 20 30
20 20 30
20 20 30
20 20 30
20 20 30
20 20 30
20 20 30
20 20 30
20 20 30
20 20 30
20 20 30
20 20 30
20 20 30
20 20 30
20 20 30
20 20 30
20 20 30
20 20 30
20 20 30
20 20 30
20 20 30
20 20 30
20 20 30
20 20 30
20 20 30
20 20 30
20 20 30
20 20 30
20 20 30
20 20 30
20 20 30
20 20 30
20 20 30
20 20 30
20 20 30
20 20 30
20 20 30
20 20 30
20 20 30
20 20 30
20 20 30
20 20 30
20 20 30
20 20 30
20 20 30
20 20 30
20 20 30
20 20 30
20 20 30
20 20 30
20 20 30
20 20 30
20 20 30
20 20 30
20 20 30
20 20 30
20 20 30
20 20 30
20 20 30
20 20 30
20 20 30
20 20 30
20 20 30
20 20 30
20 20 30
20 20 30
20 20 30
20 20 30
20 20 30
20 20 30
20 20 30
20 20 30
20 20 30
20 20 30
20 20 30
20 20 30
20 20 30
20 20 30
20 20 30
20 20 30
100 200 255
100 200 255
100 200 255
100 200 255
100 200 255
20 20 30
20 20 30
20 20 30
20 20 30
20 20 30
20 20 30
20 20 30
20 20 30
20 20 30
20 20 30
20 20 30
20 20 30
20 20 30
20 20 30
20 20 30
20 20 30
20 20 30
20 20 30
20 20 30
20 20 30
20 20 30
20 20 30
20 20 30
100 200 255
100 200 255
100 200 255
100 200 255
100 200 255
20 20 30
20 20 30
20 20 30
20 20 30
20 20 30
20 20 30
20 20 30
20 20 30
20 20 30
20 20 30
20 20 30
20 20 30
20 20 30
20 20 30
20 20 30
20 20 30
20 20 30
20 20 30
20 20 30
20 20 30
20 20 30
20 20 30
20 20 30
20 20 30
20 20 30
20 20 30
20 20 30
20 20 30
20 20 30
20 20 30
20 20 30
20 20 30
20 20 30
20 20 30
20 20 30
20 20 30
20 20 30
20 20 30
20 20 30
20 20 30
20 20 30
20 20 30
20 20 30
20 20 30
20 20 30
20 20 30
20 20 30
20 20 30
20 20 30
20 20 30
20 20 30
20 20 30
20 20 30
20 20 30
20 20 30
20 20 30
20 20 30
20 20 30
20 20 30
20 20 30
20 20 30
20 20 30
20 20 30
20 20 30
20 20 30
20 20 30
20 20 30
20 20 30
20 20 30
20 20 30
20 20 30
20 20 30
20 20 30
20 20 30
20 20 30
20 20 30
20 20 30
20 20 30
20 20 30
20 20 30
20 20 30
20 20 30
20 20 30
20 20 30
20 20 30
20 20 30
20 20 30
20 20 30
20 20 30
20 20 30
20 20 30
20 20 30
20 20 30
20 20 30
20 20 30
20 20 30
20 20 30
20 20 30
20 20 30
20 20 30
20 20 30
20 20 30
20 20 30
20 20 30
20 20 30
20 20 30
20 20 30
20 20 30
20 20 30
20 20 30
20 20 30
20 20 30
20 20 30
20 20 30
20 20 30
20 20 30
20 20 30
20 20 30
20 20 30
20 20 30
20 20 30
20 20 30
20 20 30
20 20 30
20 20 30
20 20 30
100 200 255
100 200 255
100 200 255
100 200 255
100 200 255
20 20 30
20 20 30
20 20 30
20 20 30
20 20 30
20 20 30
20 20 30
20 20 30
20 20 30
20 20 30
20 20 30
20 20 30
20 20 30
20 20 30
20 20 30
20 20 30
20 20 30
20 20 30
20 20 30
20 20 30
20 20 30
20 20 30
20 20 30
20 20 30
20 20 30
100 200 255
100 200 255
100 200 255
100 200 255
100 200 255
20 20 30
20 20 30
20 20 30
20 20 30
20 20 30
20 20 30
20 20 30
20 20 30
20 20 30
20 20 30
20 20 30
20 20 30
20 20 30
20 20 30
20 20 30
20 20 30
20 20 30
20 20 30
20 20 30
20 20 30
20 20 30
20 20 30
20 20 30
20 20 30
20 20 30
20 20 30
20 20 30
20 20 30
20 20 30
20 20 30
20 20 30
20 20 30
20 20 30
20 20 30
20 20 30
20 20 30
20 20 30
20 20 30
20 20 30
20 20 30
20 20 30
20 20 30
20 20 30
20 20 30
20 20 30
20 20 30
20 20 30
20 20 30
20 20 30
20 20 30
20 20 30
20 20 30
20 20 30
20 20 30
20 20 30
20 20 30
20 20 30
20 20 30
20 20 30
20 20 30
20 20 30
20 20 30
20 20 30
20 20 30
20 20 30
20 20 30
20 20 30
20 20 30
20 20 30
20 20 30
20 20 30
20 20 30
20 20 30
20 20 30
20 20 30
20 20 30
20 20 30
20 20 30
20 20 30
20 20 30
20 20 30
20 20 30
20 20 30
20 20 30
20 20 30
20 20 30
20 20 30
20 20 30
20 20 30
20 20 30
20 20 30
20 20 30
20 20 30
20 20 30
20 20 30
20 20 30
20 20 30
20 20 30
20 20 30
20 20 30
20 20 30
20 20 30
20 20 30
20 20 30
20 20 30
20 20 30
20 20 30
20 20 30
20 20 30
20 20 30
20 20 30
20 20 30
20 20 30
20 20 30
20 20 30
20 20 30
20 20 30
20 20 30
20 20 30
20 20 30
20 20 30
20 20 30
20 20 30
20 20 30
100 200 255
100 200 255
100 200 255
100 200 255
100 200 255
20 20 30
20 20 30
20 20 30
20 20 30
20 20 30
20 20 30
20 20 30
20 20 30
20 20 30
20 20 30
20 20 30
20 20 30
20 20 30
20 20 30
20 20 30
20 20 30
20 20 30
20 20 30
20 20 30
20 20 30
20 20 30
20 20 30
20 20 30
20 20 30
20 20 30
20 20 30
20 20 30
100 200 255
100 200 255
100 200 255
100 200 255
100 200 255
20 20 30
20 20 30
20 20 30
20 20 30
20 20 30
20 20 30
20 20 30
20 20 30
20 20 30
20 20 30
20 20 30
20 20 30
20 20 30
20 20 30
20 20 30
20 20 30
20 20 30
20 20 30
20 20 30
20 20 30
20 20 30
20 20 30
20 20 30
20 20 30
20 20 30
20 20 30
20 20 30
20 20 30
20 20 30
20 20 30
20 20 30
20 20 30
20 20 30
20 20 30
20 20 30
20 20 30
20 20 30
20 20 30
20 20 30
20 20 30
20 20 30
20 20 30
20 20 30
20 20 30
20 20 30
20 20 30
20 20 30
20 20 30
20 20 30
20 20 30
20 20 30
20 20 30
20 20 30
20 20 30
20 20 30
20 20 30
20 20 30
20 20 30
20 20 30
20 20 30
20 20 30
20 20 30
20 20 30
20 20 30
20 20 30
20 20 30
20 20 30
20 20 30
20 20 30
20 20 30
20 20 30
20 20 30
20 20 30
20 20 30
20 20 30
20 20 30
20 20 30
20 20 30
20 20 30
20 20 30
20 20 30
20 20 30
20 20 30
20 20 30
20 20 30
20 20 30
20 20 30
20 20 30
20 20 30
20 20 30
20 20 30
20 20 30
20 20 30
20 20 30
20 20 30
20 20 30
20 20 30
20 20 30
20 20 30
20 20 30
20 20 30
20 20 30
20 20 30
20 20 30
20 20 30
20 20 30
20 20 30
20 20 30
20 20 30
20 20 30
20 20 30
20 20 30
20 20 30
20 20 30
20 20 30
20 20 30
20 20 30
20 20 30
20 20 30
20 20 30
20 20 30
20 20 30
100 200 255
100 200 255
100 200 255
100 200 255
100 200 255
20 20 30
20 20 30
20 20 30
20 20 30
20 20 30
20 20 30
20 20 30
20 20 30
20 20 30
20 20 30
20 20 30
20 20 30
20 20 30
20 20 30
20 20 30
20 20 30
20 20 30
20 20 30
20 20 30
20 20 30
20 20 30
20 20 30
20 20 30
20 20 30
20 20 30
20 20 30
20 20 30
20 20 30
20 20 30
100 200 255
100 200 255
100 200 255
100 200 255
100 200 255
20 20 30
20 20 30
20 20 30
20 20 30
20 20 30
20 20 30
20 20 30
20 20 30
20 20 30
20 20 30
20 20 30
20 20 30
20 20 30
20 20 30
20 20 30
20 20 30
20 20 30
20 20 30
20 20 30
20 20 30
20 20 30
20 20 30
20 20 30
20 20 30
20 20 30
20 20 30
20 20 30
20 20 30
20 20 30
20 20 30
20 20 30
20 20 30
20 20 30
20 20 30
20 20 30
20 20 30
20 20 30
20 20 30
20 20 30
20 20 30
20 20 30
20 20 30
20 20 30
20 20 30
20 20 30
20 20 30
20 20 30
20 20 30
20 20 30
20 20 30
20 20 30
20 20 30
20 20 30
20 20 30
20 20 30
20 20 30
20 20 30
20 20 30
20 20 30
20 20 30
20 20 30
20 20 30
20 20 30
20 20 30
20 20 30
20 20 30
20 20 30
20 20 30
20 20 30
20 20 30
20 20 30
20 20 30
20 20 30
20 20 30
20 20 30
20 20 30
20 20 30
20 20 30
20 20 30
20 20 30
20 20 30
20 20 30
20 20 30
20 20 30
20 20 30
20 20 30
20 20 30
20 20 30
20 20 30
20 20 30
20 20 30
20 20 30
20 20 30
20 20 30
20 20 30
20 20 30
20 20 30
20 20 30
20 20 30
20 20 30
20 20 30
20 20 30
20 20 30
20 20 30
20 20 30
20 20 30
20 20 30
20 20 30
20 20 30
20 20 30
20 20 30
20 20 30
20 20 30
20 20 30
20 20 30
20 20 30
20 20 30
20 20 30
20 20 30
20 20 30
100 200 255
100 200 255
100 200 255
100 200 255
100 200 255
20 20 30
20 20 30
20 20 30
20 20 30
20 20 30
20 20 30
20 20 30
20 20 30
20 20 30
20 20 30
20 20 30
20 20 30
20 20 30
20 20 30
20 20 30
20 20 30
20 20 30
20 20 30
20 20 30
20 20 30
20 20 30
20 20 30
20 20 30
20 20 30
20 20 30
20 20 30
20 20 30
20 20 30
20 20 30
20 20 30
20 20 30
100 200 255
100 200 255
100 200 255
100 200 255
100 200 255
20 20 30
20 20 30
20 20 30
20 20 30
20 20 30
20 20 30
20 20 30
20 20 30
20 20 30
20 20 30
20 20 30
20 20 30
20 20 30
20 20 30
20 20 30
20 20 30
20 20 30
20 20 30
20 20 30
20 20 30
20 20 30
20 20 30
20 20 30
20 20 30
20 20 30
20 20 30
20 20 30
20 20 30
20 20 30
20 20 30
20 20 30
20 20 30
20 20 30
20 20 30
20 20 30
20 20 30
20 20 30
20 20 30
20 20 30
20 20 30
20 20 30
20 20 30
20 20 30
20 20 30
20 20 30
20 20 30
20 20 30
20 20 30
20 20 30
20 20 30
20 20 30
20 20 30
20 20 30
20 20 30
20 20 30
20 20 30
20 20 30
20 20 30
20 20 30
20 20 30
20 20 30
20 20 30
20 20 30
20 20 30
20 20 30
20 20 30
20 20 30
20 20 30
20 20 30
20 20 30
20 20 30
20 20 30
20 20 30
20 20 30
20 20 30
20 20 30
20 20 30
20 20 30
20 20 30
20 20 30
20 20 30
20 20 30
20 20 30
20 20 30
20 20 30
20 20 30
20 20 30
20 20 30
20 20 30
20 20 30
20 20 30
20 20 30
20 20 30
20 20 30
20 20 30
20 20 30
20 20 30
20 20 30
20 20 30
20 20 30
20 20 30
20 20 30
20 20 30
20 20 30
20 20 30
20 20 30
20 20 30
20 20 30
20 20 30
20 20 30
20 20 30
20 20 30
20 20 30
20 20 30
20 20 30
20 20 30
20 20 30
20 20 30
100 200 255
100 200 255
100 200 255
100 200 255
100 200 255
20 20 30
20 20 30
20 20 30
20 20 30
20 20 30
20 20 30
20 20 30
20 20 30
20 20 30
20 20 30
20 20 30
20 20 30
20 20 30
20 20 30
20 20 30
20 20 30
20 20 30
20 20 30
20 20 30
20 20 30
20 20 30
20 20 30
20 20 30
20 20 30
20 20 30
20 20 30
20 20 30
20 20 30
20 20 30
20 20 30
20 20 30
20 20 30
20 20 30
100 200 255
100 200 255
100 200 255
100 200 255
100 200 255
20 20 30
20 20 30
20 20 30
20 20 30
20 20 30
20 20 30
20 20 30
20 20 30
20 20 30
20 20 30
20 20 30
20 20 30
20 20 30
20 20 30
20 20 30
20 20 30
20 20 30
20 20 30
20 20 30
20 20 30
20 20 30
20 20 30
20 20 30
20 20 30
20 20 30
20 20 30
20 20 30
20 20 30
20 20 30
20 20 30
20 20 30
20 20 30
20 20 30
20 20 30
20 20 30
20 20 30
20 20 30
20 20 30
20 20 30
20 20 30
20 20 30
20 20 30
20 20 30
20 20 30
20 20 30
20 20 30
20 20 30
20 20 30
20 20 30
20 20 30
20 20 30
20 20 30
20 20 30
20 20 30
20 20 30
20 20 30
20 20 30
20 20 30
20 20 30
20 20 30
20 20 30
20 20 30
20 20 30
20 20 30
20 20 30
20 20 30
20 20 30
20 20 30
20 20 30
20 20 30
20 20 30
20 20 30
20 20 30
20 20 30
20 20 30
20 20 30
20 20 30
20 20 30
20 20 30
20 20 30
20 20 30
20 20 30
20 20 30
20 20 30
20 20 30
20 20 30
20 20 30
20 20 30
20 20 30
20 20 30
20 20 30
20 20 30
20 20 30
20 20 30
20 20 30
20 20 30
20 20 30
20 20 30
20 20 30
20 20 30
20 20 30
20 20 30
20 20 30
20 20 30
20 20 30
20 20 30
20 20 30
20 20 30
20 20 30
20 20 30
20 20 30
20 20 30
20 20 30
20 20 30
20 20 30
20 20 30
100 200 255
100 200 255
100 200 255
100 200 255
100 200 255
20 20 30
20 20 30
20 20 30
20 20 30
20 20 30
20 20 30
20 20 30
20 20 30
20 20 30
20 20 30
20 20 30
20 20 30
20 20 30
20 20 30
20 20 30
20 20 30
20 20 30
20 20 30
20 20 30
20 20 30
20 20 30
20 20 30
20 20 30
20 20 30
20 20 30
20 20 30
20 20 30
20 20 30
20 20 30
20 20 30
20 20 30
20 20 30
20 20 30
20 20 30
20 20 30
100 200 255
100 200 255
100 200 255
100 200 255
100 200 255
20 20 30
20 20 30
20 20 30
20 20 30
20 20 30
20 20 30
20 20 30
20 20 30
20 20 30
20 20 30
20 20 30
20 20 30
20 20 30
20 20 30
20 20 30
20 20 30
20 20 30
20 20 30
20 20 30
20 20 30
20 20 30
20 20 30
20 20 30
20 20 30
20 20 30
20 20 30
20 20 30
20 20 30
20 20 30
20 20 30
20 20 30
20 20 30
20 20 30
20 20 30
20 20 30
20 20 30
20 20 30
20 20 30
20 20 30
20 20 30
20 20 30
20 20 30
20 20 30
20 20 30
20 20 30
20 20 30
20 20 30
20 20 30
20 20 30
20 20 30
20 20 30
20 20 30
20 20 30
20 20 30
20 20 30
20 20 30
20 20 30
20 20 30
20 20 30
20 20 30
20 20 30
20 20 30
20 20 30
20 20 30
20 20 30
20 20 30
20 20 30
20 20 30
20 20 30
20 20 30
20 20 30
20 20 30
20 20 30
20 20 30
20 20 30
20 20 30
20 20 30
20 20 30
20 20 30
20 20 30
20 20 30
20 20 30
20 20 30
20 20 30
20 20 30
20 20 30
20 20 30
20 20 30
20 20 30
20 20 30
20 20 30
20 20 30
20 20 30
20 20 30
20 20 30
20 20 30
20 20 30
20 20 30
20 20 30
20 20 30
20 20 30
20 20 30
20 20 30
20 20 30
20 20 30
20 20 30
20 20 30
20 20 30
20 20 30
20 20 30
20 20 30
20 20 30
20 20 30
20 20 30
100 200 255
100 200 255
100 200 255
100 200 255
100 200 255
20 20 30
20 20 30
20 20 30
20 20 30
20 20 30
20 20 30
20 20 30
20 20 30
20 20 30
20 20 30
20 20 30
20 20 30
20 20 30
20 20 30
20 20 30
20 20 30
20 20 30
20 20 30
20 20 30
20 20 30
20 20 30
20 20 30
20 20 30
20 20 30
20 20 30
20 20 30
20 20 30
20 20 30
20 20 30
20 20 30
20 20 30
20 20 30
20 20 30
20 20 30
20 20 30
20 20 30
20 20 30
100 200 255
100 200 255
100 200 255
100 200 255
100 200 255
20 20 30
20 20 30
20 20 30
20 20 30
20 20 30
20 20 30
20 20 30
20 20 30
20 20 30
20 20 30
20 20 30
20 20 30
20 20 30
20 20 30
20 20 30
20 20 30
20 20 30
20 20 30
20 20 30
20 20 30
20 20 30
20 20 30
20 20 30
20 20 30
20 20 30
20 20 30
20 20 30
20 20 30
20 20 30
20 20 30
20 20 30
20 20 30
20 20 30
20 20 30
20 20 30
20 20 30
20 20 30
20 20 30
20 20 30
20 20 30
20 20 30
20 20 30
20 20 30
20 20 30
20 20 30
20 20 30
20 20 30
20 20 30
20 20 30
20 20 30
20 20 30
20 20 30
20 20 30
20 20 30
20 20 30
20 20 30
20 20 30
20 20 30
20 20 30
20 20 30
20 20 30
20 20 30
20 20 30
20 20 30
20 20 30
20 20 30
20 20 30
20 20 30
20 20 30
20 20 30
20 20 30
20 20 30
20 20 30
20 20 30
20 20 30
20 20 30
20 20 30
20 20 30
20 20 30
20 20 30
20 20 30
20 20 30
20 20 30
20 20 30
20 20 30
20 20 30
20 20 30
20 20 30
20 20 30
20 20 30
20 20 30
20 20 30
20 20 30
20 20 30
20 20 30
20 20 30
20 20 30
20 20 30
20 20 30
20 20 30
20 20 30
20 20 30
20 20 30
20 20 30
20 20 30
20 20 30
20 20 30
20 20 30
20 20 30
20 20 30
20 20 30
20 20 30
100 200 255
100 200 255
100 200 255
100 200 255
100 200 255
20 20 30
20 20 30
20 20 30
20 20 30
20 20 30
20 20 30
20 20 30
20 20 30
20 20 30
20 20 30
20 20 30
20 20 30
20 20 30
20 20 30
20 20 30
20 20 30
20 20 30
20 20 30
20 20 30
20 20 30
20 20 30
20 20 30
20 20 30
20 20 30
20 20 30
20 20 30
20 20 30
20 20 30
20 20 30
20 20 30
20 20 30
20 20 30
20 20 30
20 20 30
20 20 30
20 20 30
20 20 30
20 20 30
20 20 30
100 200 255
100 200 255
100 200 255
100 200 255
100 200 255
20 20 30
20 20 30
20 20 30
20 20 30
20 20 30
20 20 30
20 20 30
20 20 30
20 20 30
20 20 30
20 20 30
20 20 30
20 20 30
20 20 30
20 20 30
20 20 30
20 20 30
20 20 30
20 20 30
20 20 30
20 20 30
20 20 30
20 20 30
20 20 30
20 20 30
20 20 30
20 20 30
20 20 30
20 20 30
20 20 30
20 20 30
20 20 30
20 20 30
20 20 30
20 20 30
20 20 30
20 20 30
20 20 30
20 20 30
20 20 30
20 20 30
20 20 30
20 20 30
20 20 30
20 20 30
20 20 30
20 20 30
20 20 30
20 20 30
20 20 30
20 20 30
20 20 30
20 20 30
20 20 30
20 20 30
20 20 30
20 20 30
20 20 30
20 20 30
20 20 30
20 20 30
20 20 30
20 20 30
20 20 30
20 20 30
20 20 30
20 20 30
20 20 30
20 20 30
20 20 30
20 20 30
20 20 30
20 20 30
20 20 30
20 20 30
20 20 30
20 20 30
20 20 30
20 20 30
20 20 30
20 20 30
20 20 30
20 20 30
20 20 30
20 20 30
20 20 30
20 20 30
20 20 30
20 20 30
20 20 30
20 20 30
20 20 30
20 20 30
20 20 30
20 20 30
20 20 30
20 20 30
20 20 30
20 20 30
20 20 30
20 20 30
20 20 30
20 20 30
20 20 30
20 20 30
20 20 30
20 20 30
20 20 30
20 20 30
20 20 30
100 200 255
100 200 255
100 200 255
100 200 255
100 200 255
20 20 30
20 20 30
20 20 30
20 20 30
20 20 30
20 20 30
20 20 30
20 20 30
20 20 30
20 20 30
20 20 30
20 20 30
20 20 30
20 20 30
20 20 30
20 20 30
20 20 30
20 20 30
20 20 30
20 20 30
20 20 30
20 20 30
20 20 30
20 20 30
20 20 30
20 20 30
20 20 30
20 20 30
20 20 30
20 20 30
20 20 30
20 20 30
20 20 30
20 20 30
20 20 30
20 20 30
20 20 30
20 20 30
20 20 30
20 20 30
20 20 30
100 200 255
100 200 255
100 200 255
100 200 255
100 200 255
20 20 30
20 20 30
20 20 30
20 20 30
20 20 30
20 20 30
20 20 30
20 20 30
20 20 30
20 20 30
20 20 30
20 20 30
20 20 30
20 20 30
20 20 30
20 20 30
20 20 30
20 20 30
20 20 30
20 20 30
20 20 30
20 20 30
20 20 30
20 20 30
20 20 30
20 20 30
20 20 30
20 20 30
20 20 30
20 20 30
20 20 30
20 20 30
20 20 30
20 20 30
20 20 30
20 20 30
20 20 30
20 20 30
20 20 30
20 20 30
20 20 30
20 20 30
20 20 30
20 20 30
20 20 30
20 20 30
20 20 30
20 20 30
20 20 30
20 20 30
20 20 30
20 20 30
20 20 30
20 20 30
20 20 30
20 20 30
20 20 30
20 20 30
20 20 30
20 20 30
20 20 30
20 20 30
20 20 30
20 20 30
20 20 30
20 20 30
20 20 30
20 20 30
20 20 30
20 20 30
20 20 30
20 20 30
20 20 30
20 20 30
20 20 30
20 20 30
20 20 30
20 20 30
20 20 30
20 20 30
20 20 30
20 20 30
20 20 30
20 20 30
20 20 30
20 20 30
20 20 30
20 20 30
20 20 30
20 20 30
20 20 30
20 20 30
20 20 30
20 20 30
20 20 30
20 20 30
20 20 30
20 20 30
20 20 30
20 20 30
20 20 30
20 20 30
20 20 30
20 20 30
20 20 30
20 20 30
20 20 30
20 20 30
100 200 255
100 200 255
100 200 255
100 200 255
100 200 255
20 20 30
20 20 30
20 20 30
20 20 30
20 20 30
20 20 30
20 20 30
20 20 30
20 20 30
20 20 30
20 20 30
20 20 30
20 20 30
20 20 30
20 20 30
20 20 30
20 20 30
20 20 30
20 20 30
20 20 30
20 20 30
20 20 30
20 20 30
20 20 30
20 20 30
20 20 30
20 20 30
20 20 30
20 20 30
20 20 30
20 20 30
20 20 30
20 20 30
20 20 30
20 20 30
20 20 30
20 20 30
20 20 30
20 20 30
20 20 30
20 20 30
20 20 30
20 20 30
100 200 255
100 200 255
100 200 255
100 200 255
100 200 255
20 20 30
20 20 30
20 20 30
20 20 30
20 20 30
20 20 30
20 20 30
20 20 30
20 20 30
20 20 30
20 20 30
20 20 30
20 20 30
20 20 30
20 20 30
20 20 30
20 20 30
20 20 30
20 20 30
20 20 30
20 20 30
20 20 30
20 20 30
20 20 30
20 20 30
20 20 30
20 20 30
20 20 30
20 20 30
20 20 30
20 20 30
20 20 30
20 20 30
20 20 30
20 20 30
20 20 30
20 20 30
20 20 30
20 20 30
20 20 30
20 20 30
20 20 30
20 20 30
20 20 30
20 20 30
20 20 30
20 20 30
20 20 30
20 20 30
20 20 30
20 20 30
20 20 30
20 20 30
20 20 30
20 20 30
20 20 30
20 20 30
20 20 30
20 20 30
20 20 30
20 20 30
20 20 30
20 20 30
20 20 30
20 20 30
20 20 30
20 20 30
20 20 30
20 20 30
20 20 30
20 20 30
20 20 30
20 20 30
20 20 30
20 20 30
20 20 30
20 20 30
20 20 30
20 20 30
20 20 30
20 20 30
20 20 30
20 20 30
20 20 30
20 20 30
20 20 30
20 20 30
20 20 30
20 20 30
20 20 30
20 20 30
20 20 30
20 20 30
20 20 30
20 20 30
20 20 30
20 20 30
20 20 30
20 20 30
20 20 30
255 80 80
255 80 80
255 80 80
255 80 80
255 80 80
255 80 80
255 80 80
100 200 255
100 200 255
100 200 255
100 200 255
20 20 30
20 20 30
20 20 30
20 20 30
20 20 30
20 20 30
20 20 30
20 20 30
20 20 30
20 20 30
20 20 30
20 20 30
20 20 30
20 20 30
20 20 30
20 20 30
20 20 30
20 20 30
20 20 30
20 20 30
20 20 30
20 20 30
20 20 30
20 20 30
20 20 30
20 20 30
20 20 30
20 20 30
20 20 30
20 20 30
20 20 30
20 20 30
20 20 30
20 20 30
20 20 30
20 20 30
20 20 30
20 20 30
20 20 30
20 20 30
20 20 30
20 20 30
20 20 30
20 20 30
20 20 30
100 200 255
100 200 255
100 200 255
100 200 255
100 200 255
20 20 30
20 20 30
20 20 30
20 20 30
20 20 30
20 20 30
20 20 30
20 20 30
20 20 30
20 20 30
20 20 30
20 20 30
20 20 30
20 20 30
20 20 30
20 20 30
20 20 30
20 20 30
20 20 30
20 20 30
20 20 30
20 20 30
20 20 30
20 20 30
20 20 30
20 20 30
20 20 30
20 20 30
20 20 30
20 20 30
20 20 30
20 20 30
20 20 30
20 20 30
20 20 30
20 20 30
20 20 30
20 20 30
20 20 30
20 20 30
20 20 30
20 20 30
20 20 30
20 20 30
20 20 30
20 20 30
20 20 30
20 20 30
20 20 30
20 20 30
20 20 30
20 20 30
20 20 30
20 20 30
20 20 30
20 20 30
20 20 30
20 20 30
20 20 30
20 20 30
20 20 30
20 20 30
20 20 30
20 20 30
20 20 30
20 20 30
20 20 30
20 20 30
20 20 30
20 20 30
20 20 30
20 20 30
20 20 30
20 20 30
20 20 30
20 20 30
20 20 30
20 20 30
20 20 30
20 20 30
20 20 30
20 20 30
20 20 30
20 20 30
20 20 30
20 20 30
20 20 30
20 20 30
20 20 30
20 20 30
20 20 30
20 20 30
20 20 30
20 20 30
20 20 30
20 20 30
20 20 30
20 20 30
255 80 80
255 80 80
255 80 80
255 80 80
255 80 80
255 80 80
255 80 80
255 80 80
255 80 80
100 200 255
100 200 255
20 20 30
20 20 30
20 20 30
20 20 30
20 20 30
20 20 30
20 20 30
20 20 30
20 20 30
20 20 30
20 20 30
20 20 30
20 20 30
20 20 30
20 20 30
20 20 30
20 20 30
20 20 30
20 20 30
20 20 30
20 20 30
20 20 30
20 20 30
20 20 30
20 20 30
20 20 30
20 20 30
20 20 30
20 20 30
20 20 30
20 20 30
20 20 30
20 20 30
20 20 30
20 20 30
20 20 30
20 20 30
20 20 30
20 20 30
20 20 30
20 20 30
20 20 30
20 20 30
20 20 30
20 20 30
20 20 30
20 20 30
100 200 255
100 200 255
100 200 255
100 200 255
100 200 255
20 20 30
20 20 30
20 20 30
20 20 30
20 20 30
20 20 30
20 20 30
20 20 30
20 20 30
20 20 30
20 20 30
20 20 30
20 20 30
20 20 30
20 20 30
20 20 30
20 20 30
20 20 30
20 20 30
20 20 30
20 20 30
20 20 30
20 20 30
20 20 30
20 20 30
20 20 30
20 20 30
20 20 30
20 20 30
20 20 30
20 20 30
20 20 30
20 20 30
20 20 30
20 20 30
20 20 30
20 20 30
20 20 30
20 20 30
20 20 30
20 20 30
20 20 30
20 20 30
20 20 30
20 20 30
20 20 30
20 20 30
20 20 30
20 20 30
20 20 30
20 20 30
20 20 30
20 20 30
20 20 30
20 20 30
20 20 30
20 20 30
20 20 30
20 20 30
20 20 30
20 20 30
20 20 30
20 20 30
20 20 30
20 20 30
20 20 30
20 20 30
20 20 30
20 20 30
20 20 30
20 20 30
20 20 30
20 20 30
20 20 30
20 20 30
20 20 30
20 20 30
20 20 30
20 20 30
20 20 30
20 20 30
20 20 30
20 20 30
20 20 30
20 20 30
20 20 30
20 20 30
20 20 30
20 20 30
20 20 30
20 20 30
20 20 30
20 20 30
20 20 30
20 20 30
20 20 30
255 80 80
255 80 80
255 80 80
255 80 80
255 80 80
255 80 80
255 80 80
255 80 80
255 80 80
255 80 80
255 80 80
20 20 30
20 20 30
20 20 30
20 20 30
20 20 30
20 20 30
20 20 30
20 20 30
20 20 30
20 20 30
20 20 30
20 20 30
20 20 30
20 20 30
20 20 30
20 20 30
20 20 30
20 20 30
20 20 30
20 20 30
20 20 30
20 20 30
20 20 30
20 20 30
20 20 30
20 20 30
20 20 30
20 20 30
20 20 30
20 20 30
20 20 30
20 20 30
20 20 30
20 20 30
20 20 30
20 20 30
20 20 30
20 20 30
20 20 30
20 20 30
20 20 30
20 20 30
20 20 30
20 20 30
20 20 30
20 20 30
20 20 30
20 20 30
20 20 30
100 200 255
100 200 255
100 200 255
100 200 255
100 200 255
20 20 30
20 20 30
20 20 30
20 20 30
20 20 30
20 20 30
20 20 30
20 20 30
20 20 30
20 20 30
20 20 30
20 20 30
20 20 30
20 20 30
20 20 30
20 20 30
20 20 30
20 20 30
20 20 30
20 20 30
20 20 30
20 20 30
20 20 30
20 20 30
20 20 30
20 20 30
20 20 30
20 20 30
20 20 30
20 20 30
20 20 30
20 20 30
20 20 30
20 20 30
20 20 30
20 20 30
20 20 30
20 20 30
20 20 30
20 20 30
20 20 30
20 20 30
20 20 30
20 20 30
20 20 30
20 20 30
20 20 30
20 20 30
20 20 30
20 20 30
20 20 30
20 20 30
20 20 30
20 20 30
20 20 30
20 20 30
20 20 30
20 20 30
20 20 30
20 20 30
20 20 30
20 20 30
20 20 30
20 20 30
20 20 30
20 20 30
20 20 30
20 20 30
20 20 30
20 20 30
20 20 30
20 20 30
20 20 30
20 20 30
20 20 30
20 20 30
20 20 30
20 20 30
20 20 30
20 20 30
20 20 30
20 20 30
20 20 30
20 20 30
20 20 30
20 20 30
20 20 30
20 20 30
20 20 30
20 20 30
20 20 30
20 20 30
20 20 30
20 20 30
20 20 30
255 80 80
255 80 80
255 80 80
255 80 80
255 80 80
255 80 80
255 80 80
255 80 80
255 80 80
255 80 80
255 80 80
20 20 30
20 20 30
20 20 30
20 20 30
20 20 30
20 20 30
20 20 30
20 20 30
20 20 30
20 20 30
20 20 30
20 20 30
20 20 30
20 20 30
20 20 30
20 20 30
20 20 30
20 20 30
20 20 30
20 20 30
20 20 30
20 20 30
20 20 30
20 20 30
20 20 30
20 20 30
20 20 30
20 20 30
20 20 30
20 20 30
20 20 30
20 20 30
20 20 30
20 20 30
20 20 30
20 20 30
20 20 30
20 20 30
20 20 30
20 20 30
20 20 30
20 20 30
20 20 30
20 20 30
20 20 30
20 20 30
20 20 30
20 20 30
20 20 30
20 20 30
100 200 255
100 200 255
100 200 255
100 200 255
100 200 255
20 20 30
20 20 30
20 20 30
20 20 30
20 20 30
20 20 30
20 20 30
20 20 30
20 20 30
20 20 30
20 20 30
20 20 30
20 20 30
20 20 30
20 20 30
20 20 30
20 20 30
20 20 30
20 20 30
20 20 30
20 20 30
20 20 30
20 20 30
20 20 30
20 20 30
20 20 30
20 20 30
20 20 30
20 20 30
20 20 30
20 20 30
20 20 30
20 20 30
20 20 30
20 20 30
20 20 30
20 20 30
20 20 30
20 20 30
20 20 30
20 20 30
20 20 30
20 20 30
20 20 30
20 20 30
20 20 30
20 20 30
20 20 30
20 20 30
20 20 30
20 20 30
20 20 30
20 20 30
20 20 30
20 20 30
20 20 30
20 20 30
20 20 30
20 20 30
20 20 30
20 20 30
20 20 30
20 20 30
20 20 30
20 20 30
20 20 30
20 20 30
20 20 30
20 20 30
20 20 30
20 20 30
20 20 30
20 20 30
20 20 30
20 20 30
20 20 30
20 20 30
20 20 30
20 20 30
20 20 30
20 20 30
20 20 30
20 20 30
20 20 30
20 20 30
20 20 30
20 20 30
20 20 30
20 20 30
20 20 30
20 20 30
20 20 30
20 20 30
20 20 30
255 80 80
255 80 80
255 80 80
255 80 80
255 80 80
255 80 80
255 80 80
255 80 80
255 80 80
255 80 80
255 80 80
20 20 30
20 20 30
20 20 30
20 20 30
20 20 30
20 20 30
20 20 30
20 20 30
20 20 30
20 20 30
20 20 30
20 20 30
20 20 30
20 20 30
20 20 30
20 20 30
20 20 30
20 20 30
20 20 30
20 20 30
20 20 30
20 20 30
20 20 30
20 20 30
20 20 30
20 20 30
20 20 30
20 20 30
20 20 30
20 20 30
20 20 30
20 20 30
20 20 30
20 20 30
20 20 30
20 20 30
20 20 30
20 20 30
20 20 30
20 20 30
20 20 30
20 20 30
20 20 30
20 20 30
20 20 30
20 20 30
20 20 30
20 20 30
20 20 30
20 20 30
20 20 30
100 200 255
100 200 255
100 200 255
100 200 255
100 200 255
20 20 30
20 20 30
20 20 30
20 20 30
20 20 30
20 20 30
20 20 30
20 20 30
20 20 30
20 20 30
20 20 30
20 20 30
20 20 30
20 20 30
20 20 30
20 20 30
20 20 30
20 20 30
20 20 30
20 20 30
20 20 30
20 20 30
20 20 30
20 20 30
20 20 30
20 20 30
20 20 30
20 20 30
20 20 30
20 20 30
20 20 30
20 20 30
20 20 30
20 20 30
20 20 30
20 20 30
20 20 30
20 20 30
20 20 30
20 20 30
20 20 30
20 20 30
20 20 30
20 20 30
20 20 30
20 20 30
20 20 30
20 20 30
20 20 30
20 20 30
20 20 30
20 20 30
20 20 30
20 20 30
20 20 30
20 20 30
20 20 30
20 20 30
20 20 30
20 20 30
20 20 30
20 20 30
20 20 30
20 20 30
20 20 30
20 20 30
20 20 30
20 20 30
20 20 30
20 20 30
20 20 30
20 20 30
20 20 30
20 20 30
20 20 30
20 20 30
20 20 30
20 20 30
20 20 30
20 20 30
20 20 30
20 20 30
20 20 30
20 20 30
20 20 30
20 20 30
20 20 30
20 20 30
20 20 30
20 20 30
20 20 30
20 20 30
20 20 30
255 80 80
255 80 80
255 80 80
255 80 80
255 80 80
255 80 80
255 80 80
255 80 80
255 80 80
255 80 80
255 80 80
20 20 30
20 20 30
20 20 30
20 20 30
20 20 30
20 20 30
20 20 30
20 20 30
20 20 30
20 20 30
20 20 30
20 20 30
20 20 30
20 20 30
20 20 30
20 20 30
20 20 30
20 20 30
20 20 30
20 20 30
20 20 30
20 20 30
20 20 30
20 20 30
20 20 30
20 20 30
20 20 30
20 20 30
20 20 30
20 20 30
20 20 30
20 20 30
20 20 30
20 20 30
20 20 30
20 20 30
20 20 30
20 20 30
20 20 30
20 20 30
20 20 30
20 20 30
20 20 30
20 20 30
20 20 30
20 20 30
20 20 30
20 20 30
20 20 30
20 20 30
20 20 30
20 20 30
100 200 255
100 200 255
100 200 255
100 200 255
100 200 255
20 20 30
20 20 30
20 20 30
20 20 30
20 20 30
20 20 30
20 20 30
20 20 30
20 20 30
20 20 30
20 20 30
20 20 30
20 20 30
20 20 30
20 20 30
20 20 30
20 20 30
20 20 30
20 20 30
20 20 30
20 20 30
20 20 30
20 20 30
20 20 30
20 20 30
20 20 30
20 20 30
20 20 30
20 20 30
20 20 30
20 20 30
20 20 30
20 20 30
20 20 30
20 20 30
20 20 30
20 20 30
20 20 30
20 20 30
20 20 30
20 20 30
20 20 30
20 20 30
20 20 30
20 20 30
20 20 30
20 20 30
20 20 30
20 20 30
20 20 30
20 20 30
20 20 30
20 20 30
20 20 30
20 20 30
20 20 30
20 20 30
20 20 30
20 20 30
20 20 30
20 20 30
20 20 30
20 20 30
20 20 30
20 20 30
20 20 30
20 20 30
20 20 30
20 20 30
20 20 30
20 20 30
20 20 30
20 20 30
20 20 30
20 20 30
20 20 30
20 20 30
20 20 30
20 20 30
20 20 30
20 20 30
20 20 30
20 20 30
20 20 30
20 20 30
20 20 30
20 20 30
20 20 30
20 20 30
20 20 30
20 20 30
20 20 30
255 80 80
255 80 80
255 80 80
255 80 80
255 80 80
255 80 80
255 80 80
255 80 80
255 80 80
255 80 80
255 80 80
20 20 30
20 20 30
20 20 30
20 20 30
20 20 30
20 20 30
20 20 30
20 20 30
20 20 30
20 20 30
20 20 30
20 20 30
20 20 30
20 20 30
20 20 30
20 20 30
20 20 30
20 20 30
20 20 30
20 20 30
20 20 30
20 20 30
20 20 30
20 20 30
20 20 30
20 20 30
20 20 30
20 20 30
20 20 30
20 20 30
20 20 30
20 20 30
20 20 30
20 20 30
20 20 30
20 20 30
20 20 30
20 20 30
20 20 30
20 20 30
20 20 30
20 20 30
20 20 30
20 20 30
20 20 30
20 20 30
20 20 30
20 20 30
20 20 30
20 20 30
20 20 30
20 20 30
20 20 30
100 200 255
100 200 255
100 200 255
100 200 255
100 200 255
20 20 30
20 20 30
20 20 30
20 20 30
20 20 30
20 20 30
20 20 30
20 20 30
20 20 30
20 20 30
20 20 30
20 20 30
20 20 30
20 20 30
20 20 30
20 20 30
20 20 30
20 20 30
20 20 30
20 20 30
20 20 30
20 20 30
20 20 30
20 20 30
20 20 30
20 20 30
20 20 30
20 20 30
20 20 30
20 20 30
20 20 30
20 20 30
20 20 30
20 20 30
20 20 30
20 20 30
20 20 30
20 20 30
20 20 30
20 20 30
20 20 30
20 20 30
20 20 30
20 20 30
20 20 30
20 20 30
20 20 30
20 20 30
20 20 30
20 20 30
20 20 30
20 20 30
20 20 30
20 20 30
20 20 30
20 20 30
20 20 30
20 20 30
20 20 30
20 20 30
20 20 30
20 20 30
20 20 30
20 20 30
20 20 30
20 20 30
20 20 30
20 20 30
20 20 30
20 20 30
20 20 30
20 20 30
20 20 30
20 20 30
20 20 30
20 20 30
20 20 30
20 20 30
20 20 30
20 20 30
20 20 30
20 20 30
20 20 30
20 20 30
20 20 30
20 20 30
20 20 30
20 20 30
20 20 30
20 20 30
20 20 30
255 80 80
255 80 80
255 80 80
255 80 80
255 80 80
255 80 80
255 80 80
255 80 80
255 80 80
255 80 80
255 80 80
20 20 30
20 20 30
20 20 30
20 20 30
20 20 30
20 20 30
20 20 30
20 20 30
20 20 30
20 20 30
20 20 30
20 20 30
20 20 30
20 20 30
20 20 30
20 20 30
20 20 30
20 20 30
20 20 30
20 20 30
20 20 30
20 20 30
20 20 30
20 20 30
20 20 30
20 20 30
20 20 30
20 20 30
20 20 30
20 20 30
20 20 30
20 20 30
20 20 30
20 20 30
20 20 30
20 20 30
20 20 30
20 20 30
20 20 30
20 20 30
20 20 30
20 20 30
20 20 30
20 20 30
20 20 30
20 20 30
20 20 30
20 20 30
20 20 30
20 20 30
20 20 30
20 20 30
20 20 30
20 20 30
100 200 255
100 200 255
100 200 255
100 200 255
100 200 255
20 20 30
20 20 30
20 20 30
20 20 30
20 20 30
20 20 30
20 20 30
20 20 30
20 20 30
20 20 30
20 20 30
20 20 30
20 20 30
20 20 30
20 20 30
20 20 30
20 20 30
20 20 30
20 20 30
20 20 30
20 20 30
20 20 30
20 20 30
20 20 30
20 20 30
20 20 30
20 20 30
20 20 30
20 20 30
20 20 30
20 20 30
20 20 30
20 20 30
20 20 30
20 20 30
20 20 30
20 20 30
20 20 30
20 20 30
20 20 30
20 20 30
20 20 30
20 20 30
20 20 30
20 20 30
20 20 30
20 20 30
20 20 30
20 20 30
20 20 30
20 20 30
20 20 30
20 20 30
20 20 30
20 20 30
20 20 30
20 20 30
20 20 30
20 20 30
20 20 30
20 20 30
20 20 30
20 20 30
20 20 30
20 20 30
20 20 30
20 20 30
20 20 30
20 20 30
20 20 30
20 20 30
20 20 30
20 20 30
20 20 30
20 20 30
20 20 30
20 20 30
20 20 30
20 20 30
20 20 30
20 20 30
20 20 30
20 20 30
20 20 30
20 20 30
20 20 30
20 20 30
20 20 30
20 20 30
20 20 30
255 80 80
255 80 80
255 80 80
255 80 80
255 80 80
255 80 80
255 80 80
255 80 80
255 80 80
255 80 80
255 80 80
20 20 30
20 20 30
20 20 30
20 20 30
20 20 30
20 20 30
20 20 30
20 20 30
20 20 30
20 20 30
20 20 30
20 20 30
20 20 30
20 20 30
20 20 30
20 20 30
20 20 30
20 20 30
20 20 30
20 20 30
20 20 30
20 20 30
20 20 30
20 20 30
20 20 30
20 20 30
20 20 30
20 20 30
20 20 30
20 20 30
20 20 30
20 20 30
20 20 30
20 20 30
20 20 30
20 20 30
20 20 30
20 20 30
20 20 30
20 20 30
20 20 30
20 20 30
20 20 30
20 20 30
20 20 30
20 20 30
20 20 30
20 20 30
20 20 30
20 20 30
20 20 30
20 20 30
20 20 30
20 20 30
20 20 30
100 200 255
100 200 255
100 200 255
100 200 255
100 200 255
20 20 30
20 20 30
20 20 30
20 20 30
20 20 30
20 20 30
20 20 30
20 20 30
20 20 30
20 20 30
20 20 30
20 20 30
20 20 30
20 20 30
20 20 30
20 20 30
20 20 30
20 20 30
20 20 30
20 20 30
20 20 30
20 20 30
20 20 30
20 20 30
20 20 30
20 20 30
20 20 30
20 20 30
20 20 30
20 20 30
20 20 30
20 20 30
20 20 30
20 20 30
20 20 30
20 20 30
20 20 30
20 20 30
20 20 30
20 20 30
20 20 30
20 20 30
20 20 30
20 20 30
20 20 30
20 20 30
20 20 30
20 20 30
20 20 30
20 20 30
20 20 30
20 20 30
20 20 30
20 20 30
20 20 30
20 20 30
20 20 30
20 20 30
20 20 30
20 20 30
20 20 30
20 20 30
20 20 30
20 20 30
20 20 30
20 20 30
20 20 30
20 20 30
20 20 30
20 20 30
20 20 30
20 20 30
20 20 30
20 20 30
20 20 30
20 20 30
20 20 30
20 20 30
20 20 30
20 20 30
20 20 30
20 20 30
20 20 30
20 20 30
20 20 30
20 20 30
20 20 30
20 20 30
100 200 255
100 200 255
255 80 80
255 80 80
255 80 80
255 80 80
255 80 80
255 80 80
255 80 80
255 80 80
255 80 80
20 20 30
20 20 30
20 20 30
20 20 30
20 20 30
20 20 30
20 20 30
20 20 30
20 20 30
20 20 30
20 20 30
20 20 30
20 20 30
20 20 30
20 20 30
20 20 30
20 20 30
20 20 30
20 20 30
20 20 30
20 20 30
20 20 30
20 20 30
20 20 30
20 20 30
20 20 30
20 20 30
20 20 30
20 20 30
20 20 30
20 20 30
20 20 30
20 20 30
20 20 30
20 20 30
20 20 30
20 20 30
20 20 30
20 20 30
20 20 30
20 20 30
20 20 30
20 20 30
20 20 30
20 20 30
20 20 30
20 20 30
20 20 30
20 20 30
20 20 30
20 20 30
20 20 30
20 20 30
20 20 30
20 20 30
20 20 30
20 20 30
100 200 255
100 200 255
100 200 255
100 200 255
100 200 255
20 20 30
20 20 30
20 20 30
20 20 30
20 20 30
20 20 30
20 20 30
20 20 30
20 20 30
20 20 30
20 20 30
20 20 30
20 20 30
20 20 30
20 20 30
20 20 30
20 20 30
20 20 30
20 20 30
20 20 30
20 20 30
20 20 30
20 20 30
20 20 30
20 20 30
20 20 30
20 20 30
20 20 30
20 20 30
20 20 30
20 20 30
20 20 30
20 20 30
20 20 30
20 20 30
20 20 30
20 20 30
20 20 30
20 20 30
20 20 30
20 20 30
20 20 30
20 20 30
20 20 30
20 20 30
20 20 30
20 20 30
20 20 30
20 20 30
20 20 30
20 20 30
20 20 30
20 20 30
20 20 30
20 20 30
20 20 30
20 20 30
20 20 30
20 20 30
20 20 30
20 20 30
20 20 30
20 20 30
20 20 30
20 20 30
20 20 30
20 20 30
20 20 30
20 20 30
20 20 30
20 20 30
20 20 30
20 20 30
20 20 30
20 20 30
20 20 30
20 20 30
20 20 30
20 20 30
20 20 30
20 20 30
20 20 30
20 20 30
20 20 30
20 20 30
20 20 30
100 200 255
100 200 255
100 200 255
100 200 255
255 80 80
255 80 80
255 80 80
255 80 80
255 80 80
255 80 80
255 80 80
20 20 30
20 20 30
20 20 30
20 20 30
20 20 30
20 20 30
20 20 30
20 20 30
20 20 30
20 20 30
20 20 30
20 20 30
20 20 30
20 20 30
20 20 30
20 20 30
20 20 30
20 20 30
20 20 30
20 20 30
20 20 30
20 20 30
20 20 30
20 20 30
20 20 30
20 20 30
20 20 30
20 20 30
20 20 30
20 20 30
20 20 30
20 20 30
20 20 30
20 20 30
20 20 30
20 20 30
20 20 30
20 20 30
20 20 30
20 20 30
20 20 30
20 20 30
20 20 30
20 20 30
20 20 30
20 20 30
20 20 30
20 20 30
20 20 30
20 20 30
20 20 30
20 20 30
20 20 30
20 20 30
20 20 30
20 20 30
20 20 30
20 20 30
20 20 30
100 200 255
100 200 255
100 200 255
100 200 255
100 200 255
20 20 30
20 20 30
20 20 30
20 20 30
20 20 30
20 20 30
20 20 30
20 20 30
20 20 30
20 20 30
20 20 30
20 20 30
20 20 30
20 20 30
20 20 30
20 20 30
20 20 30
20 20 30
20 20 30
20 20 30
20 20 30
20 20 30
20 20 30
20 20 30
20 20 30
20 20 30
20 20 30
20 20 30
20 20 30
20 20 30
20 20 30
20 20 30
20 20 30
20 20 30
20 20 30
20 20 30
20 20 30
20 20 30
20 20 30
20 20 30
20 20 30
20 20 30
20 20 30
20 20 30
20 20 30
20 20 30
20 20 30
20 20 30
20 20 30
20 20 30
20 20 30
20 20 30
20 20 30
20 20 30
20 20 30
20 20 30
20 20 30
20 20 30
20 20 30
20 20 30
20 20 30
20 20 30
20 20 30
20 20 30
20 20 30
20 20 30
20 20 30
20 20 30
20 20 30
20 20 30
20 20 30
20 20 30
20 20 30
20 20 30
20 20 30
20 20 30
20 20 30
20 20 30
20 20 30
20 20 30
20 20 30
20 20 30
20 20 30
20 20 30
100 200 255
100 200 255
100 200 255
100 200 255
100 200 255
20 20 30
20 20 30
20 20 30
20 20 30
20 20 30
20 20 30
20 20 30
20 20 30
20 20 30
20 20 30
20 20 30
20 20 30
20 20 30
20 20 30
20 20 30
20 20 30
20 20 30
20 20 30
20 20 30
20 20 30
20 20 30
20 20 30
20 20 30
20 20 30
20 20 30
20 20 30
20 20 30
20 20 30
20 20 30
20 20 30
20 20 30
20 20 30
20 20 30
20 20 30
20 20 30
20 20 30
20 20 30
20 20 30
20 20 30
20 20 30
20 20 30
20 20 30
20 20 30
20 20 30
20 20 30
20 20 30
20 20 30
20 20 30
20 20 30
20 20 30
20 20 30
20 20 30
20 20 30
20 20 30
20 20 30
20 20 30
20 20 30
20 20 30
20 20 30
20 20 30
20 20 30
20 20 30
20 20 30
20 20 30
20 20 30
20 20 30
20 20 30
100 200 255
100 200 255
100 200 255
100 200 255
100 200 255
20 20 30
20 20 30
20 20 30
20 20 30
20 20 30
20 20 30
20 20 30
20 20 30
20 20 30
20 20 30
20 20 30
20 20 30
20 20 30
20 20 30
20 20 30
20 20 30
20 20 30
20 20 30
20 20 30
20 20 30
20 20 30
20 20 30
20 20 30
20 20 30
20 20 30
20 20 30
20 20 30
20 20 30
20 20 30
20 20 30
20 20 30
20 20 30
20 20 30
20 20 30
20 20 30
20 20 30
20 20 30
20 20 30
20 20 30
20 20 30
20 20 30
20 20 30
20 20 30
20 20 30
20 20 30
20 20 30
20 20 30
20 20 30
20 20 30
20 20 30
20 20 30
20 20 30
20 20 30
20 20 30
20 20 30
20 20 30
20 20 30
20 20 30
20 20 30
20 20 30
20 20 30
20 20 30
20 20 30
20 20 30
20 20 30
20 20 30
20 20 30
20 20 30
20 20 30
20 20 30
20 20 30
20 20 30
20 20 30
20 20 30
20 20 30
20 20 30
20 20 30
20 20 30
20 20 30
20 20 30
20 20 30
20 20 30
100 200 255
100 200 255
100 200 255
100 200 255
100 200 255
20 20 30
20 20 30
20 20 30
20 20 30
20 20 30
20 20 30
20 20 30
20 20 30
20 20 30
20 20 30
20 20 30
20 20 30
20 20 30
20 20 30
20 20 30
20 20 30
20 20 30
20 20 30
20 20 30
20 20 30
20 20 30
20 20 30
20 20 30
20 20 30
20 20 30
20 20 30
20 20 30
20 20 30
20 20 30
20 20 30
20 20 30
20 20 30
20 20 30
20 20 30
20 20 30
20 20 30
20 20 30
20 20 30
20 20 30
20 20 30
20 20 30
20 20 30
20 20 30
20 20 30
20 20 30
20 20 30
20 20 30
20 20 30
20 20 30
20 20 30
20 20 30
20 20 30
20 20 30
20 20 30
20 20 30
20 20 30
20 20 30
20 20 30
20 20 30
20 20 30
20 20 30
20 20 30
20 20 30
20 20 30
20 20 30
20 20 30
20 20 30
20 20 30
20 20 30
100 200 255
100 200 255
100 200 255
100 200 255
100 200 255
20 20 30
20 20 30
20 20 30
20 20 30
20 20 30
20 20 30
20 20 30
20 20 30
20 20 30
20 20 30
20 20 30
20 20 30
20 20 30
20 20 30
20 20 30
20 20 30
20 20 30
20 20 30
20 20 30
20 20 30
20 20 30
20 20 30
20 20 30
20 20 30
20 20 30
20 20 30
20 20 30
20 20 30
20 20 30
20 20 30
20 20 30
20 20 30
20 20 30
20 20 30
20 20 30
20 20 30
20 20 30
20 20 30
20 20 30
20 20 30
20 20 30
20 20 30
20 20 30
20 20 30
20 20 30
20 20 30
20 20 30
20 20 30
20 20 30
20 20 30
20 20 30
20 20 30
20 20 30
20 20 30
20 20 30
20 20 30
20 20 30
20 20 30
20 20 30
20 20 30
20 20 30
20 20 30
20 20 30
20 20 30
20 20 30
20 20 30
20 20 30
20 20 30
20 20 30
20 20 30
20 20 30
20 20 30
20 20 30
20 20 30
20 20 30
20 20 30
20 20 30
20 20 30
20 20 30
20 20 30
100 200 255
100 200 255
100 200 255
100 200 255
100 200 255
20 20 30
20 20 30
20 20 30
20 20 30
20 20 30
20 20 30
20 20 30
20 20 30
20 20 30
20 20 30
20 20 30
20 20 30
20 20 30
20 20 30
20 20 30
20 20 30
20 20 30
20 20 30
20 20 30
20 20 30
20 20 30
20 20 30
20 20 30
20 20 30
20 20 30
20 20 30
20 20 30
20 20 30
20 20 30
20 20 30
20 20 30
20 20 30
20 20 30
20 20 30
20 20 30
20 20 30
20 20 30
20 20 30
20 20 30
20 20 30
20 20 30
20 20 30
20 20 30
20 20 30
20 20 30
20 20 30
20 20 30
20 20 30
20 20 30
20 20 30
20 20 30
20 20 30
20 20 30
20 20 30
20 20 30
20 20 30
20 20 30
20 20 30
20 20 30
20 20 30
20 20 30
20 20 30
20 20 30
20 20 30
20 20 30
20 20 30
20 20 30
20 20 30
20 20 30
20 20 30
20 20 30
100 200 255
100 200 255
100 200 255
100 200 255
100 200 255
20 20 30
20 20 30
20 20 30
20 20 30
20 20 30
20 20 30
20 20 30
20 20 30
20 20 30
20 20 30
20 20 30
20 20 30
20 20 30
20 20 30
20 20 30
20 20 30
20 20 30
20 20 30
20 20 30
20 20 30
20 20 30
20 20 30
20 20 30
20 20 30
20 20 30
20 20 30
20 20 30
20 20 30
20 20 30
20 20 30
20 20 30
20 20 30
20 20 30
20 20 30
20 20 30
20 20 30
20 20 30
20 20 30
20 20 30
20 20 30
20 20 30
20 20 30
20 20 30
20 20 30
20 20 30
20 20 30
20 20 30
20 20 30
20 20 30
20 20 30
20 20 30
20 20 30
20 20 30
20 20 30
20 20 30
20 20 30
20 20 30
20 20 30
20 20 30
20 20 30
20 20 30
20 20 30
20 20 30
20 20 30
20 20 30
20 20 30
20 20 30
20 20 30
20 20 30
20 20 30
20 20 30
20 20 30
20 20 30
20 20 30
20 20 30
20 20 30
20 20 30
20 20 30
100 200 255
100 200 255
100 200 255
100 200 255
100 200 255
20 20 30
20 20 30
20 20 30
20 20 30
20 20 30
20 20 30
20 20 30
20 20 30
20 20 30
20 20 30
20 20 30
20 20 30
20 20 30
20 20 30
20 20 30
20 20 30
20 20 30
20 20 30
20 20 30
20 20 30
20 20 30
20 20 30
20 20 30
20 20 30
20 20 30
20 20 30
20 20 30
20 20 30
20 20 30
20 20 30
20 20 30
20 20 30
20 20 30
20 20 30
20 20 30
20 20 30
20 20 30
20 20 30
20 20 30
20 20 30
20 20 30
20 20 30
20 20 30
20 20 30
20 20 30
20 20 30
20 20 30
20 20 30
20 20 30
20 20 30
20 20 30
20 20 30
20 20 30
20 20 30
20 20 30
20 20 30
20 20 30
20 20 30
20 20 30
20 20 30
20 20 30
20 20 30
20 20 30
20 20 30
20 20 30
20 20 30
20 20 30
20 20 30
20 20 30
20 20 30
20 20 30
20 20 30
20 20 30
100 200 255
100 200 255
100 200 255
100 200 255
100 200 255
20 20 30
20 20 30
20 20 30
20 20 30
20 20 30
20 20 30
20 20 30
20 20 30
20 20 30
20 20 30
20 20 30
20 20 30
20 20 30
20 20 30
20 20 30
20 20 30
20 20 30
20 20 30
20 20 30
20 20 30
20 20 30
20 20 30
20 20 30
20 20 30
20 20 30
20 20 30
20 20 30
20 20 30
20 20 30
20 20 30
20 20 30
20 20 30
20 20 30
20 20 30
20 20 30
20 20 30
20 20 30
20 20 30
20 20 30
20 20 30
20 20 30
20 20 30
20 20 30
20 20 30
20 20 30
20 20 30
20 20 30
20 20 30
20 20 30
20 20 30
20 20 30
20 20 30
20 20 30
20 20 30
20 20 30
20 20 30
20 20 30
20 20 30
20 20 30
20 20 30
20 20 30
20 20 30
20 20 30
20 20 30
20 20 30
20 20 30
20 20 30
20 20 30
20 20 30
20 20 30
20 20 30
20 20 30
20 20 30
20 20 30
20 20 30
20 20 30
100 200 255
100 200 255
100 200 255
100 200 255
100 200 255
20 20 30
20 20 30
20 20 30
20 20 30
20 20 30
20 20 30
20 20 30
20 20 30
20 20 30
20 20 30
20 20 30
20 20 30
20 20 30
20 20 30
20 20 30
20 20 30
20 20 30
20 20 30
20 20 30
20 20 30
20 20 30
20 20 30
20 20 30
20 20 30
20 20 30
20 20 30
20 20 30
20 20 30
20 20 30
20 20 30
20 20 30
20 20 30
20 20 30
20 20 30
20 20 30
20 20 30
20 20 30
20 20 30
20 20 30
20 20 30
20 20 30
20 20 30
20 20 30
20 20 30
20 20 30
20 20 30
20 20 30
20 20 30
20 20 30
20 20 30
20 20 30
20 20 30
20 20 30
20 20 30
20 20 30
20 20 30
20 20 30
20 20 30
20 20 30
20 20 30
20 20 30
20 20 30
20 20 30
20 20 30
20 20 30
20 20 30
20 20 30
20 20 30
20 20 30
20 20 30
20 20 30
20 20 30
20 20 30
20 20 30
20 20 30
100 200 255
100 200 255
100 200 255
100 200 255
100 200 255
20 20 30
20 20 30
20 20 30
20 20 30
20 20 30
20 20 30
20 20 30
20 20 30
20 20 30
20 20 30
20 20 30
20 20 30
20 20 30
20 20 30
20 20 30
20 20 30
20 20 30
20 20 30
20 20 30
20 20 30
20 20 30
20 20 30
20 20 30
20 20 30
20 20 30
20 20 30
20 20 30
20 20 30
20 20 30
20 20 30
20 20 30
20 20 30
20 20 30
20 20 30
20 20 30
20 20 30
20 20 30
20 20 30
20 20 30
20 20 30
20 20 30
20 20 30
20 20 30
20 20 30
20 20 30
20 20 30
20 20 30
20 20 30
20 20 30
20 20 30
20 20 30
20 20 30
20 20 30
20 20 30
20 20 30
20 20 30
20 20 30
20 20 30
20 20 30
20 20 30
20 20 30
20 20 30
20 20 30
20 20 30
20 20 30
20 20 30
20 20 30
20 20 30
20 20 30
20 20 30
20 20 30
20 20 30
20 20 30
20 20 30
100 200 255
100 200 255
100 200 255
100 200 255
100 200 255
20 20 30
20 20 30
20 20 30
20 20 30
20 20 30
20 20 30
20 20 30
20 20 30
20 20 30
20 20 30
20 20 30
20 20 30
20 20 30
20 20 30
20 20 30
20 20 30
20 20 30
20 20 30
20 20 30
20 20 30
20 20 30
20 20 30
20 20 30
20 20 30
20 20 30
20 20 30
20 20 30
20 20 30
20 20 30
20 20 30
20 20 30
20 20 30
20 20 30
20 20 30
20 20 30
20 20 30
20 20 30
20 20 30
20 20 30
20 20 30
20 20 30
20 20 30
20 20 30
20 20 30
20 20 30
20 20 30
20 20 30
20 20 30
20 20 30
20 20 30
20 20 30
20 20 30
20 20 30
20 20 30
20 20 30
20 20 30
20 20 30
20 20 30
20 20 30
20 20 30
20 20 30
20 20 30
20 20 30
20 20 30
20 20 30
20 20 30
20 20 30
20 20 30
20 20 30
20 20 30
20 20 30
20 20 30
20 20 30
20 20 30
20 20 30
20 20 30
20 20 30
100 200 255
100 200 255
100 200 255
100 200 255
100 200 255
20 20 30
20 20 30
20 20 30
20 20 30
20 20 30
20 20 30
20 20 30
20 20 30
20 20 30
20 20 30
20 20 30
20 20 30
20 20 30
20 20 30
20 20 30
20 20 30
20 20 30
20 20 30
20 20 30
20 20 30
20 20 30
20 20 30
20 20 30
20 20 30
20 20 30
20 20 30
20 20 30
20 20 30
20 20 30
20 20 30
20 20 30
20 20 30
20 20 30
20 20 30
20 20 30
20 20 30
20 20 30
20 20 30
20 20 30
20 20 30
20 20 30
20 20 30
20 20 30
20 20 30
20 20 30
20 20 30
20 20 30
20 20 30
20 20 30
20 20 30
20 20 30
20 20 30
20 20 30
20 20 30
20 20 30
20 20 30
20 20 30
20 20 30
20 20 30
20 20 30
20 20 30
20 20 30
20 20 30
20 20 30
20 20 30
20 20 30
20 20 30
20 20 30
20 20 30
20 20 30
20 20 30
20 20 30
100 200 255
100 200 255
100 200 255
100 200 255
100 200 255
20 20 30
20 20 30
20 20 30
20 20 30
20 20 30
20 20 30
20 20 30
20 20 30
20 20 30
20 20 30
20 20 30
20 20 30
20 20 30
20 20 30
20 20 30
20 20 30
20 20 30
20 20 30
20 20 30
20 20 30
20 20 30
20 20 30
20 20 30
20 20 30
20 20 30
20 20 30
20 20 30
20 20 30
20 20 30
20 20 30
20 20 30
20 20 30
20 20 30
20 20 30
20 20 30
20 20 30
20 20 30
20 20 30
20 20 30
20 20 30
20 20 30
20 20 30
20 20 30
20 20 30
20 20 30
20 20 30
20 20 30
20 20 30
20 20 30
20 20 30
20 20 30
20 20 30
20 20 30
20 20 30
20 20 30
20 20 30
20 20 30
20 20 30
20 20 30
20 20 30
20 20 30
20 20 30
20 20 30
20 20 30
20 20 30
20 20 30
20 20 30
20 20 30
20 20 30
20 20 30
20 20 30
20 20 30
20 20 30
20 20 30
20 20 30
20 20 30
20 20 30
20 20 30
20 20 30
100 200 255
100 200 255
100 200 255
100 200 255
100 200 255
20 20 30
20 20 30
20 20 30
20 20 30
20 20 30
20 20 30
20 20 30
20 20 30
20 20 30
20 20 30
20 20 30
20 20 30
20 20 30
20 20 30
20 20 30
20 20 30
20 20 30
20 20 30
20 20 30
20 20 30
20 20 30
20 20 30
20 20 30
20 20 30
20 20 30
20 20 30
20 20 30
20 20 30
20 20 30
20 20 30
20 20 30
20 20 30
20 20 30
20 20 30
20 20 30
20 20 30
20 20 30
20 20 30
20 20 30
20 20 30
20 20 30
20 20 30
20 20 30
20 20 30
20 20 30
20 20 30
20 20 30
20 20 30
20 20 30
20 20 30
20 20 30
20 20 30
20 20 30
20 20 30
20 20 30
20 20 30
20 20 30
20 20 30
20 20 30
20 20 30
20 20 30
20 20 30
20 20 30
20 20 30
20 20 30
20 20 30
20 20 30
20 20 30
20 20 30
20 20 30
100 200 255
100 200 255
100 200 255
100 200 255
100 200 255
20 20 30
20 20 30
20 20 30
20 20 30
20 20 30
20 20 30
20 20 30
20 20 30
20 20 30
20 20 30
20 20 30
20 20 30
20 20 30
20 20 30
20 20 30
20 20 30
20 20 30
20 20 30
20 20 30
20 20 30
20 20 30
20 20 30
20 20 30
20 20 30
20 20 30
20 20 30
20 20 30
20 20 30
20 20 30
20 20 30
20 20 30
20 20 30
20 20 30
20 20 30
20 20 30
20 20 30
20 20 30
20 20 30
20 20 30
20 20 30
20 20 30
20 20 30
20 20 30
20 20 30
20 20 30
20 20 30
20 20 30
20 20 30
20 20 30
20 20 30
20 20 30
20 20 30
20 20 30
20 20 30
20 20 30
20 20 30
20 20 30
20 20 30
20 20 30
20 20 30
20 20 30
20 20 30
20 20 30
20 20 30
20 20 30
20 20 30
20 20 30
20 20 30
20 20 30
20 20 30
20 20 30
20 20 30
20 20 30
20 20 30
20 20 30
20 20 30
20 20 30
20 20 30
20 20 30
20 20 30
20 20 30
100 200 255
100 200 255
100 200 255
100 200 255
100 200 255
20 20 30
20 20 30
20 20 30
20 20 30
20 20 30
20 20 30
20 20 30
20 20 30
20 20 30
20 20 30
20 20 30
20 20 30
20 20 30
20 20 30
20 20 30
20 20 30
20 20 30
20 20 30
20 20 30
20 20 30
20 20 30
20 20 30
20 20 30
20 20 30
20 20 30
20 20 30
20 20 30
20 20 30
20 20 30
20 20 30
20 20 30
20 20 30
20 20 30
20 20 30
20 20 30
20 20 30
20 20 30
20 20 30
20 20 30
20 20 30
20 20 30
20 20 30
20 20 30
20 20 30
20 20 30
20 20 30
20 20 30
20 20 30
20 20 30
20 20 30
20 20 30
20 20 30
20 20 30
20 20 30
20 20 30
20 20 30
20 20 30
20 20 30
20 20 30
20 20 30
20 20 30
20 20 30
20 20 30
20 20 30
20 20 30
20 20 30
20 20 30
20 20 30
100 200 255
100 200 255
100 200 255
100 200 255
100 200 255
20 20 30
20 20 30
20 20 30
20 20 30
20 20 30
20 20 30
20 20 30
20 20 30
20 20 30
20 20 30
20 20 30
20 20 30
20 20 30
20 20 30
20 20 30
20 20 30
20 20 30
20 20 30
20 20 30
20 20 30
20 20 30
20 20 30
20 20 30
20 20 30
20 20 30
20 20 30
20 20 30
20 20 30
20 20 30
20 20 30
20 20 30
20 20 30
20 20 30
20 20 30
20 20 30
20 20 30
20 20 30
20 20 30
20 20 30
20 20 30
20 20 30
20 20 30
20 20 30
20 20 30
20 20 30
20 20 30
20 20 30
20 20 30
20 20 30
20 20 30
20 20 30
20 20 30
20 20 30
20 20 30
20 20 30
20 20 30
20 20 30
20 20 30
20 20 30
20 20 30
20 20 30
20 20 30
20 20 30
20 20 30
20 20 30
20 20 30
20 20 30
20 20 30
20 20 30
20 20 30
20 20 30
20 20 30
20 20 30
20 20 30
20 20 30
20 20 30
20 20 30
20 20 30
20 20 30
20 20 30
20 20 30
20 20 30
20 20 30
100 200 255
100 200 255
100 200 255
100 200 255
100 200 255
20 20 30
20 20 30
20 20 30
20 20 30
20 20 30
20 20 30
20 20 30
20 20 30
20 20 30
20 20 30
20 20 30
20 20 30
20 20 30
20 20 30
20 20 30
20 20 30
20 20 30
20 20 30
20 20 30
20 20 30
20 20 30
20 20 30
20 20 30
20 20 30
20 20 30
20 20 30
20 20 30
20 20 30
20 20 30
20 20 30
20 20 30
20 20 30
20 20 30
20 20 30
20 20 30
20 20 30
20 20 30
20 20 30
20 20 30
20 20 30
20 20 30
20 20 30
20 20 30
20 20 30
20 20 30
20 20 30
20 20 30
20 20 30
20 20 30
20 20 30
20 20 30
20 20 30
20 20 30
20 20 30
20 20 30
20 20 30
20 20 30
20 20 30
20 20 30
20 20 30
20 20 30
20 20 30
20 20 30
20 20 30
20 20 30
20 20 30
100 200 255
100 200 255
100 200 255
100 200 255
100 200 255
20 20 30
20 20 30
20 20 30
20 20 30
20 20 30
20 20 30
20 20 30
20 20 30
20 20 30
20 20 30
20 20 30
20 20 30
20 20 30
20 20 30
20 20 30
20 20 30
20 20 30
20 20 30
20 20 30
20 20 30
20 20 30
20 20 30
20 20 30
20 20 30
20 20 30
20 20 30
20 20 30
20 20 30
20 20 30
20 20 30
20 20 30
20 20 30
20 20 30
20 20 30
20 20 30
20 20 30
20 20 30
20 20 30
20 20 30
20 20 30
20 20 30
20 20 30
20 20 30
20 20 30
20 20 30
20 20 30
20 20 30
20 20 30
20 20 30
20 20 30
20 20 30
20 20 30
20 20 30
20 20 30
20 20 30
20 20 30
20 20 30
20 20 30
20 20 30
20 20 30
20 20 30
20 20 30
20 20 30
20 20 30
20 20 30
20 20 30
20 20 30
20 20 30
20 20 30
20 20 30
20 20 30
20 20 30
20 20 30
20 20 30
20 20 30
20 20 30
20 20 30
20 20 30
20 20 30
20 20 30
20 20 30
20 20 30
20 20 30
20 20 30
20 20 30
100 200 255
100 200 255
100 200 255
100 200 255
255 80 80
255 80 80
255 80 80
255 80 80
255 80 80
255 80 80
255 80 80
20 20 30
20 20 30
20 20 30
20 20 30
20 20 30
20 20 30
20 20 30
20 20 30
20 20 30
20 20 30
20 20 30
20 20 30
20 20 30
20 20 30
20 20 30
20 20 30
20 20 30
20 20 30
20 20 30
20 20 30
20 20 30
20 20 30
20 20 30
20 20 30
20 20 30
20 20 30
20 20 30
20 20 30
20 20 30
20 20 30
20 20 30
20 20 30
20 20 30
20 20 30
20 20 30
20 20 30
20 20 30
20 20 30
20 20 30
20 20 30
20 20 30
20 20 30
20 20 30
20 20 30
20 20 30
20 20 30
20 20 30
20 20 30
20 20 30
20 20 30
20 20 30
20 20 30
20 20 30
20 20 30
20 20 30
20 20 30
20 20 30
20 20 30
100 200 255
100 200 255
100 200 255
100 200 255
100 200 255
20 20 30
20 20 30
20 20 30
20 20 30
20 20 30
20 20 30
20 20 30
20 20 30
20 20 30
20 20 30
20 20 30
20 20 30
20 20 30
20 20 30
20 20 30
20 20 30
20 20 30
20 20 30
20 20 30
20 20 30
20 20 30
20 20 30
20 20 30
20 20 30
20 20 30
20 20 30
20 20 30
20 20 30
20 20 30
20 20 30
20 20 30
20 20 30
20 20 30
20 20 30
20 20 30
20 20 30
20 20 30
20 20 30
20 20 30
20 20 30
20 20 30
20 20 30
20 20 30
20 20 30
20 20 30
20 20 30
20 20 30
20 20 30
20 20 30
20 20 30
20 20 30
20 20 30
20 20 30
20 20 30
20 20 30
20 20 30
20 20 30
20 20 30
20 20 30
20 20 30
20 20 30
20 20 30
20 20 30
20 20 30
20 20 30
20 20 30
20 20 30
20 20 30
20 20 30
20 20 30
20 20 30
20 20 30
20 20 30
20 20 30
20 20 30
20 20 30
20 20 30
20 20 30
20 20 30
20 20 30
20 20 30
20 20 30
20 20 30
20 20 30
20 20 30
20 20 30
20 20 30
100 200 255
100 200 255
255 80 80
255 80 80
255 80 80
255 80 80
255 80 80
255 80 80
255 80 80
255 80 80
255 80 80
20 20 30
20 20 30
20 20 30
20 20 30
20 20 30
20 20 30
20 20 30
20 20 30
20 20 30
20 20 30
20 20 30
20 20 30
20 20 30
20 20 30
20 20 30
20 20 30
20 20 30
20 20 30
20 20 30
20 20 30
20 20 30
20 20 30
20 20 30
20 20 30
20 20 30
20 20 30
20 20 30
20 20 30
20 20 30
20 20 30
20 20 30
20 20 30
20 20 30
20 20 30
20 20 30
20 20 30
20 20 30
20 20 30
20 20 30
20 20 30
20 20 30
20 20 30
20 20 30
20 20 30
20 20 30
20 20 30
20 20 30
20 20 30
20 20 30
20 20 30
20 20 30
20 20 30
20 20 30
20 20 30
20 20 30
20 20 30
100 200 255
100 200 255
100 200 255
100 200 255
100 200 255
20 20 30
20 20 30
20 20 30
20 20 30
20 20 30
20 20 30
20 20 30
20 20 30
20 20 30
20 20 30
20 20 30
20 20 30
20 20 30
20 20 30
20 20 30
20 20 30
20 20 30
20 20 30
20 20 30
20 20 30
20 20 30
20 20 30
20 20 30
20 20 30
20 20 30
20 20 30
20 20 30
20 20 30
20 20 30
20 20 30
20 20 30
20 20 30
20 20 30
20 20 30
20 20 30
20 20 30
20 20 30
20 20 30
20 20 30
20 20 30
20 20 30
20 20 30
20 20 30
20 20 30
20 20 30
20 20 30
20 20 30
20 20 30
20 20 30
20 20 30
20 20 30
20 20 30
20 20 30
20 20 30
20 20 30
20 20 30
20 20 30
20 20 30
20 20 30
20 20 30
20 20 30
20 20 30
20 20 30
20 20 30
20 20 30
20 20 30
20 20 30
20 20 30
20 20 30
20 20 30
20 20 30
20 20 30
20 20 30
20 20 30
20 20 30
20 20 30
20 20 30
20 20 30
20 20 30
20 20 30
20 20 30
20 20 30
20 20 30
20 20 30
20 20 30
20 20 30
20 20 30
20 20 30
20 20 30
255 80 80
255 80 80
255 80 80
255 80 80
255 80 80
255 80 80
255 80 80
255 80 80
255 80 80
255 80 80
255 80 80
20 20 30
20 20 30
20 20 30
20 20 30
20 20 30
20 20 30
20 20 30
20 20 30
20 20 30
20 20 30
20 20 30
20 20 30
20 20 30
20 20 30
20 20 30
20 20 30
20 20 30
20 20 30
20 20 30
20 20 30
20 20 30
20 20 30
20 20 30
20 20 30
20 20 30
20 20 30
20 20 30
20 20 30
20 20 30
20 20 30
20 20 30
20 20 30
20 20 30
20 20 30
20 20 30
20 20 30
20 20 30
20 20 30
20 20 30
20 20 30
20 20 30
20 20 30
20 20 30
20 20 30
20 20 30
20 20 30
20 20 30
20 20 30
20 20 30
20 20 30
20 20 30
20 20 30
20 20 30
20 20 30
100 200 255
100 200 255
100 200 255
100 200 255
100 200 255
20 20 30
20 20 30
20 20 30
20 20 30
20 20 30
20 20 30
20 20 30
20 20 30
20 20 30
20 20 30
20 20 30
20 20 30
20 20 30
20 20 30
20 20 30
20 20 30
20 20 30
20 20 30
20 20 30
20 20 30
20 20 30
20 20 30
20 20 30
20 20 30
20 20 30
20 20 30
20 20 30
20 20 30
20 20 30
20 20 30
20 20 30
20 20 30
20 20 30
20 20 30
20 20 30
20 20 30
20 20 30
20 20 30
20 20 30
20 20 30
20 20 30
20 20 30
20 20 30
20 20 30
20 20 30
20 20 30
20 20 30
20 20 30
20 20 30
20 20 30
20 20 30
20 20 30
20 20 30
20 20 30
20 20 30
20 20 30
20 20 30
20 20 30
20 20 30
20 20 30
20 20 30
20 20 30
20 20 30
20 20 30
20 20 30
20 20 30
20 20 30
20 20 30
20 20 30
20 20 30
20 20 30
20 20 30
20 20 30
20 20 30
20 20 30
20 20 30
20 20 30
20 20 30
20 20 30
20 20 30
20 20 30
20 20 30
20 20 30
20 20 30
20 20 30
20 20 30
20 20 30
20 20 30
20 20 30
20 20 30
255 80 80
255 80 80
255 80 80
255 80 80
255 80 80
255 80 80
255 80 80
255 80 80
255 80 80
255 80 80
255 80 80
20 20 30
20 20 30
20 20 30
20 20 30
20 20 30
20 20 30
20 20 30
20 20 30
20 20 30
20 20 30
20 20 30
20 20 30
20 20 30
20 20 30
20 20 30
20 20 30
20 20 30
20 20 30
20 20 30
20 20 30
20 20 30
20 20 30
20 20 30
20 20 30
20 20 30
20 20 30
20 20 30
20 20 30
20 20 30
20 20 30
20 20 30
20 20 30
20 20 30
20 20 30
20 20 30
20 20 30
20 20 30
20 20 30
20 20 30
20 20 30
20 20 30
20 20 30
20 20 30
20 20 30
20 20 30
20 20 30
20 20 30
20 20 30
20 20 30
20 20 30
20 20 30
20 20 30
20 20 30
100 200 255
100 200 255
100 200 255
100 200 255
100 200 255
20 20 30
20 20 30
20 20 30
20 20 30
20 20 30
20 20 30
20 20 30
20 20 30
20 20 30
20 20 30
20 20 30
20 20 30
20 20 30
20 20 30
20 20 30
20 20 30
20 20 30
20 20 30
20 20 30
20 20 30
20 20 30
20 20 30
20 20 30
20 20 30
20 20 30
20 20 30
20 20 30
20 20 30
20 20 30
20 20 30
20 20 30
20 20 30
20 20 30
20 20 30
20 20 30
20 20 30
20 20 30
20 20 30
20 20 30
20 20 30
20 20 30
20 20 30
20 20 30
20 20 30
20 20 30
20 20 30
20 20 30
20 20 30
20 20 30
20 20 30
20 20 30
20 20 30
20 20 30
20 20 30
20 20 30
20 20 30
20 20 30
20 20 30
20 20 30
20 20 30
20 20 30
20 20 30
20 20 30
20 20 30
20 20 30
20 20 30
20 20 30
20 20 30
20 20 30
20 20 30
20 20 30
20 20 30
20 20 30
20 20 30
20 20 30
20 20 30
20 20 30
20 20 30
20 20 30
20 20 30
20 20 30
20 20 30
20 20 30
20 20 30
20 20 30
20 20 30
20 20 30
20 20 30
20 20 30
20 20 30
20 20 30
255 80 80
255 80 80
255 80 80
255 80 80
255 80 80
255 80 80
255 80 80
255 80 80
255 80 80
255 80 80
255 80 80
20 20 30
20 20 30
20 20 30
20 20 30
20 20 30
20 20 30
20 20 30
20 20 30
20 20 30
20 20 30
20 20 30
20 20 30
20 20 30
20 20 30
20 20 30
20 20 30
20 20 30
20 20 30
20 20 30
20 20 30
20 20 30
20 20 30
20 20 30
20 20 30
20 20 30
20 20 30
20 20 30
20 20 30
20 20 30
20 20 30
20 20 30
20 20 30
20 20 30
20 20 30
20 20 30
20 20 30
20 20 30
20 20 30
20 20 30
20 20 30
20 20 30
20 20 30
20 20 30
20 20 30
20 20 30
20 20 30
20 20 30
20 20 30
20 20 30
20 20 30
20 20 30
20 20 30
20 20 30
100 200 255
100 200 255
100 200 255
100 200 255
20 20 30
20 20 30
20 20 30
20 20 30
20 20 30
20 20 30
20 20 30
20 20 30
20 20 30
20 20 30
20 20 30
20 20 30
20 20 30
20 20 30
20 20 30
20 20 30
20 20 30
20 20 30
20 20 30
20 20 30
20 20 30
20 20 30
20 20 30
20 20 30
20 20 30
20 20 30
20 20 30
20 20 30
20 20 30
20 20 30
20 20 30
20 20 30
20 20 30
20 20 30
20 20 30
20 20 30
20 20 30
20 20 30
20 20 30
20 20 30
20 20 30
20 20 30
20 20 30
20 20 30
20 20 30
20 20 30
20 20 30
20 20 30
20 20 30
20 20 30
20 20 30
20 20 30
20 20 30
20 20 30
20 20 30
20 20 30
20 20 30
20 20 30
20 20 30
20 20 30
20 20 30
20 20 30
20 20 30
20 20 30
20 20 30
20 20 30
20 20 30
20 20 30
20 20 30
20 20 30
20 20 30
20 20 30
20 20 30
20 20 30
20 20 30
20 20 30
20 20 30
20 20 30
20 20 30
20 20 30
20 20 30
20 20 30
20 20 30
20 20 30
20 20 30
20 20 30
20 20 30
20 20 30
20 20 30
20 20 30
20 20 30
20 20 30
255 80 80
255 80 80
255 80 80
255 80 80
255 80 80
255 80 80
255 80 80
255 80 80
255 80 80
255 80 80
255 80 80
20 20 30
20 20 30
20 20 30
20 20 30
20 20 30
20 20 30
20 20 30
20 20 30
20 20 30
20 20 30
20 20 30
20 20 30
20 20 30
20 20 30
20 20 30
20 20 30
20 20 30
20 20 30
20 20 30
20 20 30
20 20 30
20 20 30
20 20 30
20 20 30
20 20 30
20 20 30
20 20 30
20 20 30
20 20 30
20 20 30
20 20 30
20 20 30
20 20 30
20 20 30
20 20 30
20 20 30
20 20 30
20 20 30
20 20 30
20 20 30
20 20 30
20 20 30
20 20 30
20 20 30
20 20 30
20 20 30
20 20 30
20 20 30
20 20 30
20 20 30
20 20 30
20 20 30
20 20 30
100 200 255
100 200 255
100 200 255
20 20 30
20 20 30
20 20 30
20 20 30
20 20 30
20 20 30
20 20 30
20 20 30
20 20 30
20 20 30
20 20 30
20 20 30
20 20 30
20 20 30
20 20 30
20 20 30
20 20 30
20 20 30
20 20 30
20 20 30
20 20 30
20 20 30
20 20 30
20 20 30
20 20 30
20 20 30
20 20 30
20 20 30
20 20 30
20 20 30
20 20 30
20 20 30
20 20 30
20 20 30
20 20 30
20 20 30
20 20 30
20 20 30
20 20 30
20 20 30
20 20 30
20 20 30
20 20 30
20 20 30
20 20 30
20 20 30
20 20 30
20 20 30
20 20 30
20 20 30
20 20 30
20 20 30
20 20 30
20 20 30
20 20 30
20 20 30
20 20 30
20 20 30
20 20 30
20 20 30
20 20 30
20 20 30
20 20 30
20 20 30
20 20 30
20 20 30
20 20 30
20 20 30
20 20 30
20 20 30
20 20 30
20 20 30
20 20 30
20 20 30
20 20 30
20 20 30
20 20 30
20 20 30
20 20 30
20 20 30
20 20 30
20 20 30
20 20 30
20 20 30
20 20 30
20 20 30
20 20 30
20 20 30
20 20 30
20 20 30
20 20 30
20 20 30
20 20 30
255 80 80
255 80 80
255 80 80
255 80 80
255 80 80
255 80 80
255 80 80
255 80 80
255 80 80
255 80 80
255 80 80
20 20 30
20 20 30
20 20 30
20 20 30
20 20 30
20 20 30
20 20 30
20 20 30
20 20 30
20 20 30
20 20 30
20 20 30
20 20 30
20 20 30
20 20 30
20 20 30
20 20 30
20 20 30
20 20 30
20 20 30
20 20 30
20 20 30
20 20 30
20 20 30
20 20 30
20 20 30
20 20 30
20 20 30
20 20 30
20 20 30
20 20 30
20 20 30
20 20 30
20 20 30
20 20 30
20 20 30
20 20 30
20 20 30
20 20 30
20 20 30
20 20 30
20 20 30
20 20 30
20 20 30
20 20 30
20 20 30
20 20 30
20 20 30
20 20 30
20 20 30
20 20 30
20 20 30
20 20 30
20 20 30
20 20 30
20 20 30
20 20 30
20 20 30
20 20 30
20 20 30
20 20 30
20 20 30
20 20 30
20 20 30
20 20 30
20 20 30
20 20 30
20 20 30
20 20 30
20 20 30
20 20 30
20 20 30
20 20 30
20 20 30
20 20 30
20 20 30
20 20 30
20 20 30
20 20 30
20 20 30
20 20 30
20 20 30
20 20 30
20 20 30
20 20 30
20 20 30
20 20 30
20 20 30
20 20 30
20 20 30
20 20 30
20 20 30
20 20 30
20 20 30
20 20 30
20 20 30
20 20 30
20 20 30
20 20 30
20 20 30
20 20 30
20 20 30
20 20 30
20 20 30
20 20 30
20 20 30
20 20 30
20 20 30
20 20 30
20 20 30
20 20 30
20 20 30
20 20 30
20 20 30
20 20 30
20 20 30
20 20 30
20 20 30
20 20 30
20 20 30
20 20 30
20 20 30
20 20 30
20 20 30
20 20 30
20 20 30
20 20 30
20 20 30
20 20 30
20 20 30
20 20 30
20 20 30
20 20 30
20 20 30
20 20 30
20 20 30
20 20 30
20 20 30
20 20 30
20 20 30
20 20 30
20 20 30
20 20 30
20 20 30
20 20 30
20 20 30
20 20 30
20 20 30
20 20 30
255 80 80
255 80 80
255 80 80
255 80 80
255 80 80
255 80 80
255 80 80
255 80 80
255 80 80
255 80 80
255 80 80
20 20 30
20 20 30
20 20 30
20 20 30
20 20 30
20 20 30
20 20 30
20 20 30
20 20 30
20 20 30
20 20 30
20 20 30
20 20 30
20 20 30
20 20 30
20 20 30
20 20 30
20 20 30
20 20 30
20 20 30
20 20 30
20 20 30
20 20 30
20 20 30
20 20 30
20 20 30
20 20 30
20 20 30
20 20 30
20 20 30
20 20 30
20 20 30
20 20 30
20 20 30
20 20 30
20 20 30
20 20 30
20 20 30
20 20 30
20 20 30
20 20 30
20 20 30
20 20 30
20 20 30
20 20 30
20 20 30
20 20 30
20 20 30
20 20 30
20 20 30
20 20 30
20 20 30
20 20 30
20 20 30
20 20 30
20 20 30
20 20 30
20 20 30
20 20 30
20 20 30
20 20 30
20 20 30
20 20 30
20 20 30
20 20 30
20 20 30
20 20 30
20 20 30
20 20 30
20 20 30
20 20 30
20 20 30
20 20 30
20 20 30
20 20 30
20 20 30
20 20 30
20 20 30
20 20 30
20 20 30
20 20 30
20 20 30
20 20 30
20 20 30
20 20 30
20 20 30
20 20 30
20 20 30
20 20 30
20 20 30
20 20 30
20 20 30
20 20 30
20 20 30
20 20 30
20 20 30
20 20 30
20 20 30
20 20 30
20 20 30
20 20 30
20 20 30
20 20 30
20 20 30
20 20 30
20 20 30
20 20 30
20 20 30
20 20 30
20 20 30
20 20 30
20 20 30
20 20 30
20 20 30
20 20 30
20 20 30
20 20 30
20 20 30
20 20 30
20 20 30
20 20 30
20 20 30
20 20 30
20 20 30
20 20 30
20 20 30
20 20 30
20 20 30
20 20 30
20 20 30
20 20 30
20 20 30
20 20 30
20 20 30
20 20 30
20 20 30
20 20 30
20 20 30
20 20 30
20 20 30
20 20 30
20 20 30
20 20 30
20 20 30
20 20 30
20 20 30
20 20 30
20 20 30
20 20 30
255 80 80
255 80 80
255 80 80
255 80 80
255 80 80
255 80 80
255 80 80
255 80 80
255 80 80
255 80 80
255 80 80
20 20 30
20 20 30
20 20 30
20 20 30
20 20 30
20 20 30
20 20 30
20 20 30
20 20 30
20 20 30
20 20 30
20 20 30
20 20 30
20 20 30
20 20 30
20 20 30
20 20 30
20 20 30
20 20 30
20 20 30
20 20 30
20 20 30
20 20 30
20 20 30
20 20 30
20 20 30
20 20 30
20 20 30
20 20 30
20 20 30
20 20 30
20 20 30
20 20 30
20 20 30
20 20 30
20 20 30
20 20 30
20 20 30
20 20 30
20 20 30
20 20 30
20 20 30
20 20 30
20 20 30
20 20 30
20 20 30
20 20 30
20 20 30
20 20 30
20 20 30
20 20 30
20 20 30
20 20 30
20 20 30
20 20 30
20 20 30
20 20 30
20 20 30
20 20 30
20 20 30
20 20 30
20 20 30
20 20 30
20 20 30
20 20 30
20 20 30
20 20 30
20 20 30
20 20 30
20 20 30
20 20 30
20 20 30
20 20 30
20 20 30
20 20 30
20 20 30
20 20 30
20 20 30
20 20 30
20 20 30
20 20 30
20 20 30
20 20 30
20 20 30
20 20 30
20 20 30
20 20 30
20 20 30
20 20 30
20 20 30
20 20 30
20 20 30
20 20 30
20 20 30
20 20 30
20 20 30
20 20 30
20 20 30
20 20 30
20 20 30
20 20 30
20 20 30
20 20 30
20 20 30
20 20 30
20 20 30
20 20 30
20 20 30
20 20 30
20 20 30
20 20 30
20 20 30
20 20 30
20 20 30
20 20 30
20 20 30
20 20 30
20 20 30
20 20 30
20 20 30
20 20 30
20 20 30
20 20 30
20 20 30
20 20 30
20 20 30
20 20 30
20 20 30
20 20 30
20 20 30
20 20 30
20 20 30
20 20 30
20 20 30
20 20 30
20 20 30
20 20 30
20 20 30
20 20 30
20 20 30
20 20 30
20 20 30
20 20 30
20 20 30
20 20 30
20 20 30
20 20 30
20 20 30
20 20 30
20 20 30
255 80 80
255 80 80
255 80 80
255 80 80
255 80 80
255 80 80
255 80 80
255 80 80
255 80 80
20 20 30
20 20 30
20 20 30
20 20 30
20 20 30
20 20 30
20 20 30
20 20 30
20 20 30
20 20 30
20 20 30
20 20 30
20 20 30
20 20 30
20 20 30
20 20 30
20 20 30
20 20 30
20 20 30
20 20 30
20 20 30
20 20 30
20 20 30
20 20 30
20 20 30
20 20 30
20 20 30
20 20 30
20 20 30
20 20 30
20 20 30
20 20 30
20 20 30
20 20 30
20 20 30
20 20 30
20 20 30
20 20 30
20 20 30
20 20 30
20 20 30
20 20 30
20 20 30
20 20 30
20 20 30
20 20 30
20 20 30
20 20 30
20 20 30
20 20 30
20 20 30
20 20 30
20 20 30
20 20 30
20 20 30
20 20 30
20 20 30
20 20 30
20 20 30
20 20 30
20 20 30
20 20 30
20 20 30
20 20 30
20 20 30
20 20 30
20 20 30
20 20 30
20 20 30
20 20 30
20 20 30
20 20 30
20 20 30
20 20 30
20 20 30
20 20 30
20 20 30
20 20 30
20 20 30
20 20 30
20 20 30
20 20 30
20 20 30
20 20 30
20 20 30
20 20 30
20 20 30
20 20 30
20 20 30
20 20 30
20 20 30
20 20 30
20 20 30
20 20 30
20 20 30
20 20 30
20 20 30
20 20 30
20 20 30
20 20 30
20 20 30
20 20 30
20 20 30
20 20 30
20 20 30
20 20 30
20 20 30
20 20 30
20 20 30
20 20 30
20 20 30
20 20 30
20 20 30
20 20 30
20 20 30
20 20 30
20 20 30
20 20 30
20 20 30
20 20 30
20 20 30
20 20 30
20 20 30
20 20 30
20 20 30
20 20 30
20 20 30
20 20 30
20 20 30
20 20 30
20 20 30
20 20 30
20 20 30
20 20 30
20 20 30
20 20 30
20 20 30
20 20 30
20 20 30
20 20 30
20 20 30
20 20 30
20 20 30
20 20 30
20 20 30
20 20 30
20 20 30
20 20 30
20 20 30
20 20 30
20 20 30
20 20 30
255 80 80
255 80 80
255 80 80
255 80 80
255 80 80
255 80 80
255 80 80
20 20 30
20 20 30
20 20 30
20 20 30
20 20 30
20 20 30
20 20 30
20 20 30
20 20 30
20 20 30
20 20 30
20 20 30
20 20 30
20 20 30
20 20 30
20 20 30
20 20 30
20 20 30
20 20 30
20 20 30
20 20 30
20 20 30
20 20 30
20 20 30
20 20 30
20 20 30
20 20 30
20 20 30
20 20 30
20 20 30
20 20 30
20 20 30
20 20 30
20 20 30
20 20 30
20 20 30
20 20 30
20 20 30
20 20 30
20 20 30
20 20 30
20 20 30
20 20 30
20 20 30
20 20 30
20 20 30
20 20 30
20 20 30
20 20 30
20 20 30
20 20 30
20 20 30
20 20 30
20 20 30
20 20 30
20 20 30
20 20 30
20 20 30
20 20 30
20 20 30
20 20 30
20 20 30
20 20 30
20 20 30
20 20 30
20 20 30
20 20 30
20 20 30
20 20 30
20 20 30
20 20 30
20 20 30
20 20 30
20 20 30
20 20 30
20 20 30
20 20 30
20 20 30
20 20 30
20 20 30
20 20 30
20 20 30
20 20 30
20 20 30
20 20 30
20 20 30
20 20 30
20 20 30
20 20 30
20 20 30
20 20 30
20 20 30
20 20 30
20 20 30
20 20 30
20 20 30
20 20 30
20 20 30
20 20 30
20 20 30
20 20 30
20 20 30
20 20 30
20 20 30
20 20 30
20 20 30
20 20 30
20 20 30
20 20 30
20 20 30
20 20 30
20 20 30
20 20 30
20 20 30
20 20 30
20 20 30
20 20 30
20 20 30
20 20 30
20 20 30
20 20 30
20 20 30
20 20 30
20 20 30
20 20 30
20 20 30
20 20 30
20 20 30
20 20 30
20 20 30
20 20 30
20 20 30
20 20 30
20 20 30
20 20 30
20 20 30
20 20 30
20 20 30
20 20 30
20 20 30
20 20 30
20 20 30
20 20 30
20 20 30
20 20 30
20 20 30
20 20 30
20 20 30
20 20 30
20 20 30
20 20 30
20 20 30
20 20 30
20 20 30
20 20 30
20 20 30
20 20 30
20 20 30
20 20 30
20 20 30
20 20 30
20 20 30
20 20 30
20 20 30
20 20 30
20 20 30
20 20 30
20 20 30
20 20 30
20 20 30
20 20 30
20 20 30
20 20 30
20 20 30
20 20 30
20 20 30
20 20 30
20 20 30
20 20 30
20 20 30
20 20 30
20 20 30
20 20 30
20 20 30
20 20 30
20 20 30
20 20 30
20 20 30
20 20 30
20 20 30
20 20 30
20 20 30
20 20 30
20 20 30
20 20 30
20 20 30
20 20 30
20 20 30
20 20 30
20 20 30
20 20 30
20 20 30
20 20 30
20 20 30
20 20 30
20 20 30
20 20 30
20 20 30
20 20 30
20 20 30
20 20 30
20 20 30
20 20 30
20 20 30
20 20 30
20 20 30
20 20 30
20 20 30
20 20 30
20 20 30
20 20 30
20 20 30
20 20 30
20 20 30
20 20 30
20 20 30
20 20 30
20 20 30
20 20 30
20 20 30
20 20 30
20 20 30
20 20 30
20 20 30
20 20 30
20 20 30
20 20 30
20 20 30
20 20 30
20 20 30
20 20 30
20 20 30
20 20 30
20 20 30
20 20 30
20 20 30
20 20 30
20 20 30
20 20 30
20 20 30
20 20 30
20 20 30
20 20 30
20 20 30
20 20 30
20 20 30
20 20 30
20 20 30
20 20 30
20 20 30
20 20 30
20 20 30
20 20 30
20 20 30
20 20 30
20 20 30
20 20 30
20 20 30
20 20 30
20 20 30
20 20 30
20 20 30
20 20 30
20 20 30
20 20 30
20 20 30
20 20 30
20 20 30
20 20 30
20 20 30
20 20 30
20 20 30
20 20 30
20 20 30
20 20 30
20 20 30
20 20 30
20 20 30
20 20 30
20 20 30
20 20 30
20 20 30
20 20 30
20 20 30
20 20 30
20 20 30
20 20 30
20 20 30
20 20 30
20 20 30
20 20 30
20 20 30
20 20 30
20 20 30
20 20 30
20 20 30
20 20 30
20 20 30
20 20 30
20 20 30
20 20 30
20 20 30
20 20 30
20 20 30
20 20 30
20 20 30
20 20 30
20 20 30
20 20 30
20 20 30
20 20 30
20 20 30
20 20 30
20 20 30
20 20 30
20 20 30
20 20 30
20 20 30
20 20 30
20 20 30
20 20 30
20 20 30
20 20 30
20 20 30
20 20 30
20 20 30
20 20 30
20 20 30
20 20 30
20 20 30
20 20 30
20 20 30
20 20 30
20 20 30
20 20 30
20 20 30
20 20 30
20 20 30
20 20 30
20 20 30
20 20 30
20 20 30
20 20 30
20 20 30
20 20 30
20 20 30
20 20 30
20 20 30
20 20 30
20 20 30
20 20 30
20 20 30
20 20 30
20 20 30
20 20 30
20 20 30
20 20 30
20 20 30
20 20 30
20 20 30
20 20 30
20 20 30
20 20 30
20 20 30
20 20 30
20 20 30
20 20 30
20 20 30
20 20 30
20 20 30
20 20 30
20 20 30
20 20 30
20 20 30
20 20 30
20 20 30
20 20 30
20 20 30
20 20 30
20 20 30
20 20 30
20 20 30
20 20 30
20 20 30
20 20 30
20 20 30
20 20 30
20 20 30
20 20 30
20 20 30
20 20 30
20 20 30
20 20 30
20 20 30
20 20 30
20 20 30
20 20 30
20 20 30
20 20 30
20 20 30
20 20 30
20 20 30
20 20 30
20 20 30
20 20 30
20 20 30
20 20 30
20 20 30
20 20 30
20 20 30
20 20 30
20 20 30
20 20 30
20 20 30
20 20 30
20 20 30
20 20 30
20 20 30
20 20 30
20 20 30
20 20 30
20 20 30
20 20 30
20 20 30
20 20 30
20 20 30
20 20 30
20 20 30
20 20 30
20 20 30
20 20 30
20 20 30
20 20 30
20 20 30
20 20 30
20 20 30
20 20 30
20 20 30
20 20 30
20 20 30
20 20 30
20 20 30
20 20 30
20 20 30
20 20 30
20 20 30
20 20 30
20 20 30
20 20 30
20 20 30
20 20 30
20 20 30
20 20 30
20 20 30
20 20 30
20 20 30
20 20 30
20 20 30
20 20 30
20 20 30
20 20 30
20 20 30
20 20 30
20 20 30
20 20 30
20 20 30
20 20 30
20 20 30
20 20 30
20 20 30
20 20 30
20 20 30
20 20 30
20 20 30
20 20 30
20 20 30
20 20 30
20 20 30
20 20 30
20 20 30
20 20 30
20 20 30
20 20 30
20 20 30
20 20 30
20 20 30
20 20 30
20 20 30
20 20 30
20 20 30
20 20 30
20 20 30
20 20 30
20 20 30
20 20 30
20 20 30
20 20 30
20 20 30
20 20 30
20 20 30
20 20 30
20 20 30
20 20 30
20 20 30
20 20 30
20 20 30
20 20 30
20 20 30
20 20 30
20 20 30
20 20 30
20 20 30
20 20 30
20 20 30
20 20 30
20 20 30
20 20 30
20 20 30
20 20 30
20 20 30
20 20 30
20 20 30
20 20 30
20 20 30
20 20 30
20 20 30
20 20 30
20 20 30
20 20 30
20 20 30
20 20 30
20 20 30
20 20 30
20 20 30
20 20 30
20 20 30
20 20 30
20 20 30
20 20 30
20 20 30
20 20 30
20 20 30
20 20 30
20 20 30
20 20 30
20 20 30
20 20 30
20 20 30
20 20 30
20 20 30
20 20 30
20 20 30
20 20 30
20 20 30
20 20 30
20 20 30
20 20 30
20 20 30
20 20 30
20 20 30
20 20 30
20 20 30
20 20 30
20 20 30
20 20 30
20 20 30
20 20 30
20 20 30
20 20 30
20 20 30
20 20 30
20 20 30
20 20 30
20 20 30
20 20 30
20 20 30
20 20 30
20 20 30
20 20 30
20 20 30
20 20 30
20 20 30
20 20 30
20 20 30
20 20 30
20 20 30
20 20 30
20 20 30
20 20 30
20 20 30
20 20 30
20 20 30
20 20 30
20 20 30
20 20 30
20 20 30
20 20 30
20 20 30
20 20 30
20 20 30
20 20 30
20 20 30
20 20 30
20 20 30
20 20 30
20 20 30
20 20 30
20 20 30
20 20 30
20 20 30
20 20 30
20 20 30
20 20 30
20 20 30
20 20 30
20 20 30
20 20 30
20 20 30
20 20 30
20 20 30
20 20 30
20 20 30
20 20 30
20 20 30
20 20 30
20 20 30
20 20 30
20 20 30
20 20 30
20 20 30
20 20 30
20 20 30
20 20 30
20 20 30
20 20 30
20 20 30
20 20 30
20 20 30
20 20 30
20 20 30
20 20 30
20 20 30
20 20 30
20 20 30
20 20 30
20 20 30
20 20 30
20 20 30
20 20 30
20 20 30
20 20 30
20 20 30
20 20 30
20 20 30
20 20 30
20 20 30
20 20 30
20 20 30
20 20 30
20 20 30
20 20 30
20 20 30
20 20 30
20 20 30
20 20 30
20 20 30
20 20 30
20 20 30
20 20 30
20 20 30
20 20 30
20 20 30
20 20 30
20 20 30
20 20 30
20 20 30
20 20 30
20 20 30
20 20 30
20 20 30
20 20 30
20 20 30
20 20 30
20 20 30
20 20 30
20 20 30
20 20 30
20 20 30
20 20 30
20 20 30
20 20 30
20 20 30
20 20 30
20 20 30
20 20 30
20 20 30
20 20 30
20 20 30
20 20 30
20 20 30
20 20 30
20 20 30
20 20 30
20 20 30
20 20 30
20 20 30
20 20 30
20 20 30
20 20 30
20 20 30
20 20 30
20 20 30
20 20 30
20 20 30
20 20 30
20 20 30
20 20 30
20 20 30
20 20 30
20 20 30
20 20 30
20 20 30
20 20 30
20 20 30
20 20 30
20 20 30
20 20 30
20 20 30
20 20 30
20 20 30
20 20 30
20 20 30
20 20 30
20 20 30
20 20 30
20 20 30
20 20 30
20 20 30
20 20 30
20 20 30
20 20 30
20 20 30
20 20 30
20 20 30
20 20 30
20 20 30
20 20 30
20 20 30
20 20 30
20 20 30
20 20 30
20 20 30
20 20 30
20 20 30
20 20 30
20 20 30
20 20 30
20 20 30
20 20 30
20 20 30
20 20 30
20 20 30
20 20 30
20 20 30
20 20 30
20 20 30
20 20 30
20 20 30
20 20 30
20 20 30
20 20 30
20 20 30
20 20 30
20 20 30
20 20 30
20 20 30
20 20 30
20 20 30
20 20 30
20 20 30
20 20 30
20 20 30
20 20 30
20 20 30
20 20 30
20 20 30
20 20 30
20 20 30
20 20 30
20 20 30
20 20 30
20 20 30
20 20 30
20 20 30
20 20 30
20 20 30
20 20 30
20 20 30
20 20 30
20 20 30
20 20 30
20 20 30
20 20 30
20 20 30
20 20 30
20 20 30
20 20 30
20 20 30
20 20 30
20 20 30
20 20 30
20 20 30
20 20 30
20 20 30
20 20 30
20 20 30
20 20 30
20 20 30
20 20 30
20 20 30
20 20 30
20 20 30
20 20 30
20 20 30
20 20 30
20 20 30
20 20 30
20 20 30
20 20 30
20 20 30
20 20 30
20 20 30
20 20 30
20 20 30
20 20 30
20 20 30
20 20 30
20 20 30
20 20 30
20 20 30
20 20 30
20 20 30
20 20 30
20 20 30
20 20 30
20 20 30
20 20 30
20 20 30
20 20 30
20 20 30
20 20 30
20 20 30
20 20 30
20 20 30
20 20 30
20 20 30
20 20 30
20 20 30
20 20 30
20 20 30
20 20 30
20 20 30
20 20 30
20 20 30
20 20 30
20 20 30
20 20 30
20 20 30
20 20 30
20 20 30
20 20 30
20 20 30
20 20 30
20 20 30
20 20 30
20 20 30
20 20 30
20 20 30
20 20 30
20 20 30
20 20 30
20 20 30
20 20 30
20 20 30
20 20 30
20 20 30
20 20 30
20 20 30
20 20 30
20 20 30
20 20 30
20 20 30
20 20 30
20 20 30
20 20 30
20 20 30
20 20 30
20 20 30
20 20 30
20 20 30
20 20 30
20 20 30
20 20 30
20 20 30
20 20 30
20 20 30
20 20 30
20 20 30
20 20 30
20 20 30
20 20 30
20 20 30
20 20 30
20 20 30
20 20 30
20 20 30
20 20 30
20 20 30
20 20 30
20 20 30
20 20 30
20 20 30
20 20 30
20 20 30
20 20 30
20 20 30
20 20 30
20 20 30
20 20 30
20 20 30
20 20 30
20 20 30
20 20 30
20 20 30
20 20 30
20 20 30
20 20 30
20 20 30
20 20 30
20 20 30
20 20 30
20 20 30
20 20 30
20 20 30
20 20 30
20 20 30
20 20 30
20 20 30
20 20 30
20 20 30
20 20 30
20 20 30
20 20 30
20 20 30
20 20 30
20 20 30
20 20 30
20 20 30
20 20 30
20 20 30
20 20 30
20 20 30
20 20 30
20 20 30
20 20 30
20 20 30
20 20 30
20 20 30
20 20 30
20 20 30
20 20 30
20 20 30
20 20 30
20 20 30
20 20 30
20 20 30
20 20 30
20 20 30
20 20 30
20 20 30
20 20 30
20 20 30
20 20 30
20 20 30
20 20 30
20 20 30
20 20 30
20 20 30
20 20 30
20 20 30
20 20 30
20 20 30
20 20 30
20 20 30
20 20 30
20 20 30
20 20 30
20 20 30
20 20 30
20 20 30
20 20 30
20 20 30
20 20 30
20 20 30
20 20 30
20 20 30
20 20 30
20 20 30
20 20 30
20 20 30
20 20 30
20 20 30
20 20 30
20 20 30
20 20 30
20 20 30
20 20 30
20 20 30
20 20 30
20 20 30
20 20 30
20 20 30
20 20 30
20 20 30
20 20 30
20 20 30
20 20 30
20 20 30
20 20 30
20 20 30
20 20 30
20 20 30
20 20 30
20 20 30
20 20 30
20 20 30
20 20 30
20 20 30
20 20 30
20 20 30
20 20 30
20 20 30
20 20 30
20 20 30
20 20 30
20 20 30
20 20 30
20 20 30
20 20 30
20 20 30
20 20 30
20 20 30
20 20 30
20 20 30
20 20 30
20 20 30
20 20 30
20 20 30
20 20 30
20 20 30
20 20 30
20 20 30
20 20 30
20 20 30
20 20 30
20 20 30
20 20 30
20 20 30
20 20 30
20 20 30
20 20 30
20 20 30
20 20 30
20 20 30
20 20 30
20 20 30
20 20 30
20 20 30
20 20 30
20 20 30
20 20 30
20 20 30
20 20 30
20 20 30
20 20 30
20 20 30
20 20 30
20 20 30
20 20 30
20 20 30
20 20 30
20 20 30
20 20 30
20 20 30
20 20 30
20 20 30
20 20 30
20 20 30
20 20 30
20 20 30
20 20 30
20 20 30
20 20 30
20 20 30
20 20 30
20 20 30
20 20 30
20 20 30
20 20 30
20 20 30
20 20 30
20 20 30
20 20 30
20 20 30
20 20 30
20 20 30
20 20 30
20 20 30
20 20 30
20 20 30
20 20 30
20 20 30
20 20 30
20 20 30
20 20 30
20 20 30
20 20 30
20 20 30
20 20 30
20 20 30
20 20 30
20 20 30
20 20 30
20 20 30
20 20 30
20 20 30
20 20 30
20 20 30
20 20 30
20 20 30
20 20 30
20 20 30
20 20 30
20 20 30
20 20 30
20 20 30
20 20 30
20 20 30
20 20 30
20 20 30
20 20 30
20 20 30
20 20 30
20 20 30
20 20 30
20 20 30
20 20 30
20 20 30
20 20 30
20 20 30
20 20 30
20 20 30
20 20 30
20 20 30
20 20 30
20 20 30
20 20 30
20 20 30
20 20 30
20 20 30
20 20 30
20 20 30
20 20 30
20 20 30
20 20 30
20 20 30
20 20 30
20 20 30
20 20 30
20 20 30
20 20 30
20 20 30
20 20 30
20 20 30
20 20 30
20 20 30
20 20 30
20 20 30
20 20 30
20 20 30
20 20 30
20 20 30
20 20 30
20 20 30
20 20 30
20 20 30
20 20 30
20 20 30
20 20 30
20 20 30
20 20 30
20 20 30
20 20 30
20 20 30
20 20 30
20 20 30
20 20 30
20 20 30
20 20 30
20 20 30
20 20 30
20 20 30
20 20 30
20 20 30
20 20 30
20 20 30
20 20 30
20 20 30
20 20 30
20 20 30
20 20 30
20 20 30
20 20 30
20 20 30
20 20 30
20 20 30
20 20 30
20 20 30
20 20 30
20 20 30
20 20 30
20 20 30
20 20 30
20 20 30
20 20 30
20 20 30
20 20 30
20 20 30
20 20 30
20 20 30
20 20 30
20 20 30
20 20 30
20 20 30
20 20 30
20 20 30
20 20 30
20 20 30
20 20 30
20 20 30
20 20 30
20 20 30
20 20 30
20 20 30
20 20 30
20 20 30
20 20 30
20 20 30
20 20 30
20 20 30
20 20 30
20 20 30
20 20 30
20 20 30
20 20 30
20 20 30
20 20 30
20 20 30
20 20 30
20 20 30
20 20 30
20 20 30
20 20 30
20 20 30
20 20 30
20 20 30
20 20 30
20 20 30
20 20 30
20 20 30
20 20 30
20 20 30
20 20 30
20 20 30
20 20 30
20 20 30
20 20 30
20 20 30
20 20 30
20 20 30
20 20 30
20 20 30
20 20 30
20 20 30
20 20 30
20 20 30
20 20 30
20 20 30
20 20 30
20 20 30
20 20 30
20 20 30
20 20 30
20 20 30
20 20 30
20 20 30
20 20 30
20 20 30
20 20 30
20 20 30
20 20 30
20 20 30
20 20 30
20 20 30
20 20 30
20 20 30
20 20 30
20 20 30
20 20 30
20 20 30
20 20 30
20 20 30
20 20 30
20 20 30
20 20 30
20 20 30
20 20 30
20 20 30
20 20 30
20 20 30
20 20 30
20 20 30
20 20 30
20 20 30
20 20 30
20 20 30
20 20 30
20 20 30
20 20 30
20 20 30
20 20 30
20 20 30
20 20 30
20 20 30
20 20 30
20 20 30
20 20 30
20 20 30
20 20 30
20 20 30
20 20 30
20 20 30
20 20 30
20 20 30
20 20 30
20 20 30
20 20 30
20 20 30
20 20 30
20 20 30
20 20 30
20 20 30
20 20 30
20 20 30
20 20 30
20 20 30
20 20 30
20 20 30
20 20 30
20 20 30
20 20 30
20 20 30
20 20 30
20 20 30
20 20 30
20 20 30
20 20 30
20 20 30
20 20 30
20 20 30
20 20 30
20 20 30
20 20 30
20 20 30
20 20 30
20 20 30
20 20 30
20 20 30
20 20 30
20 20 30
20 20 30
20 20 30
20 20 30
20 20 30
20 20 30
20 20 30
20 20 30
20 20 30
20 20 30
20 20 30
20 20 30
20 20 30
20 20 30
20 20 30
20 20 30
20 20 30
20 20 30
20 20 30
20 20 30
20 20 30
20 20 30
20 20 30
20 20 30
20 20 30
20 20 30
20 20 30
20 20 30
20 20 30
20 20 30
20 20 30
20 20 30
20 20 30
20 20 30
20 20 30
20 20 30
20 20 30
20 20 30
20 20 30
20 20 30
20 20 30
20 20 30
20 20 30
20 20 30
20 20 30
20 20 30
20 20 30
20 20 30
20 20 30
20 20 30
20 20 30
20 20 30
20 20 30
20 20 30
20 20 30
20 20 30
20 20 30
20 20 30
20 20 30
20 20 30
20 20 30
20 20 30
20 20 30
20 20 30
20 20 30
20 20 30
20 20 30
20 20 30
20 20 30
20 20 30
20 20 30
20 20 30
20 20 30
20 20 30
20 20 30
20 20 30
20 20 30
20 20 30
20 20 30
20 20 30
20 20 30
20 20 30
20 20 30
20 20 30
20 20 30
20 20 30
20 20 30
20 20 30
20 20 30
20 20 30
20 20 30
20 20 30
20 20 30
20 20 30
20 20 30
20 20 30
20 20 30
20 20 30
20 20 30
20 20 30
20 20 30
20 20 30
20 20 30
20 20 30
20 20 30
20 20 30
20 20 30
20 20 30
20 20 30
20 20 30
20 20 30
20 20 30
20 20 30
20 20 30
20 20 30
20 20 30
20 20 30
20 20 30
20 20 30
20 20 30
20 20 30
20 20 30
20 20 30
20 20 30
20 20 30
20 20 30
20 20 30
20 20 30
20 20 30
20 20 30
20 20 30
20 20 30
20 20 30
20 20 30
20 20 30
20 20 30
20 20 30
20 20 30
20 20 30
20 20 30
20 20 30
20 20 30
20 20 30
20 20 30
20 20 30
20 20 30
20 20 30
20 20 30
20 20 30
20 20 30
20 20 30
20 20 30
20 20 30
20 20 30
20 20 30
20 20 30
20 20 30
20 20 30
20 20 30
20 20 30
20 20 30
20 20 30
20 20 30
20 20 30
20 20 30
20 20 30
20 20 30
20 20 30
20 20 30
20 20 30
20 20 30
20 20 30
20 20 30
20 20 30
20 20 30
20 20 30
20 20 30
20 20 30
20 20 30
20 20 30
20 20 30
20 20 30
20 20 30
20 20 30
20 20 30
20 20 30
20 20 30
20 20 30
20 20 30
20 20 30
20 20 30
20 20 30
20 20 30
20 20 30
20 20 30
20 20 30
20 20 30
20 20 30
20 20 30
20 20 30
20 20 30
20 20 30
20 20 30
20 20 30
20 20 30
20 20 30
20 20 30
20 20 30
20 20 30
20 20 30
20 20 30
20 20 30
20 20 30
20 20 30
20 20 30
20 20 30
20 20 30
20 20 30
20 20 30
20 20 30
20 20 30
20 20 30
20 20 30
20 20 30
20 20 30
20 20 30
20 20 30
20 20 30
20 20 30
20 20 30
20 20 30
20 20 30
20 20 30
20 20 30
20 20 30
20 20 30
20 20 30
20 20 30
20 20 30
20 20 30
20 20 30
20 20 30
20 20 30
20 20 30
20 20 30
20 20 30
20 20 30
20 20 30
20 20 30
20 20 30
20 20 30
20 20 30
20 20 30
20 20 30
20 20 30
20 20 30
20 20 30
20 20 30
20 20 30
20 20 30
20 20 30
20 20 30
20 20 30
20 20 30
20 20 30
20 20 30
20 20 30
20 20 30
20 20 30
20 20 30
20 20 30
20 20 30
20 20 30
20 20 30
20 20 30
20 20 30
20 20 30
20 20 30
20 20 30
20 20 30
20 20 30
20 20 30
20 20 30
20 20 30
20 20 30
20 20 30
20 20 30
20 20 30
20 20 30
20 20 30
20 20 30
20 20 30
20 20 30
20 20 30
20 20 30
20 20 30
20 20 30
20 20 30
20 20 30
20 20 30
20 20 30
20 20 30
20 20 30
20 20 30
20 20 30
20 20 30
20 20 30
20 20 30
20 20 30
20 20 30
20 20 30
20 20 30
20 20 30
20 20 30
20 20 30
20 20 30
20 20 30
20 20 30
20 20 30
20 20 30
20 20 30
20 20 30
20 20 30
20 20 30
20 20 30
20 20 30
20 20 30
20 20 30
20 20 30
20 20 30
20 20 30
20 20 30
20 20 30
20 20 30
20 20 30
20 20 30
20 20 30
20 20 30
20 20 30
20 20 30
20 20 30
20 20 30
20 20 30
20 20 30
20 20 30
20 20 30
20 20 30
20 20 30
20 20 30
20 20 30
20 20 30
20 20 30
20 20 30
20 20 30
20 20 30
20 20 30
20 20 30
20 20 30
20 20 30
20 20 30
20 20 30
20 20 30
20 20 30
20 20 30
20 20 30
20 20 30
20 20 30
20 20 30
20 20 30
20 20 30
20 20 30
20 20 30
20 20 30
20 20 30
20 20 30
20 20 30
20 20 30
20 20 30
20 20 30
20 20 30
20 20 30
20 20 30
20 20 30
20 20 30
20 20 30
20 20 30
20 20 30
20 20 30
20 20 30
20 20 30
20 20 30
20 20 30
20 20 30
20 20 30
20 20 30
20 20 30
20 20 30
20 20 30
20 20 30
20 20 30
20 20 30
20 20 30
20 20 30
20 20 30
20 20 30
20 20 30
20 20 30
20 20 30
20 20 30
20 20 30
20 20 30
20 20 30
20 20 30
20 20 30
20 20 30
20 20 30
20 20 30
20 20 30
20 20 30
20 20 30
20 20 30
20 20 30
20 20 30
20 20 30
20 20 30
20 20 30
20 20 30
20 20 30
20 20 30
20 20 30
20 20 30
20 20 30
20 20 30
20 20 30
20 20 30
20 20 30
20 20 30
20 20 30
20 20 30
20 20 30
20 20 30
20 20 30
20 20 30
20 20 30
20 20 30
20 20 30
20 20 30
20 20 30
20 20 30
20 20 30
20 20 30
20 20 30
20 20 30
20 20 30
20 20 30
20 20 30
20 20 30
20 20 30
20 20 30
20 20 30
20 20 30
20 20 30
20 20 30
20 20 30
20 20 30
20 20 30
20 20 30
20 20 30
20 20 30
20 20 30
20 20 30
20 20 30
20 20 30
20 20 30
20 20 30
20 20 30
20 20 30
20 20 30
20 20 30
20 20 30
20 20 30
20 20 30
20 20 30
20 20 30
20 20 30
20 20 30
20 20 30
20 20 30
20 20 30
20 20 30
20 20 30
20 20 30
20 20 30
20 20 30
20 20 30
20 20 30
20 20 30
20 20 30
20 20 30
20 20 30
20 20 30
20 20 30
20 20 30
20 20 30
20 20 30
20 20 30
20 20 30
20 20 30
20 20 30
20 20 30
20 20 30
20 20 30
20 20 30
20 20 30
20 20 30
20 20 30
20 20 30
20 20 30
20 20 30
20 20 30
20 20 30
20 20 30
20 20 30
20 20 30
20 20 30
20 20 30
20 20 30
20 20 30
20 20 30
20 20 30
20 20 30
20 20 30
20 20 30
20 20 30
20 20 30
20 20 30
20 20 30
20 20 30
20 20 30
20 20 30
20 20 30
20 20 30
20 20 30
20 20 30
20 20 30
20 20 30
20 20 30
20 20 30
20 20 30
20 20 30
20 20 30
20 20 30
20 20 30
20 20 30
20 20 30
20 20 30
20 20 30
20 20 30
20 20 30
20 20 30
20 20 30
20 20 30
20 20 30
20 20 30
20 20 30
20 20 30
20 20 30
20 20 30
20 20 30
20 20 30
20 20 30
20 20 30
20 20 30
20 20 30
20 20 30
20 20 30
20 20 30
20 20 30
20 20 30
20 20 30
20 20 30
20 20 30
20 20 30
20 20 30
20 20 30
20 20 30
20 20 30
20 20 30
20 20 30
20 20 30
20 20 30
20 20 30
20 20 30
20 20 30
20 20 30
20 20 30
20 20 30
20 20 30
20 20 30
20 20 30
20 20 30
20 20 30
20 20 30
20 20 30
20 20 30
20 20 30
20 20 30
20 20 30
20 20 30
20 20 30
20 20 30
20 20 30
20 20 30
20 20 30
20 20 30
20 20 30
20 20 30
20 20 30
20 20 30
20 20 30
20 20 30
20 20 30
20 20 30
20 20 30
20 20 30
20 20 30
20 20 30
20 20 30
20 20 30
20 20 30
20 20 30
20 20 30
20 20 30
20 20 30
20 20 30
20 20 30
20 20 30
20 20 30
20 20 30
20 20 30
20 20 30
20 20 30
20 20 30
20 20 30
20 20 30
20 20 30
20 20 30
20 20 30
20 20 30
20 20 30
20 20 30
20 20 30
20 20 30
20 20 30
20 20 30
20 20 30
20 20 30
20 20 30
20 20 30
20 20 30
20 20 30
20 20 30
20 20 30
20 20 30
20 20 30
20 20 30
20 20 30
20 20 30
20 20 30
20 20 30
20 20 30
20 20 30
20 20 30
20 20 30
20 20 30
20 20 30
20 20 30
20 20 30
20 20 30
20 20 30
20 20 30
20 20 30
20 20 30
20 20 30
20 20 30
20 20 30
20 20 30
20 20 30
20 20 30
20 20 30
20 20 30
20 20 30
20 20 30
20 20 30
20 20 30
20 20 30
20 20 30
20 20 30
20 20 30
20 20 30
20 20 30
20 20 30
20 20 30
20 20 30
20 20 30
20 20 30
20 20 30
20 20 30
20 20 30
20 20 30
20 20 30
20 20 30
20 20 30
20 20 30
20 20 30
20 20 30
20 20 30
20 20 30
20 20 30
20 20 30
20 20 30
20 20 30
20 20 30
20 20 30
20 20 30
20 20 30
20 20 30
20 20 30
20 20 30
20 20 30
20 20 30
20 20 30
20 20 30
20 20 30
20 20 30
20 20 30
20 20 30
20 20 30
20 20 30
20 20 30
20 20 30
20 20 30
20 20 30
20 20 30
20 20 30
20 20 30
20 20 30
20 20 30
20 20 30
20 20 30
20 20 30
20 20 30
20 20 30
20 20 30
20 20 30
20 20 30
20 20 30
20 20 30
20 20 30
20 20 30
20 20 30
20 20 30
20 20 30
20 20 30
20 20 30
20 20 30
20 20 30
20 20 30
20 20 30
20 20 30
20 20 30
20 20 30
20 20 30
20 20 30
20 20 30
20 20 30
20 20 30
20 20 30
20 20 30
20 20 30
20 20 30
20 20 30
20 20 30
20 20 30
20 20 30
20 20 30
20 20 30
20 20 30
20 20 30
20 20 30
20 20 30
20 20 30
20 20 30
20 20 30
20 20 30
20 20 30
20 20 30
20 20 30
20 20 30
20 20 30
20 20 30
20 20 30
20 20 30
20 20 30
20 20 30
20 20 30
20 20 30
20 20 30
20 20 30
20 20 30
20 20 30
20 20 30
20 20 30
20 20 30
20 20 30
20 20 30
20 20 30
20 20 30
20 20 30
20 20 30
20 20 30
20 20 30
20 20 30
20 20 30
20 20 30
20 20 30
20 20 30
20 20 30
20 20 30
20 20 30
20 20 30
20 20 30
20 20 30
20 20 30
20 20 30
20 20 30
20 20 30
20 20 30
20 20 30
20 20 30
20 20 30
20 20 30
20 20 30
20 20 30
20 20 30
20 20 30
20 20 30
20 20 30
20 20 30
20 20 30
20 20 30
20 20 30
20 20 30
20 20 30
20 20 30
20 20 30
20 20 30
20 20 30
20 20 30
20 20 30
20 20 30
20 20 30
20 20 30
20 20 30
20 20 30
20 20 30
20 20 30
20 20 30
20 20 30
20 20 30
20 20 30
20 20 30
20 20 30
20 20 30
20 20 30
20 20 30
20 20 30
20 20 30
20 20 30
20 20 30
20 20 30
20 20 30
20 20 30
20 20 30
20 20 30
20 20 30
20 20 30
20 20 30
20 20 30
20 20 30
20 20 30
20 20 30
20 20 30
20 20 30
20 20 30
20 20 30
20 20 30
20 20 30
20 20 30
20 20 30
20 20 30
20 20 30
20 20 30
20 20 30
20 20 30
20 20 30
20 20 30
20 20 30
20 20 30
20 20 30
20 20 30
20 20 30
20 20 30
20 20 30
20 20 30
20 20 30
20 20 30
20 20 30
20 20 30
20 20 30
20 20 30
20 20 30
20 20 30
20 20 30
20 20 30
20 20 30
20 20 30
20 20 30
20 20 30
20 20 30
20 20 30
20 20 30
20 20 30
20 20 30
20 20 30
20 20 30
20 20 30
20 20 30
20 20 30
20 20 30
20 20 30
20 20 30
20 20 30
20 20 30
20 20 30
20 20 30
20 20 30
20 20 30
20 20 30
20 20 30
20 20 30
20 20 30
20 20 30
20 20 30
20 20 30
20 20 30
20 20 30
20 20 30
20 20 30
20 20 30
20 20 30
20 20 30
20 20 30
20 20 30
20 20 30
20 20 30
20 20 30
20 20 30
20 20 30
20 20 30
20 20 30
20 20 30
20 20 30
20 20 30
20 20 30
20 20 30
20 20 30
20 20 30
20 20 30
20 20 30
20 20 30
20 20 30
20 20 30
20 20 30
20 20 30
20 20 30
20 20 30
20 20 30
20 20 30
20 20 30
20 20 30
20 20 30
20 20 30
20 20 30
20 20 30
20 20 30
20 20 30
20 20 30
20 20 30
20 20 30
20 20 30
20 20 30
20 20 30
20 20 30
20 20 30
20 20 30
20 20 30
20 20 30
20 20 30
20 20 30
20 20 30
20 20 30
20 20 30
20 20 30
20 20 30
20 20 30
20 20 30
20 20 30
20 20 30
20 20 30
20 20 30
20 20 30
20 20 30
20 20 30
20 20 30
20 20 30
20 20 30
20 20 30
20 20 30
20 20 30
20 20 30
20 20 30
20 20 30
20 20 30
20 20 30
20 20 30
20 20 30
20 20 30
20 20 30
20 20 30
20 20 30
20 20 30
20 20 30
20 20 30
20 20 30
20 20 30
20 20 30
20 20 30
20 20 30
20 20 30
20 20 30
20 20 30
20 20 30
20 20 30
20 20 30
20 20 30
20 20 30
20 20 30
20 20 30
20 20 30
20 20 30
20 20 30
20 20 30
20 20 30
20 20 30
20 20 30
20 20 30
20 20 30
20 20 30
20 20 30
20 20 30
20 20 30
20 20 30
20 20 30
20 20 30
20 20 30
20 20 30
20 20 30
20 20 30
20 20 30
20 20 30
20 20 30
20 20 30
20 20 30
20 20 30
20 20 30
20 20 30
20 20 30
20 20 30
20 20 30
20 20 30
20 20 30
20 20 30
20 20 30
20 20 30
20 20 30
20 20 30
20 20 30
20 20 30
20 20 30
20 20 30
20 20 30
20 20 30
20 20 30
20 20 30
20 20 30
20 20 30
20 20 30
20 20 30
20 20 30
20 20 30
20 20 30
20 20 30
20 20 30
20 20 30
20 20 30
20 20 30
20 20 30
20 20 30
20 20 30
20 20 30
20 20 30
20 20 30
20 20 30
20 20 30
20 20 30
20 20 30
20 20 30
20 20 30
20 20 30
20 20 30
20 20 30
20 20 30
20 20 30
20 20 30
20 20 30
20 20 30
20 20 30
20 20 30
20 20 30
20 20 30
20 20 30
20 20 30
20 20 30
20 20 30
20 20 30
20 20 30
20 20 30
20 20 30
20 20 30
20 20 30
20 20 30
20 20 30
20 20 30
20 20 30
20 20 30
20 20 30
20 20 30
20 20 30
20 20 30
20 20 30
20 20 30
20 20 30
20 20 30
20 20 30
20 20 30
20 20 30
20 20 30
20 20 30
20 20 30
20 20 30
20 20 30
20 20 30
20 20 30
20 20 30
20 20 30
20 20 30
20 20 30
20 20 30
20 20 30
20 20 30
20 20 30
20 20 30
20 20 30
20 20 30
20 20 30
20 20 30
20 20 30
20 20 30
20 20 30
20 20 30
20 20 30
20 20 30
20 20 30
20 20 30
20 20 30
20 20 30
20 20 30
20 20 30
20 20 30
20 20 30
20 20 30
20 20 30
20 20 30
20 20 30
20 20 30
20 20 30
20 20 30
20 20 30
20 20 30
20 20 30
20 20 30
20 20 30
20 20 30
20 20 30
20 20 30
20 20 30
20 20 30
20 20 30
20 20 30
20 20 30
20 20 30
20 20 30
20 20 30
20 20 30
20 20 30
20 20 30
20 20 30
20 20 30
20 20 30
20 20 30
20 20 30
20 20 30
20 20 30
20 20 30
20 20 30
20 20 30
20 20 30
20 20 30
20 20 30
20 20 30
20 20 30
20 20 30
20 20 30
20 20 30
20 20 30
20 20 30
20 20 30
20 20 30
20 20 30
20 20 30
20 20 30
20 20 30
20 20 30
20 20 30
20 20 30
20 20 30
20 20 30
20 20 30
20 20 30
20 20 30
20 20 30
20 20 30
20 20 30
20 20 30
20 20 30
20 20 30
20 20 30
20 20 30
20 20 30
20 20 30
20 20 30
20 20 30
20 20 30
20 20 30
20 20 30
20 20 30
20 20 30
20 20 30
20 20 30
20 20 30
20 20 30
20 20 30
20 20 30
20 20 30
20 20 30
20 20 30
20 20 30
20 20 30
20 20 30
20 20 30
20 20 30
20 20 30
20 20 30
20 20 30
20 20 30
20 20 30
20 20 30
20 20 30
20 20 30
20 20 30
20 20 30
20 20 30
20 20 30
20 20 30
20 20 30
20 20 30
20 20 30
20 20 30
20 20 30
20 20 30
20 20 30
20 20 30
20 20 30
20 20 30
20 20 30
20 20 30
20 20 30
20 20 30
20 20 30
20 20 30
20 20 30
20 20 30
20 20 30
20 20 30
20 20 30
20 20 30
20 20 30
20 20 30
20 20 30
20 20 30
20 20 30
20 20 30
20 20 30
20 20 30
20 20 30
20 20 30
20 20 30
20 20 30
20 20 30
20 20 30
20 20 30
20 20 30
20 20 30
20 20 30
20 20 30
20 20 30
20 20 30
20 20 30
20 20 30
20 20 30
20 20 30
20 20 30
20 20 30
20 20 30
20 20 30
20 20 30
20 20 30
20 20 30
20 20 30
20 20 30
20 20 30
20 20 30
20 20 30
20 20 30
20 20 30
20 20 30
20 20 30
20 20 30
20 20 30
20 20 30
20 20 30
20 20 30
20 20 30
20 20 30
20 20 30
20 20 30
20 20 30
20 20 30
20 20 30
20 20 30
20 20 30
20 20 30
20 20 30
20 20 30
20 20 30
20 20 30
20 20 30
20 20 30
20 20 30
20 20 30
20 20 30
20 20 30
20 20 30
20 20 30
20 20 30
20 20 30
20 20 30
20 20 30
20 20 30
20 20 30
20 20 30
20 20 30
20 20 30
20 20 30
20 20 30
20 20 30
20 20 30
20 20 30
20 20 30
20 20 30
20 20 30
20 20 30
20 20 30
20 20 30
20 20 30
20 20 30
20 20 30
20 20 30
20 20 30
20 20 30
20 20 30
20 20 30
20 20 30
20 20 30
20 20 30
20 20 30
20 20 30
20 20 30
20 20 30
20 20 30
20 20 30
20 20 30
20 20 30
20 20 30
20 20 30
20 20 30
20 20 30
20 20 30
20 20 30
20 20 30
20 20 30
20 20 30
20 20 30
20 20 30
20 20 30
20 20 30
20 20 30
20 20 30
20 20 30
20 20 30
20 20 30
20 20 30
20 20 30
20 20 30
20 20 30
20 20 30
20 20 30
20 20 30
20 20 30
20 20 30
20 20 30
20 20 30
20 20 30
20 20 30
20 20 30
20 20 30
20 20 30
20 20 30
20 20 30
20 20 30
20 20 30
20 20 30
20 20 30
20 20 30
20 20 30
20 20 30
20 20 30
20 20 30
20 20 30
20 20 30
20 20 30
20 20 30
20 20 30
20 20 30
20 20 30
20 20 30
20 20 30
20 20 30
20 20 30
20 20 30
20 20 30
20 20 30
20 20 30
20 20 30
20 20 30
20 20 30
20 20 30
20 20 30
20 20 30
20 20 30
20 20 30
20 20 30
20 20 30
20 20 30
20 20 30
20 20 30
20 20 30
20 20 30
20 20 30
20 20 30
20 20 30
20 20 30
20 20 30
20 20 30
20 20 30
20 20 30
20 20 30
20 20 30
20 20 30
20 20 30
20 20 30
20 20 30
20 20 30
20 20 30
20 20 30
20 20 30
20 20 30
20 20 30
20 20 30
20 20 30
20 20 30
20 20 30
20 20 30
20 20 30
20 20 30
20 20 30
20 20 30
20 20 30
20 20 30
20 20 30
20 20 30
20 20 30
20 20 30
20 20 30
20 20 30
20 20 30
20 20 30
20 20 30
20 20 30
20 20 30
20 20 30
20 20 30
20 20 30
20 20 30
20 20 30
20 20 30
20 20 30
20 20 30
20 20 30
20 20 30
20 20 30
20 20 30
20 20 30
20 20 30
20 20 30
20 20 30
20 20 30
20 20 30
20 20 30
20 20 30
20 20 30
20 20 30
20 20 30
20 20 30
20 20 30
20 20 30
20 20 30
20 20 30
20 20 30
20 20 30
20 20 30
20 20 30
20 20 30
20 20 30
20 20 30
20 20 30
20 20 30
20 20 30
20 20 30
20 20 30
20 20 30
20 20 30
20 20 30
20 20 30
20 20 30
20 20 30
20 20 30
20 20 30
20 20 30
20 20 30
20 20 30
20 20 30
20 20 30
20 20 30
20 20 30
20 20 30
20 20 30
20 20 30
20 20 30
20 20 30
20 20 30
20 20 30
20 20 30
20 20 30
20 20 30
20 20 30
20 20 30
20 20 30
20 20 30
20 20 30
20 20 30
20 20 30
20 20 30
20 20 30
20 20 30
20 20 30
20 20 30
20 20 30
20 20 30
20 20 30
20 20 30
20 20 30
20 20 30
20 20 30
20 20 30
20 20 30
20 20 30
20 20 30
20 20 30
20 20 30
20 20 30
20 20 30
20 20 30
20 20 30
20 20 30
20 20 30
20 20 30
20 20 30
20 20 30
20 20 30
20 20 30
20 20 30
20 20 30
20 20 30
20 20 30
20 20 30
20 20 30
20 20 30
20 20 30
20 20 30
20 20 30
20 20 30
20 20 30
20 20 30
20 20 30
20 20 30
20 20 30
20 20 30
20 20 30
20 20 30
20 20 30
20 20 30
20 20 30
20 20 30
20 20 30
20 20 30
20 20 30
20 20 30
20 20 30
20 20 30
20 20 30
20 20 30
20 20 30
20 20 30
20 20 30
20 20 30
20 20 30
20 20 30
20 20 30
20 20 30
20 20 30
20 20 30
20 20 30
20 20 30
20 20 30
20 20 30
20 20 30
20 20 30
20 20 30
20 20 30
20 20 30
20 20 30
20 20 30
20 20 30
20 20 30
20 20 30
20 20 30
20 20 30
20 20 30
20 20 30
20 20 30
20 20 30
20 20 30
20 20 30
20 20 30
20 20 30
20 20 30
20 20 30
20 20 30
20 20 30
20 20 30
20 20 30
20 20 30
20 20 30
20 20 30
20 20 30
20 20 30
20 20 30
20 20 30
20 20 30
20 20 30
20 20 30
20 20 30
20 20 30
20 20 30
20 20 30
20 20 30
20 20 30
20 20 30
20 20 30
20 20 30
20 20 30
20 20 30
20 20 30
20 20 30
20 20 30
20 20 30
20 20 30
20 20 30
20 20 30
20 20 30
20 20 30
20 20 30
20 20 30
20 20 30
20 20 30
20 20 30
20 20 30
20 20 30
20 20 30
20 20 30
20 20 30
20 20 30
20 20 30
20 20 30
20 20 30
20 20 30
20 20 30
20 20 30
20 20 30
20 20 30
20 20 30
20 20 30
20 20 30
20 20 30
20 20 30
20 20 30
20 20 30
20 20 30
20 20 30
20 20 30
20 20 30
20 20 30
20 20 30
20 20 30
20 20 30
20 20 30
20 20 30
20 20 30
20 20 30
20 20 30
20 20 30
20 20 30
20 20 30
20 20 30
20 20 30
20 20 30
20 20 30
20 20 30
20 20 30
20 20 30
20 20 30
20 20 30
20 20 30
20 20 30
20 20 30
20 20 30
20 20 30
20 20 30
20 20 30
20 20 30
20 20 30
20 20 30
20 20 30
20 20 30
20 20 30
20 20 30
20 20 30
20 20 30
20 20 30
20 20 30
20 20 30
20 20 30
20 20 30
20 20 30
20 20 30
20 20 30
20 20 30
20 20 30
20 20 30
20 20 30
20 20 30
20 20 30
20 20 30
20 20 30
20 20 30
20 20 30
20 20 30
20 20 30
20 20 30
20 20 30
20 20 30
20 20 30
20 20 30
20 20 30
20 20 30
20 20 30
20 20 30
20 20 30
20 20 30
20 20 30
20 20 30
20 20 30
20 20 30
20 20 30
20 20 30
20 20 30
20 20 30
20 20 30
20 20 30
20 20 30
20 20 30
20 20 30
20 20 30
20 20 30
20 20 30
20 20 30
20 20 30
20 20 30
20 20 30
20 20 30
20 20 30
20 20 30
20 20 30
20 20 30
20 20 30
20 20 30
20 20 30
20 20 30
20 20 30
20 20 30
20 20 30
20 20 30
20 20 30
20 20 30
20 20 30
20 20 30
20 20 30
20 20 30
20 20 30
20 20 30
20 20 30
20 20 30
20 20 30
20 20 30
20 20 30
20 20 30
20 20 30
20 20 30
20 20 30
20 20 30
20 20 30
20 20 30
20 20 30
20 20 30
20 20 30
20 20 30
20 20 30
20 20 30
20 20 30
20 20 30
20 20 30
20 20 30
20 20 30
20 20 30
20 20 30
20 20 30
20 20 30
20 20 30
20 20 30
20 20 30
20 20 30
20 20 30
20 20 30
20 20 30
20 20 30
20 20 30
20 20 30
20 20 30
20 20 30
20 20 30
20 20 30
20 20 30
20 20 30
20 20 30
20 20 30
20 20 30
20 20 30
20 20 30
20 20 30
20 20 30
20 20 30
20 20 30
20 20 30
20 20 30
20 20 30
20 20 30
20 20 30
20 20 30
20 20 30
20 20 30
20 20 30
20 20 30
20 20 30
20 20 30
20 20 30
20 20 30
20 20 30
20 20 30
20 20 30
20 20 30
20 20 30
20 20 30
20 20 30
20 20 30
20 20 30
20 20 30
20 20 30
20 20 30
20 20 30
20 20 30
20 20 30
20 20 30
20 20 30
20 20 30
20 20 30
20 20 30
20 20 30
20 20 30
20 20 30
20 20 30
20 20 30
20 20 30
20 20 30
20 20 30
20 20 30
20 20 30
20 20 30
20 20 30
20 20 30
20 20 30
20 20 30
20 20 30
20 20 30
20 20 30
20 20 30
20 20 30
20 20 30
20 20 30
20 20 30
20 20 30
20 20 30
20 20 30
20 20 30
20 20 30
20 20 30
20 20 30
20 20 30
20 20 30
20 20 30
20 20 30
20 20 30
20 20 30
20 20 30
20 20 30
20 20 30
20 20 30
20 20 30
20 20 30
20 20 30
20 20 30
20 20 30
20 20 30
20 20 30
20 20 30
20 20 30
20 20 30
20 20 30
20 20 30
20 20 30
20 20 30
20 20 30
20 20 30
20 20 30
20 20 30
20 20 30
20 20 30
20 20 30
20 20 30
20 20 30
20 20 30
20 20 30
20 20 30
20 20 30
20 20 30
20 20 30
20 20 30
20 20 30
20 20 30
20 20 30
20 20 30
20 20 30
20 20 30
20 20 30
20 20 30
20 20 30
20 20 30
20 20 30
20 20 30
20 20 30
20 20 30
20 20 30
20 20 30
20 20 30
20 20 30
20 20 30
20 20 30
20 20 30
20 20 30
20 20 30
20 20 30
20 20 30
20 20 30
20 20 30
20 20 30
20 20 30
20 20 30
20 20 30
20 20 30
20 20 30
20 20 30
20 20 30
20 20 30
20 20 30
20 20 30
20 20 30
20 20 30
20 20 30
20 20 30
20 20 30
20 20 30
20 20 30
20 20 30
20 20 30
20 20 30
20 20 30
20 20 30
20 20 30
20 20 30
20 20 30
20 20 30
20 20 30
20 20 30
20 20 30
20 20 30
20 20 30
20 20 30
20 20 30
20 20 30
20 20 30
20 20 30
20 20 30
20 20 30
20 20 30
20 20 30
20 20 30
20 20 30
20 20 30
20 20 30
20 20 30
20 20 30
20 20 30
20 20 30
20 20 30
20 20 30
20 20 30
20 20 30
20 20 30
20 20 30
20 20 30
20 20 30
20 20 30
20 20 30
20 20 30
20 20 30
20 20 30
20 20 30
20 20 30
20 20 30
20 20 30
20 20 30
20 20 30
20 20 30
20 20 30
20 20 30
20 20 30
20 20 30
20 20 30
20 20 30
20 20 30
20 20 30
20 20 30
20 20 30
20 20 30
20 20 30
20 20 30
20 20 30
20 20 30
20 20 30
20 20 30
20 20 30
20 20 30
20 20 30
20 20 30
20 20 30
20 20 30
20 20 30
20 20 30
20 20 30
20 20 30
20 20 30
20 20 30
20 20 30
20 20 30
20 20 30
20 20 30
20 20 30
20 20 30
20 20 30
20 20 30
20 20 30
20 20 30
20 20 30
20 20 30
20 20 30
20 20 30
20 20 30
20 20 30
20 20 30
20 20 30
20 20 30
20 20 30
20 20 30
20 20 30
20 20 30
20 20 30
20 20 30
20 20 30
20 20 30
20 20 30
20 20 30
20 20 30
20 20 30
20 20 30
20 20 30
20 20 30
20 20 30
20 20 30
20 20 30
20 20 30
20 20 30
20 20 30
20 20 30
20 20 30
20 20 30
20 20 30
20 20 30
20 20 30
20 20 30
20 20 30
20 20 30
20 20 30
20 20 30
20 20 30
20 20 30
20 20 30
20 20 30
20 20 30
20 20 30
20 20 30
20 20 30
20 20 30
20 20 30
20 20 30
20 20 30
20 20 30
20 20 30
20 20 30
20 20 30
20 20 30
20 20 30
20 20 30
20 20 30
20 20 30
20 20 30
20 20 30
20 20 30
20 20 30
20 20 30
20 20 30
20 20 30
20 20 30
20 20 30
20 20 30
20 20 30
20 20 30
20 20 30
20 20 30
20 20 30
20 20 30
20 20 30
20 20 30
20 20 30
20 20 30
20 20 30
20 20 30
20 20 30
20 20 30
20 20 30
20 20 30
20 20 30
20 20 30
20 20 30
20 20 30
20 20 30
20 20 30
20 20 30
20 20 30
20 20 30
20 20 30
20 20 30
20 20 30
20 20 30
20 20 30
20 20 30
20 20 30
20 20 30
20 20 30
20 20 30
20 20 30
20 20 30
20 20 30
20 20 30
20 20 30
20 20 30
20 20 30
20 20 30
20 20 30
20 20 30
20 20 30
20 20 30
20 20 30
20 20 30
20 20 30
20 20 30
20 20 30
20 20 30
20 20 30
20 20 30
20 20 30
20 20 30
20 20 30
20 20 30
20 20 30
20 20 30
20 20 30
20 20 30
20 20 30
20 20 30
20 20 30
20 20 30
20 20 30
20 20 30
20 20 30
20 20 30
20 20 30
20 20 30
20 20 30
20 20 30
20 20 30
20 20 30
20 20 30
20 20 30
20 20 30
20 20 30
20 20 30
20 20 30
20 20 30
20 20 30
20 20 30
20 20 30
20 20 30
20 20 30
20 20 30
20 20 30
20 20 30
20 20 30
20 20 30
20 20 30
20 20 30
20 20 30
20 20 30
20 20 30
20 20 30
20 20 30
20 20 30
20 20 30
20 20 30
20 20 30
20 20 30
20 20 30
20 20 30
20 20 30
20 20 30
20 20 30
20 20 30
20 20 30
20 20 30
20 20 30
20 20 30
20 20 30
20 20 30
20 20 30
20 20 30
20 20 30
20 20 30
20 20 30
20 20 30
20 20 30
20 20 30
20 20 30
20 20 30
20 20 30
20 20 30
20 20 30
20 20 30
20 20 30
20 20 30
20 20 30
20 20 30
20 20 30
20 20 30
20 20 30
20 20 30
20 20 30
20 20 30
20 20 30
20 20 30
20 20 30
20 20 30
20 20 30
20 20 30
20 20 30
20 20 30
20 20 30
20 20 30
20 20 30
20 20 30
20 20 30
20 20 30
20 20 30
20 20 30
20 20 30
20 20 30
20 20 30
20 20 30
20 20 30
20 20 30
20 20 30
20 20 30
20 20 30
20 20 30
20 20 30
20 20 30
20 20 30
20 20 30
20 20 30
20 20 30
20 20 30
20 20 30
20 20 30
20 20 30
20 20 30
20 20 30
20 20 30
20 20 30
20 20 30
20 20 30
20 20 30
20 20 30
20 20 30
20 20 30
20 20 30
20 20 30
20 20 30
20 20 30
20 20 30
20 20 30
20 20 30
20 20 30
20 20 30
20 20 30
20 20 30
20 20 30
20 20 30
20 20 30
20 20 30
20 20 30
20 20 30
20 20 30
20 20 30
20 20 30
20 20 30
20 20 30
20 20 30
20 20 30
20 20 30
20 20 30
20 20 30
20 20 30
20 20 30
20 20 30
20 20 30
20 20 30
20 20 30
20 20 30
20 20 30
20 20 30
20 20 30
20 20 30
20 20 30
20 20 30
20 20 30
20 20 30
20 20 30
20 20 30
20 20 30
20 20 30
20 20 30
20 20 30
20 20 30
20 20 30
20 20 30
20 20 30
20 20 30
20 20 30
20 20 30
20 20 30
20 20 30
20 20 30
20 20 30
20 20 30
20 20 30
20 20 30
20 20 30
20 20 30
20 20 30
20 20 30
20 20 30
20 20 30
20 20 30
20 20 30
20 20 30
20 20 30
20 20 30
20 20 30
20 20 30
20 20 30
20 20 30
20 20 30
20 20 30
20 20 30
20 20 30
20 20 30
20 20 30
20 20 30
20 20 30
20 20 30
20 20 30
20 20 30
20 20 30
20 20 30
20 20 30
20 20 30
20 20 30
20 20 30
20 20 30
20 20 30
20 20 30
20 20 30
20 20 30
20 20 30
20 20 30
20 20 30
20 20 30
20 20 30
20 20 30
20 20 30
20 20 30
20 20 30
20 20 30
20 20 30
20 20 30
20 20 30
20 20 30
20 20 30
20 20 30
20 20 30
20 20 30
20 20 30
20 20 30
20 20 30
20 20 30
20 20 30
20 20 30
20 20 30
20 20 30
20 20 30
20 20 30
20 20 30
20 20 30
20 20 30
20 20 30
20 20 30
20 20 30
20 20 30
20 20 30
20 20 30
20 20 30
20 20 30
20 20 30
20 20 30
20 20 30
20 20 30
20 20 30
20 20 30
20 20 30
20 20 30
20 20 30
20 20 30
20 20 30
20 20 30
20 20 30
20 20 30
20 20 30
20 20 30
20 20 30
20 20 30
20 20 30
20 20 30
20 20 30
20 20 30
20 20 30
20 20 30
20 20 30
20 20 30
20 20 30
20 20 30
20 20 30
20 20 30
20 20 30
20 20 30
20 20 30
20 20 30
20 20 30
20 20 30
20 20 30
20 20 30
20 20 30
20 20 30
20 20 30
20 20 30
20 20 30
20 20 30
20 20 30
20 20 30
20 20 30
20 20 30
20 20 30
20 20 30
20 20 30
20 20 30
20 20 30
20 20 30
20 20 30
20 20 30
20 20 30
20 20 30
20 20 30
20 20 30
20 20 30
20 20 30
20 20 30
20 20 30
20 20 30
20 20 30
20 20 30
20 20 30
20 20 30
20 20 30
20 20 30
20 20 30
20 20 30
20 20 30
20 20 30
20 20 30
20 20 30
20 20 30
20 20 30
20 20 30
20 20 30
20 20 30
20 20 30
20 20 30
20 20 30
20 20 30
20 20 30
20 20 30
20 20 30
20 20 30
20 20 30
20 20 30
20 20 30
20 20 30
20 20 30
20 20 30
20 20 30
20 20 30
20 20 30
20 20 30
20 20 30
20 20 30
20 20 30
20 20 30
20 20 30
20 20 30
20 20 30
20 20 30
20 20 30
20 20 30
20 20 30
20 20 30
20 20 30
20 20 30
20 20 30
20 20 30
20 20 30
20 20 30
20 20 30
20 20 30
20 20 30
20 20 30
20 20 30
20 20 30
20 20 30
20 20 30
20 20 30
20 20 30
20 20 30
20 20 30
20 20 30
20 20 30
20 20 30
20 20 30
20 20 30
20 20 30
20 20 30
20 20 30
20 20 30
20 20 30
20 20 30
20 20 30
20 20 30
20 20 30
20 20 30
20 20 30
20 20 30
20 20 30
20 20 30
20 20 30
20 20 30
20 20 30
20 20 30
20 20 30
20 20 30
20 20 30
20 20 30
20 20 30
20 20 30
20 20 30
20 20 30
20 20 30
20 20 30
20 20 30
20 20 30
20 20 30
20 20 30
20 20 30
20 20 30
20 20 30
20 20 30
20 20 30
20 20 30
20 20 30
20 20 30
20 20 30
20 20 30
20 20 30
20 20 30
20 20 30
20 20 30
20 20 30
20 20 30
20 20 30
20 20 30
20 20 30
20 20 30
20 20 30
20 20 30
20 20 30
20 20 30
20 20 30
20 20 30
20 20 30
20 20 30
20 20 30
20 20 30
20 20 30
20 20 30
20 20 30
20 20 30
20 20 30
20 20 30
20 20 30
20 20 30
20 20 30
20 20 30
20 20 30
20 20 30
20 20 30
20 20 30
20 20 30
20 20 30
20 20 30
20 20 30
20 20 30
20 20 30
20 20 30
20 20 30
20 20 30
20 20 30
20 20 30
20 20 30
20 20 30
20 20 30
20 20 30
20 20 30
20 20 30
20 20 30
20 20 30
20 20 30
20 20 30
20 20 30
20 20 30
20 20 30
20 20 30
20 20 30
20 20 30
20 20 30
20 20 30
20 20 30
20 20 30
20 20 30
20 20 30
20 20 30
20 20 30
20 20 30
20 20 30
20 20 30
20 20 30
20 20 30
20 20 30
20 20 30
20 20 30
20 20 30
20 20 30
20 20 30
20 20 30
20 20 30
20 20 30
20 20 30
20 20 30
20 20 30
20 20 30
20 20 30
20 20 30
20 20 30
20 20 30
20 20 30
20 20 30
20 20 30
20 20 30
20 20 30
20 20 30
20 20 30
20 20 30
20 20 30
20 20 30
20 20 30
20 20 30
20 20 30
20 20 30
20 20 30
20 20 30
20 20 30
20 20 30
20 20 30
20 20 30
20 20 30
20 20 30
20 20 30
20 20 30
20 20 30
20 20 30
20 20 30
20 20 30
20 20 30
20 20 30
20 20 30
20 20 30
20 20 30
20 20 30
20 20 30
20 20 30
20 20 30
20 20 30
20 20 30
20 20 30
20 20 30
20 20 30
20 20 30
20 20 30
20 20 30
20 20 30
20 20 30
20 20 30
20 20 30
20 20 30
20 20 30
20 20 30
20 20 30
20 20 30
20 20 30
20 20 30
20 20 30
20 20 30
20 20 30
20 20 30
20 20 30
20 20 30
20 20 30
20 20 30
20 20 30
20 20 30
20 20 30
20 20 30
20 20 30
20 20 30
20 20 30
20 20 30
20 20 30
20 20 30
20 20 30
20 20 30
20 20 30
20 20 30
20 20 30
20 20 30
20 20 30
20 20 30
20 20 30
20 20 30
20 20 30
20 20 30
20 20 30
20 20 30
20 20 30
20 20 30
20 20 30
20 20 30
20 20 30
20 20 30
20 20 30
20 20 30
20 20 30
20 20 30
20 20 30
20 20 30
20 20 30
20 20 30
20 20 30
20 20 30
20 20 30
20 20 30
20 20 30
20 20 30
20 20 30
20 20 30
20 20 30
20 20 30
20 20 30
20 20 30
20 20 30
20 20 30
20 20 30
20 20 30
20 20 30
20 20 30
20 20 30
20 20 30
20 20 30
20 20 30
20 20 30
20 20 30
20 20 30
20 20 30
20 20 30
20 20 30
20 20 30
20 20 30
20 20 30
20 20 30
20 20 30
20 20 30
20 20 30
20 20 30
20 20 30
20 20 30
20 20 30
20 20 30
20 20 30
20 20 30
20 20 30
20 20 30
20 20 30
20 20 30
20 20 30
20 20 30
20 20 30
20 20 30
20 20 30
20 20 30
20 20 30
20 20 30
20 20 30
20 20 30
20 20 30
20 20 30
20 20 30
20 20 30
20 20 30
20 20 30
20 20 30
20 20 30
20 20 30
20 20 30
20 20 30
20 20 30
20 20 30
20 20 30
20 20 30
20 20 30
20 20 30
20 20 30
20 20 30
20 20 30
20 20 30
20 20 30
20 20 30
20 20 30
20 20 30
20 20 30
20 20 30
20 20 30
20 20 30
20 20 30
20 20 30
20 20 30
20 20 30
20 20 30
20 20 30
20 20 30
20 20 30
20 20 30
20 20 30
20 20 30
20 20 30
20 20 30
20 20 30
20 20 30
20 20 30
20 20 30
20 20 30
20 20 30
20 20 30
20 20 30
20 20 30
20 20 30
20 20 30
20 20 30
20 20 30
20 20 30
20 20 30
20 20 30
20 20 30
20 20 30
20 20 30
20 20 30
20 20 30
20 20 30
20 20 30
20 20 30
20 20 30
20 20 30
20 20 30
20 20 30
20 20 30
20 20 30
20 20 30
20 20 30
20 20 30
20 20 30
20 20 30
20 20 30
20 20 30
20 20 30
20 20 30
20 20 30
20 20 30
20 20 30
20 20 30
20 20 30
20 20 30
20 20 30
20 20 30
20 20 30
20 20 30
20 20 30
20 20 30
20 20 30
20 20 30
20 20 30
20 20 30
20 20 30
20 20 30
20 20 30
20 20 30
20 20 30
20 20 30
20 20 30
20 20 30
20 20 30
20 20 30
20 20 30
20 20 30
20 20 30
20 20 30
20 20 30
20 20 30
20 20 30
20 20 30
20 20 30
20 20 30
20 20 30
20 20 30
20 20 30
20 20 30
20 20 30
20 20 30
20 20 30
20 20 30
20 20 30
20 20 30
20 20 30
20 20 30
20 20 30
20 20 30
20 20 30
20 20 30
20 20 30
20 20 30
20 20 30
20 20 30
20 20 30
20 20 30
20 20 30
20 20 30
20 20 30
20 20 30
20 20 30
20 20 30
20 20 30
20 20 30
20 20 30
20 20 30
20 20 30
20 20 30
20 20 30
20 20 30
20 20 30
20 20 30
20 20 30
20 20 30
20 20 30
20 20 30
20 20 30
20 20 30
20 20 30
20 20 30
20 20 30
20 20 30
20 20 30
20 20 30
20 20 30
20 20 30
20 20 30
20 20 30
20 20 30
20 20 30
20 20 30
20 20 30
20 20 30
20 20 30
20 20 30
20 20 30
20 20 30
20 20 30
20 20 30
20 20 30
20 20 30
20 20 30
20 20 30
20 20 30
20 20 30
20 20 30
20 20 30
20 20 30
20 20 30
20 20 30
20 20 30
20 20 30
20 20 30
20 20 30
20 20 30
20 20 30
20 20 30
20 20 30
20 20 30
20 20 30
20 20 30
20 20 30
20 20 30
20 20 30
20 20 30
20 20 30
20 20 30
20 20 30
20 20 30
20 20 30
20 20 30
20 20 30
20 20 30
20 20 30
20 20 30
20 20 30
20 20 30
20 20 30
20 20 30
20 20 30
20 20 30
20 20 30
20 20 30
20 20 30
20 20 30
20 20 30
20 20 30
20 20 30
20 20 30
20 20 30
20 20 30
20 20 30
20 20 30
20 20 30
20 20 30
20 20 30
20 20 30
20 20 30
20 20 30
20 20 30
20 20 30
20 20 30
20 20 30
20 20 30
20 20 30
20 20 30
20 20 30
20 20 30
20 20 30
20 20 30
20 20 30
20 20 30
20 20 30
20 20 30
20 20 30
20 20 30
20 20 30
20 20 30
20 20 30
20 20 30
20 20 30
20 20 30
20 20 30
20 20 30
20 20 30
20 20 30
20 20 30
20 20 30
20 20 30
20 20 30
20 20 30
20 20 30
20 20 30
20 20 30
20 20 30
20 20 30
20 20 30
20 20 30
20 20 30
20 20 30
20 20 30
20 20 30
20 20 30
20 20 30
20 20 30
20 20 30
20 20 30
20 20 30
20 20 30
20 20 30
20 20 30
20 20 30
20 20 30
20 20 30
20 20 30
20 20 30
20 20 30
20 20 30
20 20 30
20 20 30
20 20 30
20 20 30
20 20 30
20 20 30
20 20 30
20 20 30
20 20 30
20 20 30
20 20 30
20 20 30
20 20 30
20 20 30
20 20 30
20 20 30
20 20 30
20 20 30
20 20 30
20 20 30
20 20 30
20 20 30
20 20 30
20 20 30
20 20 30
20 20 30
20 20 30
20 20 30
20 20 30
20 20 30
20 20 30
20 20 30
20 20 30
20 20 30
20 20 30
20 20 30
20 20 30
20 20 30
20 20 30
20 20 30
20 20 30
20 20 30
20 20 30
20 20 30
20 20 30
20 20 30
20 20 30
20 20 30
20 20 30
20 20 30
20 20 30
20 20 30
20 20 30
20 20 30
20 20 30
20 20 30
20 20 30
20 20 30
20 20 30
20 20 30
20 20 30
20 20 30
20 20 30
20 20 30
20 20 30
20 20 30
20 20 30
20 20 30
20 20 30
20 20 30
20 20 30
20 20 30
20 20 30
20 20 30
20 20 30
20 20 30
20 20 30
20 20 30
20 20 30
20 20 30
20 20 30
20 20 30
20 20 30
20 20 30
20 20 30
20 20 30
20 20 30
20 20 30
20 20 30
20 20 30
20 20 30
20 20 30
20 20 30
20 20 30
20 20 30
20 20 30
20 20 30
20 20 30
20 20 30
20 20 30
20 20 30
20 20 30
20 20 30
20 20 30
20 20 30
20 20 30
20 20 30
20 20 30
20 20 30
20 20 30
20 20 30
20 20 30
20 20 30
20 20 30
20 20 30
20 20 30
20 20 30
20 20 30
20 20 30
20 20 30
20 20 30
20 20 30
20 20 30
20 20 30
20 20 30
20 20 30
20 20 30
20 20 30
20 20 30
20 20 30
20 20 30
20 20 30
20 20 30
20 20 30
20 20 30
20 20 30
20 20 30
20 20 30
20 20 30
20 20 30
20 20 30
20 20 30
20 20 30
20 20 30
20 20 30
20 20 30
20 20 30
20 20 30
20 20 30
20 20 30
20 20 30
20 20 30
20 20 30
20 20 30
20 20 30
20 20 30
20 20 30
20 20 30
20 20 30
20 20 30
20 20 30
20 20 30
20 20 30
20 20 30
20 20 30
20 20 30
20 20 30
20 20 30
20 20 30
20 20 30
20 20 30
20 20 30
20 20 30
20 20 30
20 20 30
20 20 30
20 20 30
20 20 30
20 20 30
20 20 30
20 20 30
20 20 30
20 20 30
20 20 30
20 20 30
20 20 30
20 20 30
20 20 30
20 20 30
20 20 30
20 20 30
20 20 30
20 20 30
20 20 30
20 20 30
20 20 30
20 20 30
20 20 30
20 20 30
20 20 30
20 20 30
20 20 30
20 20 30
20 20 30
20 20 30
20 20 30
20 20 30
20 20 30
20 20 30
20 20 30
20 20 30
20 20 30
20 20 30
20 20 30
20 20 30
20 20 30
20 20 30
20 20 30
20 20 30
20 20 30
20 20 30
20 20 30
20 20 30
20 20 30
20 20 30
20 20 30
20 20 30
20 20 30
20 20 30
20 20 30
20 20 30
20 20 30
20 20 30
20 20 30
20 20 30
20 20 30
20 20 30
20 20 30
20 20 30
20 20 30
20 20 30
20 20 30
20 20 30
20 20 30
20 20 30
20 20 30
20 20 30
20 20 30
20 20 30
20 20 30
20 20 30
20 20 30
20 20 30
20 20 30
20 20 30
20 20 30
20 20 30
20 20 30
20 20 30
20 20 30
20 20 30
20 20 30
20 20 30
20 20 30
20 20 30
20 20 30
20 20 30
20 20 30
20 20 30
20 20 30
20 20 30
20 20 30
20 20 30
20 20 30
20 20 30
20 20 30
20 20 30
20 20 30
20 20 30
20 20 30
20 20 30
20 20 30
20 20 30
20 20 30
20 20 30
20 20 30
20 20 30
20 20 30
20 20 30
20 20 30
20 20 30
20 20 30
20 20 30
20 20 30
20 20 30
20 20 30
20 20 30
20 20 30
20 20 30
20 20 30
20 20 30
20 20 30
20 20 30
20 20 30
20 20 30
20 20 30
20 20 30
20 20 30
20 20 30
20 20 30
20 20 30
20 20 30
20 20 30
20 20 30
20 20 30
20 20 30
20 20 30
20 20 30
20 20 30
20 20 30
20 20 30
20 20 30
20 20 30
20 20 30
20 20 30
20 20 30
20 20 30
20 20 30
20 20 30
20 20 30
20 20 30
20 20 30
20 20 30
20 20 30
20 20 30
20 20 30
20 20 30
20 20 30
20 20 30
20 20 30
20 20 30
20 20 30
20 20 30
20 20 30
20 20 30
20 20 30
20 20 30
20 20 30
20 20 30
20 20 30
20 20 30
20 20 30
20 20 30
20 20 30
20 20 30
20 20 30
20 20 30
20 20 30
20 20 30
20 20 30
20 20 30
20 20 30
20 20 30
20 20 30
20 20 30
20 20 30
20 20 30
20 20 30
20 20 30
20 20 30
20 20 30
20 20 30
20 20 30
20 20 30
20 20 30
20 20 30
20 20 30
20 20 30
20 20 30
20 20 30
20 20 30
20 20 30
20 20 30
20 20 30
20 20 30
20 20 30
20 20 30
20 20 30
20 20 30
20 20 30
20 20 30
20 20 30
20 20 30
20 20 30
20 20 30
20 20 30
20 20 30
20 20 30
20 20 30
20 20 30
20 20 30
20 20 30
20 20 30
20 20 30
20 20 30
20 20 30
20 20 30
20 20 30
20 20 30
20 20 30
20 20 30
20 20 30
20 20 30
20 20 30
20 20 30
20 20 30
20 20 30
20 20 30
20 20 30
20 20 30
20 20 30
20 20 30
20 20 30
20 20 30
20 20 30
20 20 30
20 20 30
20 20 30
20 20 30
20 20 30
20 20 30
20 20 30
20 20 30
20 20 30
20 20 30
20 20 30
20 20 30
20 20 30
20 20 30
20 20 30
20 20 30
20 20 30
20 20 30
20 20 30
20 20 30
20 20 30
20 20 30
20 20 30
20 20 30
20 20 30
20 20 30
20 20 30
20 20 30
20 20 30
20 20 30
20 20 30
20 20 30
20 20 30
20 20 30
20 20 30
20 20 30
20 20 30
20 20 30
20 20 30
20 20 30
20 20 30
20 20 30
20 20 30
20 20 30
20 20 30
20 20 30
20 20 30
20 20 30
20 20 30
20 20 30
20 20 30
20 20 30
20 20 30
20 20 30
20 20 30
20 20 30
20 20 30
20 20 30
20 20 30
20 20 30
20 20 30
20 20 30
20 20 30
20 20 30
20 20 30
20 20 30
20 20 30
20 20 30
20 20 30
20 20 30
20 20 30
20 20 30
20 20 30
20 20 30
20 20 30
20 20 30
20 20 30
20 20 30
20 20 30
20 20 30
20 20 30
20 20 30
20 20 30
20 20 30
20 20 30
20 20 30
20 20 30
20 20 30
20 20 30
20 20 30
20 20 30
20 20 30
20 20 30
20 20 30
20 20 30
20 20 30
20 20 30
20 20 30
20 20 30
20 20 30
20 20 30
20 20 30
20 20 30
20 20 30
20 20 30
20 20 30
20 20 30
20 20 30
20 20 30
20 20 30
20 20 30
20 20 30
20 20 30
20 20 30
20 20 30
20 20 30
20 20 30
20 20 30
20 20 30
20 20 30
20 20 30
20 20 30
20 20 30
20 20 30
20 20 30
20 20 30
20 20 30
20 20 30
20 20 30
20 20 30
20 20 30
20 20 30
20 20 30
20 20 30
20 20 30
20 20 30
20 20 30
20 20 30
20 20 30
20 20 30
20 20 30
20 20 30
20 20 30
20 20 30
20 20 30
20 20 30
20 20 30
20 20 30
20 20 30
20 20 30
20 20 30
20 20 30
20 20 30
20 20 30
20 20 30
20 20 30
20 20 30
20 20 30
20 20 30
20 20 30
20 20 30
20 20 30
20 20 30
20 20 30
20 20 30
20 20 30
20 20 30
20 20 30
20 20 30
20 20 30
20 20 30
20 20 30
20 20 30
20 20 30
20 20 30
20 20 30
20 20 30
20 20 30
20 20 30
20 20 30
20 20 30
20 20 30
20 20 30
20 20 30
20 20 30
20 20 30
20 20 30
20 20 30
20 20 30
20 20 30
20 20 30
20 20 30
20 20 30
20 20 30
20 20 30
20 20 30
20 20 30
20 20 30
20 20 30
20 20 30
20 20 30
20 20 30
20 20 30
20 20 30
20 20 30
20 20 30
20 20 30
20 20 30
20 20 30
20 20 30
20 20 30
20 20 30
20 20 30
20 20 30
20 20 30
20 20 30
20 20 30
20 20 30
20 20 30
20 20 30
20 20 30
20 20 30
20 20 30
20 20 30
20 20 30
20 20 30
20 20 30
20 20 30
20 20 30
20 20 30
20 20 30
20 20 30
20 20 30
20 20 30
20 20 30
20 20 30
20 20 30
20 20 30
20 20 30
20 20 30
20 20 30
20 20 30
20 20 30
20 20 30
20 20 30
20 20 30
20 20 30
20 20 30
20 20 30
20 20 30
20 20 30
20 20 30
20 20 30
20 20 30
20 20 30
20 20 30
20 20 30
20 20 30
20 20 30
20 20 30
20 20 30
20 20 30
20 20 30
20 20 30
20 20 30
20 20 30
20 20 30
20 20 30
20 20 30
20 20 30
20 20 30
20 20 30
20 20 30
20 20 30
20 20 30
20 20 30
20 20 30
20 20 30
20 20 30
20 20 30
20 20 30
20 20 30
20 20 30
20 20 30
20 20 30
20 20 30
20 20 30
20 20 30
20 20 30
20 20 30
20 20 30
20 20 30
20 20 30
20 20 30
20 20 30
20 20 30
20 20 30
20 20 30
20 20 30
20 20 30
20 20 30
20 20 30
20 20 30
20 20 30
20 20 30
20 20 30
20 20 30
20 20 30
20 20 30
20 20 30
20 20 30
20 20 30
20 20 30
20 20 30
20 20 30
20 20 30
20 20 30
20 20 30
20 20 30
20 20 30
20 20 30
20 20 30
20 20 30
20 20 30
20 20 30
20 20 30
20 20 30
20 20 30
20 20 30
20 20 30
20 20 30
20 20 30
20 20 30
20 20 30
20 20 30
20 20 30
20 20 30
20 20 30
20 20 30
20 20 30
20 20 30
20 20 30
20 20 30
20 20 30
